<?xml version="1.0" encoding="UTF-8"?>
<map version="1.10" tiledversion="1.11.2" orientation="orthogonal" renderorder="right-down" width="70" height="70" tilewidth="64" tileheight="64" infinite="0" nextlayerid="14" nextobjectid="1956">
 <tileset firstgid="1" source="Grass_Tileset_1.tsx"/>
 <tileset firstgid="17" source="Tree_1.tsx"/>
 <tileset firstgid="21" source="Cliff_Tileset.tsx"/>
 <tileset firstgid="63" source="Stair_Tileset.tsx"/>
 <tileset firstgid="83" source="Tree_Shadow.tsx"/>
 <tileset firstgid="85" source="Path_1.tsx"/>
 <tileset firstgid="89" source="Rock&amp;Bush.tsx"/>
 <tileset firstgid="95" source="Water_tileset.tsx"/>
 <layer id="1" name="Floor" width="70" height="70">
  <data encoding="csv">
1,1,1,1,1,1,1,1,1,1,1,1,1,1,1,1,1,1,1,1,1,5,1,1,6,1,4,6,1,1,1,1,1,1,1,1,1,1,1,1,1,1,1,1,1,1,1,1,1,1,1,1,1,1,1,1,1,1,1,1,1,1,1,1,1,1,1,1,1,1,
1,1,1,1,1,1,1,1,1,1,1,1,1,1,1,1,1,1,1,1,5,1,3,1,2,1,6,1,1,1,1,1,1,1,1,1,1,1,1,1,1,1,1,1,1,1,1,1,1,1,1,1,1,1,1,1,1,1,1,1,1,1,1,1,1,1,1,1,1,1,
1,1,1,1,1,1,1,1,1,1,1,1,1,1,1,1,1,1,1,1,1,1,1,1,1,1,3,1,1,1,1,1,1,1,1,1,1,1,1,1,1,1,8,1,1,1,1,1,1,1,1,1,1,1,1,1,1,1,1,1,1,1,1,1,1,1,1,1,1,1,
1,1,1,1,1,1,1,1,1,1,1,1,1,1,1,1,1,1,1,3,3,1,1,1,1,2,5,1,1,1,1,1,1,6,12,10,3,6,12,1,4,5,8,5,1,1,4,1,5,1,5,11,11,11,11,12,12,12,12,12,12,1,1,1,1,1,1,1,1,1,
1,1,1,1,1,1,1,1,1,1,1,1,1,1,1,1,1,1,1,3,2,1,1,1,1,4,5,1,1,1,1,1,1,10,10,12,10,10,10,1,5,2,3,3,3,5,6,6,2,2,7,6,11,12,11,11,11,11,11,12,12,12,12,1,1,1,1,1,1,1,
1,1,1,1,1,1,1,1,1,1,1,1,1,1,1,1,1,1,1,6,3,1,1,1,1,5,3,1,1,1,1,1,2,10,12,10,10,4,1,1,1,1,1,1,1,1,1,1,2,3,5,4,6,6,11,11,12,12,12,12,12,12,12,12,12,1,1,1,1,1,
1,1,1,1,1,1,1,1,1,1,1,1,1,1,1,1,1,1,1,3,1,1,1,1,1,1,4,1,1,1,1,5,1,12,7,6,2,6,1,1,1,1,1,1,1,1,1,1,1,4,5,3,5,2,1,3,1,12,12,11,11,11,12,12,1,1,1,1,1,1,
1,1,1,1,1,1,1,1,1,1,1,1,1,1,1,1,1,1,1,1,1,1,1,1,1,1,2,1,1,1,1,5,1,6,8,8,1,1,1,1,1,1,1,1,1,1,1,1,1,1,7,2,5,7,5,7,5,6,12,12,11,11,12,12,1,1,1,1,1,1,
1,1,1,1,1,1,1,1,1,1,1,1,1,1,1,1,1,1,1,6,3,1,1,1,1,1,2,1,1,1,1,6,1,4,8,1,1,1,2,5,3,1,2,3,1,1,1,1,1,1,1,5,7,7,3,5,7,5,2,1,12,12,12,1,1,1,1,1,1,1,
1,1,1,1,1,1,1,1,1,1,1,1,1,1,1,1,1,1,1,5,3,1,1,1,1,1,5,1,1,1,1,1,1,1,1,1,1,2,6,1,2,1,2,5,1,1,1,1,1,1,5,3,7,8,7,4,7,4,1,1,1,12,12,1,1,1,1,1,1,1,
1,1,1,1,1,1,1,1,1,1,1,1,1,1,1,1,1,1,4,5,6,1,1,1,1,1,1,1,1,1,1,1,1,1,1,1,1,5,6,2,3,4,1,1,1,1,1,1,1,1,1,4,2,1,5,1,7,3,1,1,6,12,12,5,1,1,1,1,1,1,
1,1,1,1,1,1,1,1,1,1,1,1,1,1,1,1,1,1,1,2,5,1,1,1,1,1,1,3,3,5,3,1,1,1,1,1,1,3,4,6,3,2,5,3,3,1,1,1,1,1,1,1,1,6,6,1,5,1,1,1,6,1,3,2,1,1,1,1,1,1,
1,1,1,1,1,1,1,1,1,1,1,1,1,1,1,1,1,1,1,3,5,7,1,1,1,1,1,1,1,1,3,1,1,1,1,3,2,5,6,6,6,4,1,1,1,1,1,1,1,1,1,1,1,1,1,1,1,1,1,1,1,1,1,1,1,1,1,1,1,1,
1,1,1,1,1,1,1,1,1,1,1,1,1,1,1,1,1,1,1,2,2,6,3,1,1,1,1,2,3,5,6,1,1,1,2,1,1,1,1,1,1,1,1,1,1,1,1,1,1,1,1,1,1,1,1,1,1,1,1,1,3,2,1,1,1,1,1,1,1,1,
1,1,1,1,1,1,1,1,1,12,1,1,10,10,1,1,1,1,1,1,2,8,6,6,4,3,5,1,1,4,6,1,1,1,1,1,1,1,1,1,1,1,1,1,1,1,1,1,1,1,1,1,4,5,7,3,7,1,1,1,1,1,1,1,1,1,1,1,1,1,
1,1,1,1,1,1,1,1,12,12,1,10,10,10,10,10,1,1,1,1,1,3,3,8,1,1,1,1,1,1,6,2,1,1,1,1,1,1,1,1,1,1,1,1,1,1,1,1,1,1,6,4,3,7,6,4,1,1,1,4,5,1,1,1,1,1,1,1,1,1,
1,1,1,1,1,1,1,12,12,12,1,12,10,10,1,1,1,1,1,1,1,1,1,1,1,1,1,1,1,1,1,4,3,1,1,1,1,1,1,1,1,1,1,1,1,1,1,1,5,1,2,7,1,7,8,3,1,1,3,3,1,1,1,1,1,1,1,1,1,1,
1,1,1,1,1,1,1,12,12,1,12,12,10,10,1,1,1,1,1,1,1,1,1,1,1,1,1,1,1,1,1,1,3,1,1,1,1,1,1,1,1,1,1,1,1,1,1,2,5,3,2,7,6,1,1,1,1,5,3,3,12,1,1,1,1,1,1,1,1,1,
1,1,1,1,1,1,1,12,12,12,9,12,12,12,1,1,1,1,1,1,1,1,1,1,1,1,1,1,1,1,1,11,12,12,1,1,1,3,7,1,1,1,1,1,1,1,1,3,1,1,1,1,1,1,1,5,3,1,2,3,9,1,1,1,1,1,1,1,1,1,
1,1,1,1,1,1,1,12,1,12,9,12,12,12,12,12,1,1,1,1,1,1,1,1,1,1,1,1,1,1,11,12,12,11,12,12,6,2,6,4,3,1,1,1,1,1,1,1,1,8,5,1,1,4,2,1,1,3,9,12,9,1,1,1,1,1,1,1,1,1,
1,1,1,1,1,1,1,12,1,1,9,9,10,10,12,9,12,1,1,1,1,1,1,1,1,1,1,1,1,1,12,11,12,12,12,11,12,11,1,3,7,1,1,1,1,1,1,1,1,1,1,1,4,7,5,6,2,9,12,9,9,1,1,1,1,1,1,1,1,1,
1,1,1,1,1,1,1,12,12,1,1,1,1,10,12,9,9,9,1,1,1,1,1,1,1,1,1,1,1,1,1,1,1,1,12,12,2,3,6,4,1,4,7,1,1,1,1,1,1,1,4,8,1,1,1,1,2,1,1,1,1,1,1,1,1,1,1,1,1,1,
1,1,1,1,1,1,1,1,1,1,1,1,1,10,12,12,9,9,1,1,1,1,1,1,1,1,1,1,1,1,1,1,1,1,1,1,1,1,1,1,1,1,5,1,1,1,1,1,1,1,5,5,1,1,1,1,1,1,1,1,1,1,1,1,1,1,1,1,1,1,
1,1,1,1,1,1,1,1,1,1,1,1,1,10,10,12,12,12,1,1,1,1,1,1,1,1,1,1,1,1,1,1,1,1,1,1,1,1,1,1,1,1,1,1,3,1,1,1,1,1,1,1,1,1,1,1,1,1,1,1,1,1,1,1,1,1,1,1,1,1,
1,1,1,1,1,1,1,1,1,1,1,1,1,1,1,12,12,12,10,10,10,10,1,1,1,1,1,1,1,1,1,1,1,1,1,1,1,1,1,1,1,1,1,1,8,1,1,1,1,1,1,1,1,1,1,1,1,1,1,1,1,1,1,1,1,1,1,1,1,1,
1,1,1,1,1,1,1,1,1,1,1,1,1,1,1,12,12,10,10,1,10,10,1,3,4,2,3,3,2,3,2,1,1,1,1,1,1,1,1,3,1,1,1,1,1,1,1,1,1,1,1,1,1,1,1,1,1,1,1,1,1,3,1,1,1,4,2,1,1,1,
1,1,1,1,1,1,1,1,1,3,3,3,1,11,11,12,12,12,1,1,10,1,1,1,1,1,5,1,4,4,3,3,2,1,1,1,1,1,1,4,1,1,1,1,1,1,1,3,4,3,3,1,2,2,3,3,3,2,1,1,2,2,3,2,1,1,4,1,1,3,
1,1,1,1,1,1,1,1,4,3,4,4,4,4,11,12,12,12,1,1,3,2,2,1,5,5,8,8,4,2,15,8,2,1,2,4,2,6,1,1,1,1,6,6,5,2,1,1,1,4,4,4,3,1,2,3,2,1,3,2,4,1,1,3,2,4,1,1,2,1,
1,1,1,1,3,3,3,14,8,3,4,2,4,4,11,11,12,12,12,11,12,3,8,2,5,7,2,4,9,15,9,15,4,8,1,8,7,8,5,1,2,7,8,1,7,1,1,1,1,1,1,6,4,2,2,2,3,1,4,1,3,2,1,4,2,1,1,3,4,3,
1,1,4,2,14,14,11,14,4,5,1,2,3,5,5,11,11,12,12,12,3,4,4,3,3,5,8,15,9,9,9,8,2,6,1,6,2,1,1,2,5,5,1,4,2,1,1,1,1,1,1,2,2,7,2,2,6,2,7,8,7,1,2,4,2,4,3,2,1,4,
1,1,4,14,14,14,7,8,2,1,4,4,7,1,8,8,3,2,2,3,1,3,5,4,4,1,8,1,4,2,3,1,6,6,7,5,8,5,7,3,6,6,3,1,1,1,1,1,1,1,6,1,2,7,3,4,10,10,10,12,10,12,3,1,1,3,4,4,1,4,
1,1,14,14,14,11,14,1,1,6,5,7,8,2,1,1,1,1,5,7,8,1,1,1,1,7,1,1,1,1,1,1,1,1,1,5,5,4,6,3,7,1,1,1,1,1,1,1,1,1,1,1,8,7,1,7,12,10,12,10,10,10,10,1,2,2,4,2,4,1,
1,3,14,11,11,14,11,4,3,1,5,3,1,1,1,1,1,1,4,5,4,1,1,1,1,1,1,1,1,1,1,1,1,1,1,1,1,1,1,1,1,1,1,1,1,1,1,1,1,1,1,1,1,1,1,2,3,6,10,12,10,12,10,10,6,2,1,3,1,3,
3,4,14,11,14,14,3,4,1,1,1,1,1,1,1,1,1,6,8,3,6,6,2,1,1,1,1,1,1,1,1,1,1,1,1,1,1,1,1,1,1,1,1,1,1,1,1,1,5,1,1,1,1,1,1,1,4,4,6,7,3,10,12,10,1,2,4,3,4,4,
2,1,8,3,3,4,1,1,1,1,1,1,1,1,1,7,2,8,8,5,5,6,1,1,1,1,1,1,1,1,1,1,1,1,1,1,1,1,1,1,1,1,1,1,1,1,1,1,1,4,4,1,1,1,1,1,1,3,4,6,8,3,8,2,2,3,8,6,4,4,
4,5,4,2,4,3,2,1,1,1,1,1,1,1,2,2,1,5,3,1,1,1,1,1,1,1,1,1,1,1,1,1,1,1,1,1,1,1,1,1,1,1,1,1,1,1,1,1,1,3,7,3,1,1,1,1,1,1,5,6,8,1,6,6,4,7,4,6,1,3,
6,1,7,1,1,2,4,3,1,1,1,1,1,1,1,1,1,1,1,1,1,1,1,1,1,1,1,1,1,1,1,1,4,3,1,1,1,3,4,1,1,1,1,4,1,7,1,4,1,3,4,8,4,7,1,1,1,1,1,1,8,8,6,5,3,3,3,4,3,3,
7,2,2,1,1,1,1,1,1,1,1,1,1,1,1,1,1,1,1,1,1,4,3,2,3,1,3,3,1,2,1,3,3,1,1,2,5,3,3,3,1,1,1,1,1,1,1,1,6,1,1,1,4,1,1,1,5,1,1,8,8,3,8,7,5,8,7,4,1,1,
8,1,7,8,2,1,1,1,3,1,1,1,1,1,1,1,1,1,1,1,1,3,2,2,1,1,2,4,2,4,2,4,4,5,6,3,1,2,3,7,3,1,1,1,1,1,1,1,1,1,1,1,1,1,1,1,2,2,1,1,1,2,1,3,6,1,1,2,1,3,
1,1,1,3,2,1,1,1,4,2,3,1,2,4,1,1,1,1,1,1,2,1,1,1,2,1,2,1,3,3,5,6,6,2,1,4,8,4,8,8,3,7,1,1,1,1,5,5,1,1,1,1,1,1,1,1,1,1,1,8,1,1,1,2,8,3,2,1,3,1,
1,1,2,5,8,1,2,1,4,2,3,4,1,4,4,4,3,1,1,1,4,4,1,2,4,1,1,1,4,8,4,2,3,6,6,6,1,1,1,7,4,1,5,1,1,1,1,8,1,1,1,3,6,1,1,1,1,5,8,1,1,3,7,7,2,4,1,1,4,1,
1,1,1,1,5,1,2,2,2,1,1,4,1,1,1,1,2,2,2,1,3,3,1,2,3,3,1,7,7,2,2,3,4,4,6,7,6,3,2,6,2,7,4,8,7,7,1,1,5,1,1,1,8,7,7,1,1,1,1,8,1,4,1,3,8,2,1,3,1,4,
1,1,1,1,1,1,1,2,12,12,2,1,4,1,1,1,1,1,1,2,4,3,4,4,3,3,3,5,4,1,1,6,2,2,7,7,1,3,4,4,3,6,1,5,4,7,3,1,8,1,1,5,5,6,1,1,4,1,1,1,1,1,4,4,4,8,4,8,3,4,
1,1,1,4,1,1,1,1,4,12,12,3,1,1,1,1,1,1,1,6,4,1,1,2,1,4,2,2,4,4,4,2,2,3,5,3,1,1,3,2,6,1,6,8,8,9,1,1,3,5,1,1,3,1,1,1,2,1,1,1,1,1,1,1,3,8,1,1,1,1,
1,1,1,2,1,1,1,1,1,12,12,12,1,1,1,8,3,6,8,4,1,1,4,2,4,4,3,2,2,2,3,1,4,3,2,7,1,7,4,2,8,5,4,1,1,9,9,1,1,1,1,1,1,1,5,7,1,1,1,1,1,1,1,1,1,1,1,1,1,1,
1,1,1,6,1,1,1,1,1,12,12,12,1,1,1,1,3,8,4,2,4,1,2,3,2,1,3,2,3,4,2,3,4,4,7,2,2,4,3,3,4,8,4,2,6,9,9,9,1,1,1,1,1,8,6,1,1,2,1,1,1,1,1,1,1,1,1,1,1,1,
1,1,1,2,1,1,1,1,3,12,12,12,1,1,1,1,1,2,5,7,3,4,3,2,4,2,3,1,1,2,2,1,3,4,1,2,4,3,3,3,4,8,5,2,2,9,9,9,1,1,1,1,1,1,1,1,4,7,8,1,1,1,1,1,1,1,1,1,8,3,
1,1,1,7,1,1,1,1,3,12,12,1,1,1,1,1,1,1,6,2,1,12,1,12,12,4,2,3,3,4,4,1,3,1,1,3,3,9,4,2,1,1,1,3,3,4,3,1,1,1,1,1,1,1,1,4,4,8,4,1,1,1,1,1,1,1,7,4,3,5,
1,1,1,8,1,1,1,1,3,3,12,1,1,1,1,1,1,1,1,1,12,12,12,10,10,12,3,1,3,2,2,6,5,15,9,15,9,9,1,3,2,3,3,4,2,4,2,1,1,1,1,1,1,1,1,1,2,1,4,1,1,1,1,1,1,1,3,4,2,2,
1,1,1,5,1,1,1,1,2,4,2,3,1,1,1,1,1,1,1,1,1,12,12,12,10,12,2,3,3,4,4,5,5,15,9,9,9,15,1,1,5,3,2,1,4,2,4,3,1,1,1,1,1,1,1,1,1,1,1,1,1,1,1,1,1,1,4,7,7,8,
1,1,1,5,1,1,1,1,1,3,2,3,2,1,1,1,1,1,1,1,1,1,12,12,10,12,12,3,1,3,1,2,2,1,2,9,15,1,1,1,4,3,4,3,3,2,2,1,4,1,1,1,1,1,1,1,1,1,1,1,1,1,1,2,1,7,3,3,1,1,
1,1,1,6,1,1,1,1,1,4,4,3,2,1,1,1,7,1,1,7,1,1,4,4,3,4,2,2,4,4,1,1,2,3,2,1,3,2,1,1,3,2,4,3,3,1,1,1,4,1,1,1,1,1,1,1,1,1,2,2,3,1,1,1,1,4,1,1,1,1,
3,1,1,8,1,1,1,1,2,2,3,2,1,1,1,1,1,1,1,1,8,1,4,4,4,3,4,3,3,1,8,7,3,1,3,4,2,6,6,8,4,1,1,1,8,3,3,4,4,3,2,1,1,1,1,1,1,2,4,1,1,1,1,3,4,4,3,1,1,1,
7,1,1,6,1,1,1,4,2,2,2,1,1,1,1,1,1,1,1,6,2,2,2,1,1,1,1,1,1,1,1,1,1,1,1,3,1,1,1,1,1,1,1,6,2,2,2,3,4,1,1,3,1,1,3,2,1,1,3,2,7,2,3,1,2,1,3,4,1,3,
3,1,1,5,1,1,2,4,1,7,7,7,1,1,1,1,1,1,1,3,4,3,1,1,1,1,1,1,1,1,1,1,1,1,1,1,1,1,1,1,1,1,2,6,4,4,2,3,1,1,1,2,1,1,2,1,3,1,1,3,5,1,3,3,1,1,1,2,3,3,
4,8,1,4,1,3,2,1,1,7,7,1,1,1,1,1,1,1,6,2,3,1,1,1,1,1,1,1,1,1,1,1,1,1,1,1,1,1,1,1,1,1,1,8,2,2,3,8,2,1,1,1,3,3,1,5,4,1,1,1,1,1,15,15,15,4,1,4,1,2,
3,6,3,6,3,3,1,1,7,7,7,1,1,1,1,1,1,5,8,2,1,1,1,5,2,1,1,1,1,1,1,1,1,1,1,1,1,1,1,1,1,1,1,4,3,4,2,4,2,4,3,1,1,3,1,1,1,6,1,1,1,1,1,15,15,15,1,1,4,1,
1,1,3,8,3,4,2,1,7,7,4,1,1,1,1,1,1,5,4,4,1,1,5,6,1,1,1,1,1,1,1,3,3,1,1,3,3,1,1,1,1,1,1,1,1,1,1,1,4,3,4,1,1,1,2,4,1,1,1,1,1,1,1,1,15,15,1,2,2,3,
4,2,3,4,3,4,3,2,8,2,2,1,1,1,1,1,1,5,8,1,1,6,4,1,1,1,1,1,1,1,2,4,4,4,2,2,3,2,4,2,2,3,1,1,1,1,1,1,1,3,3,1,2,2,2,1,1,2,3,1,1,1,1,1,4,1,4,2,2,3,
3,4,2,7,4,2,1,4,8,8,1,1,1,1,1,1,1,1,5,1,4,1,1,1,1,1,1,1,1,4,2,1,1,1,1,1,1,2,2,2,2,4,3,1,1,1,1,2,1,2,1,4,1,1,1,1,2,2,16,1,1,1,1,1,4,1,1,2,1,4,
3,1,7,8,4,3,2,2,4,8,8,1,1,1,1,1,1,1,2,4,1,4,8,1,1,1,4,3,2,4,1,1,1,1,1,1,1,1,1,1,1,4,4,2,1,1,3,4,3,2,1,1,1,1,1,1,1,4,16,1,1,1,1,2,1,1,1,3,3,1,
1,1,4,8,2,4,4,2,4,2,8,8,8,1,1,1,1,1,1,2,3,1,4,1,2,3,3,1,1,1,1,1,14,14,14,1,1,1,1,1,1,1,2,2,4,2,4,2,4,4,1,2,1,1,2,1,4,16,16,1,1,1,1,2,4,1,4,1,4,4,
3,6,4,2,2,4,4,4,4,4,1,8,8,1,1,1,1,1,1,1,2,2,3,2,3,3,1,1,1,1,1,1,14,14,1,14,1,1,1,2,1,1,1,1,1,1,1,4,1,3,4,4,4,1,1,1,4,16,16,1,1,1,1,3,1,1,3,1,4,2,
5,6,6,6,7,4,2,4,3,2,1,1,1,1,1,1,1,1,1,1,1,1,1,1,1,1,1,1,1,1,1,1,14,1,14,1,1,1,7,2,2,1,1,1,1,1,1,2,2,2,1,3,3,1,3,1,2,16,2,1,1,1,2,1,1,1,3,1,2,2,
8,5,1,2,1,5,4,3,3,3,3,1,1,1,1,1,1,1,1,1,1,1,1,1,1,1,1,1,4,2,3,3,14,1,14,14,12,1,7,6,2,1,1,1,1,1,1,1,3,2,2,1,3,4,1,1,1,2,2,1,1,1,1,14,14,3,4,1,1,1,
1,1,4,7,6,7,5,1,2,4,2,4,1,1,1,5,3,3,2,3,7,2,4,2,4,4,2,2,2,3,1,1,14,14,14,1,1,1,6,6,6,2,2,1,1,1,1,1,2,2,1,4,2,4,1,1,1,1,2,1,4,1,14,14,14,4,3,1,1,4,
2,1,1,1,1,2,5,4,4,3,3,4,3,3,4,5,3,2,4,3,4,3,5,4,4,3,4,3,3,2,1,1,1,14,14,1,1,1,1,1,2,2,2,1,1,1,1,3,3,1,2,3,1,1,4,1,1,1,4,3,1,2,14,14,1,1,1,1,2,4,
3,1,4,1,1,3,7,4,3,8,2,2,4,3,4,1,1,3,3,4,2,1,4,2,4,3,2,4,1,1,1,1,1,1,14,1,1,1,1,2,2,8,1,1,1,1,1,3,3,4,3,4,2,7,6,4,1,3,3,1,1,2,1,3,4,4,1,1,4,1,
4,1,3,1,1,1,1,1,5,8,7,7,1,1,1,3,4,2,3,4,3,2,3,3,2,4,1,1,1,1,1,1,1,1,1,1,1,1,1,1,2,2,8,8,1,1,8,8,5,2,5,8,6,6,1,5,3,1,4,2,1,1,3,3,2,1,1,1,4,1,
7,4,4,7,8,8,3,6,1,6,7,8,8,3,1,1,1,1,2,3,3,3,3,1,1,1,1,1,1,1,1,1,1,1,1,1,1,1,1,6,6,8,8,1,1,1,1,4,2,7,3,3,6,4,6,8,2,8,1,1,1,2,3,3,4,1,2,4,2,1
</data>
 </layer>
 <layer id="11" name="Path" width="70" height="70">
  <data encoding="csv">
0,0,0,0,0,0,0,0,0,0,0,0,0,0,0,0,0,0,0,0,0,88,0,0,0,0,0,0,0,0,0,0,0,0,0,0,0,0,0,0,0,0,0,0,0,0,0,0,0,0,0,0,0,0,0,0,0,0,0,0,0,0,0,0,0,0,0,0,0,0,
0,0,0,0,0,0,0,0,0,0,0,0,0,0,0,0,0,0,0,0,0,0,0,0,85,0,0,0,0,0,0,0,0,0,0,0,0,0,0,0,0,0,0,0,0,0,0,0,0,0,0,0,0,0,0,0,0,0,0,0,0,0,0,0,0,0,0,0,0,0,
0,0,0,0,0,0,0,0,0,0,0,0,0,0,0,0,0,0,0,0,0,0,85,0,0,0,0,0,0,0,0,0,0,0,0,0,0,0,0,0,0,0,0,0,0,0,0,0,0,0,0,0,0,0,0,0,0,0,0,0,0,0,0,0,0,0,0,0,0,0,
0,0,0,0,0,0,0,0,0,0,0,0,0,0,0,0,0,0,0,0,0,87,85,0,0,0,0,0,0,0,0,0,0,0,0,0,0,0,0,0,0,0,0,0,0,0,0,0,0,0,0,0,0,0,0,0,0,0,0,0,0,0,0,0,0,0,0,0,0,0,
0,0,0,0,0,0,0,0,0,0,0,0,0,0,0,0,0,0,0,0,0,86,0,0,0,0,0,0,0,0,0,0,0,0,0,0,0,0,0,0,0,0,0,0,0,0,0,0,0,0,0,0,0,0,0,0,0,0,0,0,0,0,0,0,0,0,0,0,0,0,
0,0,0,0,0,0,0,0,0,0,0,0,0,0,0,0,0,0,0,0,0,88,0,0,0,0,0,0,0,0,0,0,0,0,0,0,0,0,0,0,0,0,0,0,0,0,0,0,0,0,0,0,0,0,0,0,0,0,0,0,0,0,0,0,0,0,0,0,0,0,
0,0,0,0,0,0,0,0,0,0,0,0,0,0,0,0,0,0,0,0,0,0,0,0,0,88,0,0,0,0,0,0,0,0,0,0,0,0,0,0,0,0,0,0,0,0,0,0,0,0,0,0,0,0,0,0,0,0,0,0,0,0,0,0,0,0,0,0,0,0,
0,0,0,0,0,0,0,0,0,0,0,0,0,0,0,0,0,0,0,0,0,85,0,0,86,0,0,0,0,0,0,0,0,0,0,0,0,0,0,0,0,0,0,0,0,0,0,0,0,0,0,0,0,0,0,0,0,0,0,0,0,0,0,0,0,0,0,0,0,0,
0,0,0,0,0,0,0,0,0,0,0,0,0,0,0,0,0,0,0,0,0,0,0,0,0,0,0,0,0,0,0,0,0,0,0,0,0,0,0,0,0,0,0,0,0,0,0,0,0,0,0,0,0,0,0,0,0,0,0,0,0,0,0,0,0,0,0,0,0,0,
0,0,0,0,0,0,0,0,0,0,0,0,0,0,0,0,0,0,0,0,0,0,0,0,0,0,0,0,0,0,0,0,0,0,0,0,0,0,0,0,0,0,0,0,0,0,0,0,0,0,0,0,0,0,0,0,0,0,0,0,0,0,0,0,0,0,0,0,0,0,
0,0,0,0,0,0,0,0,0,0,0,0,0,0,0,0,0,0,0,0,0,88,88,0,0,0,0,0,0,0,0,0,0,0,0,0,0,0,0,0,0,0,0,0,0,0,0,0,0,0,0,0,0,0,0,0,0,0,0,0,0,0,0,0,0,0,0,0,0,0,
0,0,0,0,0,0,0,0,0,0,0,0,0,0,0,0,0,0,0,0,0,0,0,0,0,0,0,0,0,85,0,0,0,0,0,0,0,0,0,0,0,0,0,0,0,0,0,0,0,0,0,0,0,0,0,0,0,0,0,0,0,0,0,0,0,0,0,0,0,0,
0,0,0,0,0,0,0,0,0,0,0,0,0,0,0,0,0,0,0,0,0,0,85,86,0,0,88,0,0,88,88,0,86,0,0,0,0,0,0,0,0,0,0,0,0,0,0,0,0,0,0,0,0,0,0,0,0,0,0,0,0,0,0,0,0,0,0,0,0,0,
0,0,0,0,0,0,0,0,0,0,0,0,0,0,0,0,0,0,0,0,0,0,0,0,0,88,0,0,0,0,0,0,0,0,87,0,0,0,0,0,0,0,0,0,0,0,0,0,0,0,0,0,0,0,0,0,0,0,0,0,0,0,0,0,0,0,0,0,0,0,
0,0,0,0,0,0,0,0,0,0,0,0,0,0,0,0,0,0,0,0,0,0,0,0,0,0,0,0,0,0,0,0,85,0,0,0,0,0,0,0,0,0,0,0,0,0,0,0,0,0,0,0,0,0,0,0,0,0,0,0,0,0,0,0,0,0,0,0,0,0,
0,0,0,0,0,0,0,0,0,0,0,0,0,0,0,0,0,0,0,0,0,0,0,0,0,0,0,0,0,0,0,0,0,0,85,0,88,0,85,0,0,0,0,0,0,0,0,0,0,0,0,0,0,0,0,0,0,0,0,0,0,0,0,0,0,0,0,0,0,0,
0,0,0,0,0,0,0,0,0,0,0,0,0,0,0,0,0,0,0,0,0,0,0,0,0,0,0,0,0,0,0,0,0,0,88,0,0,0,0,0,0,85,87,0,0,0,0,0,0,0,0,0,0,0,0,0,0,0,0,0,0,0,0,0,0,0,0,0,0,0,
0,0,0,0,0,0,0,0,0,0,0,0,0,0,0,0,0,0,0,0,0,0,0,0,0,0,0,0,0,0,0,0,0,0,0,0,0,88,0,87,0,0,0,0,87,0,0,0,0,0,0,0,0,0,0,0,0,0,0,0,0,0,0,0,0,0,0,0,0,0,
0,0,0,0,0,0,0,0,0,0,0,0,0,0,0,0,0,0,0,0,0,0,0,0,0,0,0,0,0,0,0,0,0,0,0,0,0,0,0,0,0,0,0,0,0,0,0,0,0,0,0,0,0,0,0,0,0,0,0,0,0,0,0,0,0,0,0,0,0,0,
0,0,0,0,0,0,0,0,0,0,0,0,0,0,0,0,0,0,0,0,0,0,0,0,0,0,0,0,0,0,0,0,0,0,0,0,0,0,0,0,0,0,0,0,0,86,0,0,0,0,0,0,0,0,0,0,0,0,0,0,0,0,0,0,0,0,0,0,0,0,
0,0,0,0,0,0,0,0,0,0,0,0,0,0,0,0,0,0,0,0,0,0,0,0,0,0,0,0,0,0,0,0,0,0,0,0,0,0,0,0,0,0,0,0,0,0,0,0,0,0,0,0,0,0,0,0,0,0,0,0,0,0,0,0,0,0,0,0,0,0,
0,0,0,0,0,0,0,0,0,0,0,0,0,0,0,0,0,0,0,0,0,0,0,0,0,0,0,0,0,0,0,0,0,0,0,0,0,0,0,0,0,0,0,0,0,0,0,87,0,0,0,0,0,0,0,0,0,0,0,0,0,0,0,0,0,0,0,0,0,0,
0,0,0,0,0,0,0,0,0,0,0,0,0,0,0,0,0,0,0,0,0,0,0,0,0,0,0,0,0,0,0,0,0,0,0,0,0,0,0,0,0,0,0,0,0,87,0,0,0,0,0,0,0,0,0,0,0,0,0,0,0,0,0,0,0,0,0,0,0,0,
0,0,0,0,0,0,0,0,0,0,0,0,0,0,0,0,0,0,0,0,0,0,0,0,0,0,0,0,0,0,0,0,0,0,0,0,0,0,0,0,0,0,0,0,0,0,0,0,0,0,0,0,0,0,0,0,0,0,0,0,0,0,0,0,0,0,0,0,0,0,
0,0,0,0,0,0,0,0,0,0,0,0,0,0,0,0,0,0,0,0,0,0,0,0,0,0,0,0,0,0,0,0,0,0,0,0,0,0,0,0,0,0,0,0,0,0,0,0,88,0,0,0,0,0,0,0,0,0,0,0,0,0,0,0,0,0,0,0,0,0,
0,0,0,0,0,0,0,0,0,0,0,0,0,0,0,0,0,0,0,0,0,0,0,0,0,0,0,0,0,0,0,0,0,0,0,0,0,0,0,0,0,0,0,0,0,0,0,0,0,0,0,0,0,0,0,0,0,0,0,0,0,0,0,0,0,0,0,0,0,0,
0,0,0,0,0,0,0,0,0,0,0,0,0,0,0,0,0,0,0,0,0,0,0,0,0,0,0,0,0,0,0,0,0,0,0,0,0,0,0,0,0,0,0,0,0,0,86,0,0,0,0,0,0,0,0,0,0,0,0,0,0,0,0,0,0,0,0,0,0,0,
0,0,0,0,0,0,0,0,0,0,0,0,0,0,0,0,0,0,0,0,0,0,0,0,0,0,0,0,0,0,0,0,0,0,0,0,0,0,0,0,0,0,0,0,87,0,0,0,0,0,0,0,0,0,0,0,0,0,0,0,0,0,0,0,0,0,0,0,0,0,
0,0,0,0,0,0,0,0,0,0,0,0,0,0,0,0,0,0,0,0,0,0,0,0,0,0,0,0,0,0,0,0,0,0,0,0,0,0,0,0,0,0,0,0,0,0,0,0,0,0,0,0,0,0,0,0,0,0,0,0,0,0,0,0,0,0,0,0,0,0,
0,0,0,0,0,0,0,0,0,0,0,0,0,0,0,0,0,0,0,0,0,0,0,0,0,0,0,0,0,0,0,0,0,0,0,0,0,0,0,0,0,0,0,0,0,0,0,86,0,0,0,0,0,0,0,0,0,0,0,0,0,0,0,0,0,0,0,0,0,0,
0,0,0,0,0,0,0,0,0,0,0,0,0,0,0,0,0,0,0,0,0,0,0,0,0,0,0,0,0,0,0,0,0,0,0,0,0,0,0,0,0,0,0,0,0,0,0,0,88,0,0,0,0,0,0,0,0,0,0,0,0,0,0,0,0,0,0,0,0,0,
0,0,0,0,0,0,0,0,0,0,0,0,0,0,0,0,0,0,0,0,0,0,0,0,0,0,0,0,0,0,0,0,0,0,0,0,0,0,0,0,0,0,0,0,0,0,88,0,0,0,0,0,0,0,0,0,0,0,0,0,0,0,0,0,0,0,0,0,0,0,
0,0,0,0,0,0,0,0,0,0,0,0,0,0,0,0,0,0,0,0,0,0,0,0,0,0,0,0,0,0,0,85,86,0,0,0,0,0,0,0,0,0,0,0,0,0,0,0,0,0,0,0,0,0,0,0,0,0,0,0,0,0,0,0,0,0,0,0,0,0,
0,0,0,0,0,0,0,0,0,86,0,0,0,86,0,0,0,0,0,0,0,0,0,0,0,0,0,0,0,0,0,0,0,0,0,0,0,0,0,0,85,87,0,0,0,0,87,0,0,0,0,0,0,0,0,0,0,0,0,0,0,0,0,0,0,0,0,0,0,0,
0,0,0,0,0,0,0,87,0,0,0,0,0,0,0,0,0,0,0,0,0,0,0,0,0,0,85,86,0,88,0,0,0,0,0,86,0,0,0,0,0,0,0,0,0,0,0,0,0,0,0,0,0,0,0,0,0,0,0,0,0,0,0,0,0,0,0,0,0,0,
0,0,0,0,0,0,0,0,0,0,0,0,0,0,0,0,0,0,0,0,0,0,0,0,0,0,0,0,0,0,0,0,0,0,0,0,0,0,0,0,0,0,0,0,0,87,0,87,0,0,0,0,0,0,0,0,0,0,0,0,0,0,0,0,0,0,0,0,0,0,
0,0,0,0,0,0,0,0,0,0,0,0,0,86,0,0,85,85,0,0,0,0,0,88,0,0,0,0,0,0,0,0,0,0,0,0,0,0,0,0,0,88,0,0,0,0,0,0,0,0,0,0,0,0,0,0,0,0,0,0,0,0,0,0,0,0,0,0,0,0,
0,0,0,0,0,0,0,0,0,0,0,0,0,0,0,0,0,0,0,0,0,0,0,0,0,0,0,0,0,0,0,0,0,0,0,0,0,0,0,0,0,0,0,0,0,0,0,0,0,0,0,0,0,0,0,0,0,0,0,0,0,0,0,0,0,0,0,0,0,0,
0,0,0,0,0,0,0,0,0,0,0,0,0,86,0,0,0,0,0,0,0,0,0,0,0,0,0,0,0,0,0,0,0,0,0,0,0,0,0,0,0,0,0,0,0,0,0,0,88,0,86,0,0,0,0,0,0,0,0,0,0,0,0,0,0,0,0,0,0,0,
0,0,0,0,0,0,0,0,0,0,0,0,0,0,0,0,0,0,0,0,0,0,0,0,0,0,0,0,0,0,0,0,0,0,0,0,0,0,0,0,0,0,0,0,0,0,0,0,0,0,0,0,0,0,0,0,0,0,0,0,0,0,0,0,0,0,0,0,0,0,
0,0,0,0,0,0,0,0,0,0,0,0,0,0,0,0,0,0,0,0,0,0,0,0,0,0,0,0,0,0,0,0,0,0,0,0,0,0,0,0,0,0,0,0,0,0,0,0,0,87,0,0,0,0,0,0,0,0,0,0,0,0,0,0,0,0,0,0,0,0,
0,0,0,0,0,0,0,0,0,0,0,0,0,0,0,0,0,0,0,0,0,0,0,0,0,0,0,0,0,0,0,0,0,0,0,0,0,0,0,0,0,0,0,0,0,0,0,0,0,0,86,87,0,0,0,0,0,0,0,0,0,0,0,0,0,0,0,0,0,0,
0,0,0,0,0,0,0,0,0,0,0,0,0,0,0,0,0,0,0,0,0,0,0,0,0,0,0,0,0,0,0,0,0,0,0,0,0,0,0,0,0,0,0,0,0,0,0,0,0,0,0,0,0,0,0,0,0,0,0,0,0,0,0,0,0,0,0,0,0,0,
0,0,0,0,0,0,0,0,0,0,0,0,0,0,0,0,0,0,0,0,0,0,0,0,0,0,0,0,0,0,0,0,0,0,0,0,0,0,0,0,0,0,0,0,0,0,0,0,0,0,0,87,0,0,87,0,0,0,0,0,0,0,0,0,0,0,0,0,0,0,
0,0,0,0,0,0,0,0,0,0,0,0,0,85,0,0,0,0,0,0,0,0,0,0,0,0,0,0,0,0,0,0,0,0,0,0,0,0,0,0,0,0,0,0,0,0,0,0,0,0,0,0,0,0,0,0,0,0,0,0,0,0,0,0,0,0,0,87,0,0,
0,0,0,0,0,0,0,0,0,0,0,0,0,0,0,0,0,0,0,0,0,0,0,0,0,0,0,0,0,0,0,0,0,0,0,0,0,0,0,0,0,0,0,0,0,0,0,0,0,0,0,0,0,0,0,0,88,0,0,0,0,0,87,0,0,0,0,0,0,0,
0,0,0,0,0,0,0,0,0,0,0,0,0,0,0,0,0,0,0,0,0,0,0,0,0,0,0,0,0,0,0,0,0,0,0,0,0,0,0,0,0,0,0,0,0,0,0,0,0,0,0,0,0,0,0,87,0,87,0,0,0,0,0,0,0,0,0,0,0,87,
0,0,0,0,0,0,0,0,0,0,0,0,0,0,0,0,0,0,0,0,0,0,0,0,0,0,0,0,0,0,0,0,0,0,0,0,0,0,0,0,0,0,0,0,0,0,0,0,0,0,0,0,0,0,0,0,0,0,88,85,0,0,0,87,86,85,0,0,0,0,
0,0,0,0,0,0,0,0,0,0,0,0,0,0,0,85,0,0,0,0,0,0,0,0,0,0,0,0,0,0,0,0,0,0,0,0,0,0,0,0,0,0,0,0,0,0,0,0,0,0,0,0,0,0,0,0,0,0,0,0,0,0,0,0,0,0,88,0,0,0,
0,0,0,0,0,0,0,0,0,0,0,0,0,0,0,87,0,0,0,0,0,0,0,0,0,0,0,0,0,0,0,0,0,0,0,0,0,0,0,0,0,0,0,0,0,0,0,0,0,0,0,0,0,0,0,86,0,0,0,0,0,0,0,0,0,0,0,0,88,0,
0,0,0,0,0,0,0,0,0,0,0,0,0,0,0,0,87,0,0,0,0,0,0,0,0,0,0,0,0,0,0,0,0,0,0,0,0,0,0,0,0,0,0,0,0,0,0,0,0,0,0,0,0,0,0,0,0,0,0,0,0,0,0,0,0,0,0,0,0,0,
0,0,0,0,0,0,0,0,0,0,0,0,0,0,0,0,0,0,0,0,0,0,0,0,0,0,0,0,0,0,0,0,0,0,0,0,0,0,0,0,0,0,0,0,0,0,0,0,0,0,0,0,0,0,0,0,0,0,0,0,0,0,0,0,0,0,0,0,0,0,
0,0,0,0,0,0,0,0,0,0,0,0,0,0,0,0,0,0,0,0,0,0,0,0,0,0,0,0,0,0,0,0,0,0,0,0,0,0,0,0,0,0,0,0,0,0,0,0,0,0,0,0,0,0,0,0,0,0,0,0,0,0,0,0,0,0,0,0,0,0,
0,0,0,0,0,0,0,0,0,0,0,0,0,0,0,0,0,86,0,0,0,0,0,0,0,0,0,0,0,0,0,0,0,0,0,0,0,0,0,0,0,0,0,0,0,0,0,0,0,0,0,0,0,0,0,0,0,87,0,0,0,0,0,0,0,0,0,0,0,0,
0,0,0,0,0,0,0,0,0,0,0,0,0,0,0,87,0,0,0,0,0,0,0,0,0,0,0,0,0,0,0,0,0,0,0,0,0,0,0,0,0,0,0,0,0,0,0,0,0,0,0,0,0,0,0,0,0,0,0,0,0,0,0,0,0,0,0,0,0,0,
0,0,0,0,0,0,0,0,0,0,0,0,0,0,0,0,0,0,0,0,0,0,0,0,0,0,0,0,0,85,0,0,0,0,0,0,0,0,0,0,0,0,0,0,0,0,0,0,0,0,0,0,0,0,0,0,0,0,0,0,0,0,0,0,0,0,0,0,0,0,
0,0,0,0,0,0,0,0,0,0,0,0,0,87,0,0,0,0,0,0,0,0,0,0,0,0,85,0,0,0,0,0,85,0,0,0,0,87,0,0,0,88,0,0,0,0,0,0,0,0,0,0,0,0,0,0,0,0,0,0,0,0,0,0,0,0,0,0,0,0,
0,0,0,0,0,0,0,0,0,0,0,0,0,0,0,0,0,0,0,0,0,0,0,0,0,0,0,0,0,0,0,0,0,0,0,0,0,0,0,0,0,0,0,0,0,0,0,0,0,0,0,0,0,0,0,0,0,0,0,0,0,0,0,0,0,0,0,0,0,0,
0,0,0,0,0,0,0,0,0,0,0,0,0,0,0,0,0,0,0,0,0,0,0,88,0,0,0,0,0,88,0,0,0,0,0,0,0,0,0,0,0,0,0,0,86,0,85,0,0,0,0,0,0,0,0,0,0,0,0,87,87,0,0,0,0,0,0,0,0,0,
0,0,0,0,0,0,0,0,0,0,0,0,0,0,0,85,0,0,0,0,0,0,0,0,0,0,0,0,0,0,0,0,0,0,0,0,0,0,0,0,0,0,0,0,0,0,0,0,0,0,0,0,0,0,0,0,0,0,0,0,87,0,0,0,0,0,0,0,0,0,
0,0,0,0,0,0,0,0,0,0,0,0,0,0,0,85,0,0,0,0,0,0,0,0,0,0,0,0,0,0,0,0,0,0,0,0,0,0,0,0,0,0,0,0,0,0,0,0,0,0,0,0,0,0,0,0,0,0,0,0,0,87,0,0,0,0,0,0,0,0,
0,0,0,0,0,0,0,0,0,0,0,0,0,0,0,0,0,0,0,0,0,0,0,0,0,0,0,0,0,0,0,0,0,0,0,0,0,0,0,0,0,0,0,0,0,0,0,0,0,0,0,0,0,0,0,0,0,0,0,0,0,88,0,0,0,0,0,0,0,0,
0,0,0,0,0,0,0,0,0,0,0,0,0,0,0,0,0,87,85,0,0,0,0,0,0,0,0,0,0,0,0,0,0,0,0,0,0,0,0,0,0,0,0,0,0,0,0,0,0,0,0,0,0,0,0,0,0,0,0,0,0,0,0,0,0,0,0,0,0,0,
0,0,0,0,0,0,0,0,0,0,0,0,0,0,0,0,0,0,0,0,0,0,0,0,0,0,0,0,0,0,0,0,88,0,0,86,0,0,0,88,0,0,0,0,0,0,0,0,0,0,0,0,0,0,0,0,0,0,0,0,87,0,0,0,0,0,0,0,0,0,
0,0,0,0,0,0,0,0,0,0,0,0,0,0,0,0,0,0,0,0,0,0,0,0,0,0,0,0,0,0,0,0,0,88,0,0,0,0,0,0,0,0,0,0,86,0,0,88,0,0,0,0,0,0,0,0,0,0,0,0,0,0,0,0,0,0,0,0,0,0,
0,0,0,0,0,0,0,0,0,0,0,0,0,0,0,0,0,0,0,0,0,0,0,0,0,0,0,0,0,0,0,0,0,0,0,0,0,0,0,0,0,0,0,86,87,0,0,0,0,0,0,0,0,85,0,0,0,0,85,88,0,0,0,0,0,0,0,0,0,0,
0,0,0,0,0,0,0,0,0,0,0,0,0,0,0,0,0,0,0,0,0,0,0,0,0,0,0,0,0,0,0,0,0,0,0,0,0,0,0,0,0,0,0,85,0,0,0,0,86,0,88,0,0,0,0,0,0,86,0,0,0,0,0,0,0,0,0,0,0,0,
0,0,0,0,0,0,0,0,0,0,0,0,0,0,0,0,0,0,0,0,0,0,0,0,0,0,0,0,0,0,0,0,0,0,0,0,0,0,0,0,0,0,0,0,0,87,0,0,88,0,0,0,0,0,0,0,0,0,0,0,0,0,0,0,0,0,0,0,0,0,
0,0,0,0,0,0,0,0,0,0,0,0,0,0,0,0,0,0,0,0,0,0,0,0,0,0,0,0,0,0,0,0,0,0,0,0,0,0,0,0,0,0,0,0,0,0,0,0,0,0,0,0,0,0,0,0,0,0,0,0,0,0,0,0,0,0,0,0,0,0,
0,0,0,0,0,0,0,0,0,0,0,0,0,0,0,0,0,0,0,0,0,0,0,0,0,0,0,0,0,0,0,0,0,0,0,0,0,0,0,0,0,0,0,85,0,0,0,0,0,0,0,0,0,0,0,0,0,0,0,0,0,0,0,0,0,0,0,0,0,0
</data>
 </layer>
 <layer id="8" name="water" width="70" height="70">
  <data encoding="csv">
0,0,0,0,0,0,0,0,0,0,0,0,0,0,0,0,0,0,0,0,0,0,0,0,0,0,0,0,0,0,0,0,0,0,0,0,0,0,0,0,0,0,0,0,0,0,0,0,0,0,0,0,0,0,0,0,0,0,0,0,0,0,0,0,0,0,0,0,0,0,
0,0,0,0,0,0,0,0,0,0,0,0,0,0,0,0,0,0,0,0,0,0,0,0,0,0,0,0,0,0,0,0,0,0,0,0,0,0,0,0,0,0,0,0,0,0,0,0,0,0,0,0,0,0,0,0,0,0,0,0,0,0,0,0,0,0,0,0,0,0,
0,0,0,0,0,0,0,0,0,0,0,0,0,0,0,0,0,0,0,0,0,0,0,0,0,0,0,0,0,0,0,0,0,0,0,0,0,0,0,0,0,0,0,0,0,0,0,0,0,0,0,0,0,0,0,0,0,0,0,0,0,0,0,0,0,0,0,0,0,0,
0,0,0,0,0,0,0,0,0,0,0,0,0,0,0,0,0,0,0,0,0,0,0,0,0,0,0,0,0,0,0,0,0,0,0,0,0,0,0,0,0,0,0,0,0,0,0,0,0,0,0,0,0,0,0,0,0,0,0,0,0,0,0,0,0,0,0,0,0,0,
0,0,0,0,0,0,0,0,0,0,0,0,0,0,0,0,0,0,0,0,0,0,0,0,0,0,0,0,0,0,0,0,0,0,0,0,0,0,0,0,0,0,0,0,0,0,0,0,0,0,0,0,0,0,0,0,0,0,0,0,0,0,0,0,0,0,0,0,0,0,
0,0,0,0,0,0,0,0,0,0,0,0,0,0,0,0,0,0,0,0,0,0,0,0,0,0,0,0,0,0,0,0,0,0,0,0,0,0,0,0,0,0,0,0,0,0,0,0,0,0,0,0,0,0,0,0,0,0,0,0,0,0,0,0,0,0,0,0,0,0,
0,0,0,0,0,0,0,0,0,0,0,0,0,0,0,0,0,0,0,0,0,0,0,0,0,0,0,0,0,0,0,0,0,0,0,0,0,0,0,0,0,0,0,0,0,0,0,0,109,110,110,110,110,110,110,110,111,0,0,0,0,0,0,0,0,0,0,0,0,0,
0,0,0,0,0,0,0,0,0,0,0,0,0,0,0,0,0,0,0,0,0,0,0,0,0,0,0,0,0,0,0,0,0,0,0,0,0,0,0,0,0,0,0,0,0,0,0,0,161,148,136,136,136,136,136,136,137,111,0,0,0,0,0,0,0,0,0,0,0,0,
0,0,0,0,0,0,0,0,0,0,0,0,0,0,0,0,0,0,0,0,0,0,0,0,0,0,0,0,0,0,0,0,0,0,0,0,0,0,0,0,0,0,0,0,0,0,0,0,0,161,148,136,136,136,136,136,136,137,111,0,0,0,0,0,0,0,0,0,0,0,
0,0,0,0,0,0,0,0,0,0,0,0,0,0,0,0,0,0,0,0,0,0,0,0,0,0,0,0,0,0,0,0,0,0,0,0,0,0,0,0,0,0,0,0,0,0,0,0,0,0,161,148,136,136,136,136,136,136,137,111,0,0,0,0,0,0,0,0,0,0,
0,0,0,0,0,0,0,0,0,0,0,0,0,0,0,0,0,0,0,0,0,0,0,0,0,0,0,0,0,0,0,0,0,0,0,0,0,0,0,0,0,0,0,0,0,0,0,0,0,0,0,161,162,148,136,136,136,136,136,124,0,0,0,0,0,0,0,0,0,0,
0,0,0,0,0,0,0,0,0,0,0,0,0,0,0,0,0,0,0,0,0,0,0,0,0,0,0,0,0,0,0,0,0,0,0,0,0,0,0,0,0,0,0,0,0,0,0,0,0,0,0,0,0,161,148,136,136,136,136,124,0,0,0,0,0,0,0,0,0,0,
0,0,0,0,0,0,0,0,0,0,0,0,0,0,0,0,0,0,0,0,0,0,0,0,0,0,0,0,0,0,0,0,0,0,0,0,0,0,0,0,0,0,0,0,0,0,0,0,0,0,0,0,0,0,161,148,136,136,136,124,0,0,0,0,0,0,0,0,0,0,
0,0,0,0,0,0,0,0,0,0,0,0,0,0,0,0,0,0,0,0,0,0,0,0,0,0,0,0,0,0,0,0,0,0,0,0,0,0,0,0,0,0,0,0,0,0,0,0,0,0,0,0,0,0,0,161,162,148,136,124,0,0,0,0,0,0,0,0,0,0,
0,0,0,0,0,0,0,0,0,0,0,0,0,0,0,0,0,0,0,0,0,0,0,0,0,0,0,0,0,0,0,0,0,0,0,0,0,0,0,0,0,0,0,0,0,0,0,0,0,0,0,0,0,0,0,0,0,161,162,163,0,0,0,0,0,0,0,0,0,0,
0,0,0,0,0,0,0,0,0,0,0,0,0,0,0,0,0,0,0,0,0,0,0,0,0,0,0,0,0,0,0,0,0,0,0,0,0,0,0,0,0,0,0,0,0,0,0,0,0,0,0,0,0,0,0,0,0,0,0,0,0,0,0,0,0,0,0,0,0,0,
0,0,0,0,0,0,0,0,0,0,0,0,0,0,0,0,0,0,0,0,0,0,0,0,0,0,0,0,0,0,0,0,0,0,0,0,0,0,0,0,0,0,0,0,0,0,0,0,0,0,0,0,0,0,0,0,0,0,0,0,0,0,0,0,0,0,0,0,0,0,
0,0,0,0,0,0,0,0,0,0,0,0,0,0,0,0,0,0,0,0,0,0,0,0,0,0,0,0,0,0,0,0,0,0,0,0,0,0,0,0,0,0,0,0,0,0,0,0,0,0,0,0,0,0,0,0,0,0,0,0,0,0,0,0,0,0,0,0,0,0,
0,0,0,0,0,0,0,0,0,0,0,0,0,0,0,0,0,0,0,0,0,0,0,0,0,0,0,0,0,0,0,0,0,0,0,0,0,0,0,0,0,0,0,0,0,0,0,0,0,0,0,0,0,0,0,0,0,0,0,0,0,0,0,0,0,0,0,0,0,0,
0,0,0,0,0,0,0,0,0,0,0,0,0,0,0,0,0,0,0,0,0,0,0,0,0,0,0,0,0,0,0,0,0,0,0,0,0,0,0,0,0,0,0,0,0,0,0,0,0,0,0,0,0,0,0,0,0,0,0,0,0,0,0,0,0,0,0,0,0,0,
0,0,0,0,0,0,0,0,0,0,0,0,0,0,0,0,0,0,0,0,0,0,0,0,0,0,0,0,0,0,0,0,0,0,0,0,0,0,0,0,0,0,0,0,0,0,0,0,0,0,0,0,0,0,0,0,0,0,0,0,0,0,0,0,0,0,0,0,0,0,
0,0,0,0,0,0,0,0,0,0,0,0,0,0,0,0,0,0,0,0,0,0,0,0,0,0,0,0,0,0,0,0,0,0,0,0,0,0,0,0,0,0,0,0,0,0,0,0,0,0,0,0,0,0,0,0,0,0,0,0,0,0,0,0,0,0,0,0,0,0,
0,0,0,0,0,0,0,0,0,0,0,0,0,0,0,0,0,0,0,0,0,0,0,0,0,0,0,0,0,0,0,0,0,0,0,0,0,0,0,0,0,0,0,0,0,0,0,0,0,0,0,0,0,0,0,0,0,0,0,0,0,0,0,0,0,0,0,0,0,0,
0,0,0,0,0,0,0,0,0,0,0,0,0,0,0,0,0,0,0,0,0,0,0,0,0,0,0,0,0,0,0,0,0,0,0,0,0,0,0,0,0,0,0,0,0,0,0,0,0,0,0,0,0,0,0,0,0,0,0,0,0,0,0,0,0,0,0,0,0,0,
0,0,0,0,0,0,0,0,0,0,0,0,0,0,0,0,0,0,0,0,0,0,0,0,0,0,0,0,0,0,0,0,0,0,0,0,0,0,0,0,0,0,0,0,0,0,0,0,0,0,0,0,0,0,0,0,0,0,0,0,0,0,0,0,0,0,0,0,0,0,
0,0,0,0,0,0,0,0,0,0,0,0,0,0,0,0,0,0,0,0,0,0,0,0,0,0,0,0,0,0,0,0,0,0,0,0,0,0,0,0,0,0,0,0,0,0,0,0,0,0,0,0,0,0,0,0,0,0,0,0,0,0,0,0,0,0,0,0,0,0,
0,0,0,0,0,0,0,0,0,0,0,0,0,0,0,0,0,0,0,0,0,0,0,0,0,0,0,0,0,0,0,0,0,0,0,0,0,0,0,0,0,0,0,0,0,0,0,0,0,0,0,0,0,0,0,0,0,0,0,0,0,0,0,0,0,0,0,0,0,0,
0,0,0,0,0,0,0,0,0,0,0,0,0,0,0,0,0,0,0,0,0,0,0,0,0,0,0,0,0,0,0,0,0,0,0,0,0,0,0,0,0,0,0,0,0,0,0,0,0,0,0,0,0,0,0,0,0,0,0,0,0,0,0,0,0,0,0,0,0,0,
0,0,0,0,0,0,0,0,0,0,0,0,0,0,0,0,0,0,0,0,0,0,0,0,0,0,0,0,0,0,0,0,0,0,0,0,0,0,0,0,0,0,0,0,0,0,0,0,0,0,0,0,0,0,0,0,0,0,0,0,0,0,0,0,0,0,0,0,0,0,
0,0,0,0,0,0,0,0,0,0,0,0,0,0,0,0,0,0,0,0,0,0,0,0,0,0,0,0,0,0,0,0,0,0,0,0,0,0,0,0,0,0,0,0,0,0,0,0,0,0,0,0,0,0,0,0,0,0,0,0,0,0,0,0,0,0,0,0,0,0,
0,0,0,0,0,0,0,0,0,0,0,0,0,0,0,0,0,0,0,0,0,0,0,0,0,0,0,0,0,0,0,0,0,0,0,0,0,0,0,0,0,0,0,0,0,0,0,0,0,0,0,0,0,0,0,0,0,0,0,0,0,0,0,0,0,0,0,0,0,0,
0,0,0,0,0,0,0,0,0,0,0,0,0,0,0,0,0,0,0,0,0,0,0,0,0,0,0,0,0,0,0,0,0,0,0,0,0,0,0,0,0,0,0,0,0,0,0,0,0,0,0,0,0,0,0,0,0,0,0,0,0,0,0,0,0,0,0,0,0,0,
0,0,0,0,0,0,0,0,0,0,0,0,0,0,0,0,0,0,0,0,0,0,0,0,0,0,0,0,0,0,0,0,0,0,0,0,0,0,0,0,0,0,0,0,0,0,0,0,0,0,0,0,0,0,0,0,0,0,0,0,0,0,0,0,0,0,0,0,0,0,
0,0,0,0,0,0,0,0,0,0,0,0,0,0,0,0,0,0,0,0,0,0,0,0,0,0,0,0,0,0,0,0,0,0,0,0,0,0,0,0,0,0,0,0,0,0,0,0,0,0,0,0,0,0,0,0,0,0,0,0,0,0,0,0,0,0,0,0,0,0,
0,0,0,0,0,0,0,0,0,0,0,0,0,0,0,0,0,0,0,0,0,0,0,0,0,0,0,0,0,0,0,0,0,0,0,0,0,0,0,0,0,0,0,0,0,0,0,0,0,0,0,0,0,0,0,0,0,0,0,0,0,0,0,0,0,0,0,0,0,0,
0,0,0,0,0,0,0,0,0,0,0,0,0,0,0,0,0,0,0,0,0,0,0,0,0,0,0,0,0,0,0,0,0,0,0,0,0,0,0,0,0,0,0,0,0,0,0,0,0,0,0,0,0,0,0,0,0,0,0,0,0,0,0,0,0,0,0,0,0,0,
0,0,0,0,0,0,0,0,0,0,0,0,0,0,0,0,0,0,0,0,0,0,0,0,0,0,0,0,0,0,0,0,0,0,0,0,0,0,0,0,0,0,0,0,0,0,0,0,0,0,0,0,0,0,0,0,0,0,0,0,0,0,0,0,0,0,0,0,0,0,
0,0,0,0,0,0,0,0,0,0,0,0,0,0,0,0,0,0,0,0,0,0,0,0,0,0,0,0,0,0,0,0,0,0,0,0,0,0,0,0,0,0,0,0,0,0,0,0,0,0,0,0,0,0,0,0,0,0,0,0,0,0,0,0,0,0,0,0,0,0,
0,0,0,0,0,0,0,0,0,0,0,0,0,0,0,0,0,0,0,0,0,0,0,0,0,0,0,0,0,0,0,0,0,0,0,0,0,0,0,0,0,0,0,0,0,0,0,0,0,0,0,0,0,0,0,0,0,0,0,0,0,0,0,0,0,0,0,0,0,0,
0,0,0,0,0,0,0,0,0,0,0,0,0,0,0,0,0,0,0,0,0,0,0,0,0,0,0,0,0,0,0,0,0,0,0,0,0,0,0,0,0,0,0,0,0,0,0,0,0,0,0,0,0,0,0,0,0,0,0,0,0,0,0,0,0,0,0,0,0,0,
0,0,0,0,0,0,0,0,0,0,0,0,0,0,0,0,0,0,0,0,0,0,0,0,0,0,0,0,0,0,0,0,0,0,0,0,0,0,0,0,0,0,0,0,0,0,0,0,0,0,0,0,0,0,0,0,0,0,0,0,0,0,0,0,0,0,0,0,0,0,
0,0,0,0,0,0,0,0,0,0,0,0,0,0,0,0,0,0,0,0,0,0,0,0,0,0,0,0,0,0,0,0,0,0,0,0,0,0,0,0,0,0,0,0,0,0,0,0,0,0,0,0,0,0,0,0,0,0,0,0,0,0,0,0,0,0,0,0,0,0,
0,0,0,0,0,0,0,0,0,0,0,0,0,0,0,0,0,0,0,0,0,0,0,0,0,0,0,0,0,0,0,0,0,0,0,0,0,0,0,0,0,0,0,0,0,0,0,0,0,0,0,0,0,0,0,0,0,0,0,0,0,0,0,0,0,0,0,0,0,0,
0,0,0,0,0,0,0,0,0,0,0,0,0,0,0,0,0,0,0,0,0,0,0,0,0,0,0,0,0,0,0,0,0,0,0,0,0,0,0,0,0,0,0,0,0,0,0,0,0,0,0,0,0,0,0,0,0,0,0,0,0,0,0,0,0,0,0,0,0,0,
0,0,0,0,0,0,0,0,0,0,0,0,0,0,0,0,0,0,0,0,0,0,0,0,0,0,0,0,0,0,0,0,0,0,0,0,0,0,0,0,0,0,0,0,0,0,0,0,0,0,0,0,0,0,0,0,0,0,0,0,0,0,0,0,0,0,0,0,0,0,
0,0,0,0,0,0,0,0,0,0,0,0,0,0,0,0,0,0,0,0,0,0,0,0,0,0,0,0,0,0,0,0,0,0,0,0,0,0,0,0,0,0,0,0,0,0,0,0,0,0,0,0,0,0,0,0,0,0,0,0,0,0,0,0,0,0,0,0,0,0,
0,0,0,0,0,0,0,0,0,0,0,0,0,0,0,0,0,0,0,0,0,0,0,0,0,0,0,0,0,0,0,0,0,0,0,0,0,0,0,0,0,0,0,0,0,0,0,0,0,0,0,0,0,0,0,0,0,0,0,0,0,0,0,0,0,0,0,0,0,0,
0,0,0,0,0,0,0,0,0,0,0,0,0,0,0,0,0,0,0,0,0,0,0,0,0,0,0,0,0,0,0,0,0,0,0,0,0,0,0,0,0,0,0,0,0,0,0,0,0,0,0,0,0,0,0,0,0,0,0,0,0,0,0,0,0,0,0,0,0,0,
0,0,0,0,0,0,0,0,0,0,0,0,0,0,0,0,0,0,0,0,0,0,0,0,0,0,0,0,0,0,0,0,0,0,0,0,0,0,0,0,0,0,0,0,0,0,0,0,0,0,0,0,0,0,0,0,0,0,0,0,0,0,0,0,0,0,0,0,0,0,
0,0,0,0,0,0,0,0,0,0,0,0,0,0,0,0,0,0,0,0,0,0,0,0,0,0,0,0,0,0,0,0,0,0,0,0,0,0,0,0,0,0,0,0,0,0,0,0,0,0,0,0,0,0,0,0,0,0,0,0,0,0,0,0,0,0,0,0,0,0,
0,0,0,0,0,0,0,0,0,0,0,0,0,0,0,0,0,0,0,0,0,0,0,0,0,0,0,0,0,0,0,0,0,0,0,0,0,0,0,0,0,0,0,0,0,0,0,0,0,0,0,0,0,0,0,0,0,0,0,0,0,0,0,0,0,0,0,0,0,0,
0,0,0,0,0,0,0,0,0,0,0,0,0,0,0,0,0,0,0,0,0,0,0,0,0,0,0,0,0,0,0,0,0,0,0,0,0,0,0,0,0,0,0,0,0,0,0,0,0,0,0,0,0,0,0,0,0,0,0,0,0,0,0,0,0,0,0,0,0,0,
0,0,0,0,0,0,0,0,0,0,0,0,0,0,0,0,0,0,0,0,0,0,0,0,0,0,0,0,0,0,0,0,0,0,0,0,0,0,0,0,0,0,0,0,0,0,0,0,0,0,0,0,0,0,0,0,0,0,0,0,0,0,0,0,0,0,0,0,0,0,
0,0,0,0,0,0,0,0,0,0,0,0,0,0,0,0,0,0,0,0,0,0,0,0,0,0,0,0,0,0,0,0,0,0,0,0,0,0,0,0,0,0,0,0,0,0,0,0,0,0,0,0,0,0,0,0,0,0,0,0,0,0,0,0,0,0,0,0,0,0,
0,0,0,0,0,0,0,0,0,0,0,0,0,0,0,0,0,0,0,0,0,0,0,0,0,0,0,0,0,0,0,0,0,0,0,0,0,0,0,0,0,0,0,0,0,0,0,0,0,0,0,0,0,0,0,0,0,0,0,0,0,0,0,0,0,0,0,0,0,0,
0,0,0,0,0,0,0,0,0,0,0,0,0,0,0,0,0,0,0,0,0,0,0,0,0,0,0,0,0,0,0,0,0,0,0,0,0,0,0,0,0,0,0,0,0,0,0,0,0,0,0,0,0,0,0,0,0,0,0,0,0,0,0,0,0,0,0,0,0,0,
0,0,0,0,0,0,0,0,0,0,0,0,0,0,0,0,0,0,0,0,0,0,0,0,0,0,0,0,0,0,0,0,0,0,0,0,0,0,0,0,0,0,0,0,0,0,0,0,0,0,0,0,0,0,0,0,0,0,0,0,0,0,0,0,0,0,0,0,0,0,
0,0,0,0,0,0,0,0,0,0,0,0,0,0,0,0,0,0,0,0,0,0,0,0,0,0,0,0,0,0,0,0,0,0,0,0,0,0,0,0,0,0,0,0,0,0,0,0,0,0,0,0,0,0,0,0,0,0,0,0,0,0,0,0,0,0,0,0,0,0,
0,0,0,0,0,0,0,0,0,0,0,0,0,0,0,0,0,0,0,0,0,0,0,0,0,0,0,0,0,0,0,0,0,0,0,0,0,0,0,0,0,0,0,0,0,0,0,0,0,0,0,0,0,0,0,0,0,0,0,0,0,0,0,0,0,0,0,0,0,0,
0,0,0,0,0,0,0,0,0,0,0,0,0,0,0,0,0,0,0,0,0,0,0,0,0,0,0,0,0,0,0,0,0,0,0,0,0,0,0,0,0,0,0,0,0,0,0,0,0,0,0,0,0,0,0,0,0,0,0,0,0,0,0,0,0,0,0,0,0,0,
0,0,0,0,0,0,0,0,0,0,0,0,0,0,0,0,0,0,0,0,0,0,0,0,0,0,0,0,0,0,0,0,0,0,0,0,0,0,0,0,0,0,0,0,0,0,0,0,0,0,0,0,0,0,0,0,0,0,0,0,0,0,0,0,0,0,0,0,0,0,
0,0,0,0,0,0,0,0,0,0,0,0,0,0,0,0,0,0,0,0,0,0,0,0,0,0,0,0,0,0,0,0,0,0,0,0,0,0,0,0,0,0,0,0,0,0,0,0,0,0,0,0,0,0,0,0,0,0,0,0,0,0,0,0,0,0,0,0,0,0,
0,0,0,0,0,0,0,0,0,0,0,0,0,0,0,0,0,0,0,0,0,0,0,0,0,0,0,0,0,0,0,0,0,0,0,0,0,0,0,0,0,0,0,0,0,0,0,0,0,0,0,0,0,0,0,0,0,0,0,0,0,0,0,0,0,0,0,0,0,0,
0,0,0,0,0,0,0,0,0,0,0,0,0,0,0,0,0,0,0,0,0,0,0,0,0,0,0,0,0,0,0,0,0,0,0,0,0,0,0,0,0,0,0,0,0,0,0,0,0,0,0,0,0,0,0,0,0,0,0,0,0,0,0,0,0,0,0,0,0,0,
0,0,0,0,0,0,0,0,0,0,0,0,0,0,0,0,0,0,0,0,0,0,0,0,0,0,0,0,0,0,0,0,0,0,0,0,0,0,0,0,0,0,0,0,0,0,0,0,0,0,0,0,0,0,0,0,0,0,0,0,0,0,0,0,0,0,0,0,0,0,
0,0,0,0,0,0,0,0,0,0,0,0,0,0,0,0,0,0,0,0,0,0,0,0,0,0,0,0,0,0,0,0,0,0,0,0,0,0,0,0,0,0,0,0,0,0,0,0,0,0,0,0,0,0,0,0,0,0,0,0,0,0,0,0,0,0,0,0,0,0,
0,0,0,0,0,0,0,0,0,0,0,0,0,0,0,0,0,0,0,0,0,0,0,0,0,0,0,0,0,0,0,0,0,0,0,0,0,0,0,0,0,0,0,0,0,0,0,0,0,0,0,0,0,0,0,0,0,0,0,0,0,0,0,0,0,0,0,0,0,0,
0,0,0,0,0,0,0,0,0,0,0,0,0,0,0,0,0,0,0,0,0,0,0,0,0,0,0,0,0,0,0,0,0,0,0,0,0,0,0,0,0,0,0,0,0,0,0,0,0,0,0,0,0,0,0,0,0,0,0,0,0,0,0,0,0,0,0,0,0,0,
0,0,0,0,0,0,0,0,0,0,0,0,0,0,0,0,0,0,0,0,0,0,0,0,0,0,0,0,0,0,0,0,0,0,0,0,0,0,0,0,0,0,0,0,0,0,0,0,0,0,0,0,0,0,0,0,0,0,0,0,0,0,0,0,0,0,0,0,0,0,
0,0,0,0,0,0,0,0,0,0,0,0,0,0,0,0,0,0,0,0,0,0,0,0,0,0,0,0,0,0,0,0,0,0,0,0,0,0,0,0,0,0,0,0,0,0,0,0,0,0,0,0,0,0,0,0,0,0,0,0,0,0,0,0,0,0,0,0,0,0
</data>
 </layer>
 <layer id="2" name="Tile Layer 2" width="70" height="70">
  <data encoding="csv">
0,0,0,0,0,0,0,0,0,0,0,0,0,0,0,0,0,0,0,0,0,0,0,0,0,0,0,0,0,0,0,0,0,0,0,0,0,0,0,0,0,0,0,0,0,0,0,0,0,0,0,0,0,0,0,0,0,0,0,0,0,0,0,0,0,0,0,0,0,0,
0,0,0,0,0,0,0,0,0,0,0,0,0,0,0,0,0,0,0,0,0,0,0,0,0,0,0,0,0,0,0,0,0,0,0,0,0,0,0,0,0,0,0,0,0,0,0,0,0,0,0,0,0,0,0,0,0,0,0,0,0,0,0,0,0,0,0,0,0,0,
0,0,0,0,0,0,0,0,0,0,0,0,0,0,0,0,0,0,0,0,0,0,0,0,0,0,0,0,0,0,0,0,0,0,0,0,0,0,0,0,0,0,0,0,0,0,0,0,0,0,0,0,0,0,0,0,0,0,0,0,0,0,0,0,0,0,0,0,0,0,
0,0,0,0,0,0,0,0,0,0,0,0,0,0,0,0,0,0,0,0,0,0,0,0,0,0,0,0,0,0,0,0,0,0,0,0,0,0,0,0,0,0,0,0,0,0,0,0,0,0,0,0,0,0,0,0,0,0,0,0,0,0,0,0,0,0,0,0,0,0,
0,0,0,0,0,0,0,0,0,0,0,0,0,0,0,0,0,0,0,0,0,0,0,0,0,0,0,0,0,0,0,0,0,0,0,0,0,0,0,0,0,0,0,0,0,0,0,0,0,0,0,0,0,0,0,0,0,0,0,0,0,0,0,0,0,0,0,0,0,0,
0,0,0,0,0,0,0,0,0,0,0,0,0,0,0,0,0,0,0,0,0,0,0,0,0,0,0,0,0,0,0,0,0,0,0,0,0,0,0,0,0,0,0,0,0,0,0,0,0,0,0,0,0,0,0,0,0,0,0,0,0,0,0,0,0,0,0,0,0,0,
0,0,0,0,0,0,0,0,0,0,0,0,0,0,0,0,0,0,0,0,0,0,0,0,0,0,0,0,0,0,0,0,0,0,0,0,0,0,0,0,0,0,0,0,0,0,0,0,0,0,0,0,0,0,0,0,0,0,0,0,0,0,0,0,0,0,0,0,0,0,
0,0,0,0,0,0,0,0,0,0,0,0,0,0,0,0,0,0,0,0,0,0,0,0,0,0,0,0,0,0,0,0,0,0,0,0,0,0,0,0,0,0,0,0,0,0,0,0,0,0,0,0,0,0,0,0,0,0,0,0,0,0,0,0,0,0,0,0,0,0,
0,0,0,0,0,0,0,0,0,0,0,0,0,0,0,0,0,0,0,0,0,0,0,0,0,0,0,0,0,0,0,0,0,0,0,0,0,0,0,0,0,0,0,0,0,0,0,0,0,0,0,0,0,0,0,0,0,0,0,0,0,0,0,0,0,0,0,0,0,0,
0,0,0,0,0,0,0,0,0,0,0,0,0,0,0,0,0,0,0,0,0,0,0,0,0,0,0,0,0,0,0,0,0,0,0,0,0,0,0,0,0,0,0,0,0,0,0,0,0,0,0,0,0,0,0,0,0,0,0,0,0,0,0,0,0,0,0,0,0,0,
0,0,0,0,0,0,0,0,0,0,0,0,0,0,0,0,0,0,0,0,0,0,0,0,0,0,0,0,0,0,0,0,0,0,0,0,0,0,0,0,0,0,0,0,0,0,0,0,0,0,0,0,0,0,0,0,0,0,0,0,0,0,0,0,0,0,0,0,0,0,
0,0,0,0,0,0,0,0,0,0,0,0,0,0,0,0,0,0,0,0,0,0,0,0,0,0,0,0,0,0,0,0,0,0,0,0,0,0,0,0,0,0,0,0,0,0,0,0,0,0,0,0,0,0,0,0,0,0,0,0,0,0,0,0,0,0,0,0,0,0,
0,0,0,0,0,0,0,0,0,0,0,0,0,0,0,0,0,0,0,0,0,0,0,0,0,0,0,0,0,0,0,0,0,0,0,0,0,0,0,0,0,0,0,0,0,0,0,0,0,0,0,0,0,0,0,0,0,0,0,0,0,0,0,0,0,0,0,0,0,0,
0,0,0,0,0,0,0,0,0,0,0,0,0,0,0,0,0,0,0,0,0,0,0,0,0,0,0,0,0,0,0,0,0,0,0,0,0,0,0,0,0,0,0,0,0,0,0,0,0,0,0,0,0,0,0,0,0,0,0,0,0,0,0,0,0,0,0,0,0,0,
0,0,0,0,0,0,0,0,0,0,0,0,0,0,0,0,0,0,0,0,0,0,0,0,0,0,0,0,0,0,0,0,0,0,0,0,0,0,0,0,0,0,0,0,0,0,0,0,0,0,0,0,0,0,0,0,0,0,0,0,0,0,0,0,0,0,0,0,0,0,
0,0,0,0,0,0,0,0,0,0,0,0,0,0,0,0,0,0,0,0,0,0,0,0,0,0,0,0,0,0,0,0,0,0,0,0,0,0,0,0,0,0,0,0,0,0,0,0,0,0,0,0,0,0,0,0,0,0,0,0,0,0,0,0,0,0,0,0,0,0,
0,0,0,0,0,0,0,0,0,0,0,0,0,0,0,0,0,0,0,0,0,0,0,0,0,0,0,0,0,0,0,0,0,0,0,0,0,0,0,0,0,0,0,0,0,0,0,0,0,0,0,0,0,0,0,0,0,0,0,0,0,0,0,0,0,0,0,0,0,0,
0,0,0,0,0,0,0,0,0,0,0,0,0,0,0,0,0,0,0,0,0,0,0,0,0,0,0,0,0,0,0,0,0,0,0,0,0,0,0,0,0,0,0,0,0,0,0,0,0,0,0,0,0,0,0,0,0,0,0,0,0,0,0,0,0,0,0,0,0,0,
0,0,0,0,0,0,0,0,0,0,0,0,0,0,0,0,0,0,0,0,0,0,0,0,0,0,0,0,0,0,0,0,0,0,0,0,0,0,0,0,0,0,0,0,0,0,0,0,0,0,0,0,0,0,0,0,0,0,0,0,0,0,0,0,0,0,0,0,0,0,
0,0,0,0,0,0,0,0,0,0,0,0,0,0,0,0,0,0,0,0,0,0,0,0,0,0,0,0,0,0,0,0,0,0,0,0,0,0,0,0,0,0,0,0,0,0,0,0,0,0,0,0,0,0,0,0,0,0,0,0,0,0,0,0,0,0,0,0,0,0,
0,0,0,0,0,0,0,0,0,0,0,0,0,0,0,0,0,0,0,0,0,0,0,0,0,0,0,0,0,0,0,0,0,0,0,0,0,0,0,0,0,0,0,0,0,0,0,0,0,0,0,0,0,0,0,0,0,0,0,0,0,0,0,0,0,0,0,0,0,0,
0,0,0,0,0,0,0,0,0,0,0,0,0,0,0,0,0,0,0,0,0,0,0,0,0,0,0,0,0,0,0,0,0,0,0,0,0,0,0,0,0,0,0,0,0,0,0,0,0,0,0,0,0,0,0,0,0,0,0,0,0,0,0,0,0,0,0,0,0,0,
0,0,0,0,0,0,0,0,0,0,0,0,0,0,0,0,0,0,0,0,0,0,0,0,0,0,0,0,0,0,0,0,0,0,0,0,0,0,0,0,0,0,0,0,0,0,0,0,0,0,0,0,0,0,0,0,0,0,0,0,0,0,0,0,0,0,0,0,0,0,
0,0,0,0,0,0,0,0,0,0,0,0,0,0,0,0,0,0,0,0,0,0,0,0,0,0,0,0,0,0,0,0,0,0,0,0,0,0,0,0,0,0,0,0,0,0,0,0,0,0,0,0,0,0,0,0,0,0,0,0,0,0,0,0,0,0,0,0,0,0,
0,0,0,0,0,0,0,0,0,0,0,0,0,0,0,0,0,0,0,0,0,0,0,0,0,0,0,0,0,0,0,0,0,0,0,0,0,0,0,0,0,0,0,0,0,0,0,0,0,0,0,0,0,0,0,0,0,0,0,0,0,0,0,0,0,0,0,0,0,0,
0,0,0,0,0,0,0,0,0,0,0,0,0,0,0,0,0,0,0,0,0,0,0,0,0,0,0,0,0,0,0,0,0,0,0,0,0,0,0,0,0,0,0,0,0,0,0,0,0,0,0,0,0,0,0,0,0,0,0,0,0,0,0,0,0,0,0,0,0,0,
0,0,0,0,0,0,0,0,0,0,0,0,0,0,0,0,0,0,0,0,0,0,0,0,0,0,0,0,0,0,0,0,0,0,0,0,0,0,0,0,0,0,0,0,0,0,0,0,0,0,0,0,0,0,0,0,0,0,0,0,0,0,0,0,0,0,0,0,0,0,
0,0,0,0,0,0,0,0,0,0,0,0,0,0,0,0,0,0,0,0,0,0,0,0,0,0,0,0,0,0,0,0,0,0,0,0,0,0,0,0,0,0,0,0,0,0,0,0,0,0,0,0,0,0,0,0,0,0,0,0,0,0,0,0,0,0,0,0,0,0,
0,0,0,0,0,0,0,0,0,0,0,0,0,0,0,0,0,0,0,0,0,0,0,0,0,0,0,0,0,0,0,0,0,0,0,0,0,0,0,0,0,0,0,0,0,0,0,0,0,0,0,0,0,0,0,0,0,0,0,0,0,0,0,0,0,0,0,0,0,0,
0,0,0,0,0,0,0,0,0,0,0,0,0,0,0,0,0,0,0,0,0,0,0,0,0,0,0,0,0,0,0,0,0,0,0,0,0,0,0,0,0,0,0,0,0,0,0,0,0,0,0,0,0,0,0,0,0,0,0,0,0,0,0,0,0,0,0,0,0,0,
0,0,0,0,0,0,0,0,0,0,0,0,0,0,0,0,0,0,0,0,0,0,0,0,0,0,0,0,0,0,0,0,0,0,0,0,0,0,0,0,0,0,0,0,0,0,0,0,0,0,0,0,0,0,0,0,0,0,0,0,0,0,0,0,0,0,0,0,0,0,
0,0,0,0,0,0,0,0,0,0,0,0,0,0,0,0,0,0,0,0,0,0,0,0,0,0,0,0,0,0,0,0,0,0,0,0,0,0,0,0,0,0,0,0,0,0,0,0,0,0,0,0,0,0,0,0,0,0,0,0,0,0,0,0,0,0,0,0,0,0,
0,0,0,0,0,0,0,0,0,0,0,0,0,0,0,0,0,0,0,0,0,0,0,0,0,0,0,0,0,0,0,0,0,0,0,0,0,0,0,0,0,0,0,0,0,0,0,0,0,0,0,0,0,0,0,0,0,0,0,0,0,0,0,0,0,0,0,0,0,0,
0,0,0,0,0,0,0,0,0,0,0,0,0,0,0,0,0,0,0,0,0,0,0,0,0,0,0,0,0,0,0,0,0,0,0,0,0,0,0,0,0,0,0,0,0,0,0,0,0,0,0,0,0,0,0,0,0,0,0,0,0,0,0,0,0,0,0,0,0,0,
0,0,0,0,0,0,0,0,0,0,0,0,0,0,0,0,0,0,0,0,0,0,0,0,0,0,0,0,0,0,0,0,0,0,0,0,0,0,0,0,0,0,0,0,0,0,0,0,0,0,0,0,0,0,0,0,0,0,0,0,0,0,0,0,0,0,0,0,0,0,
0,0,0,0,0,0,0,0,0,0,0,0,0,0,0,0,0,0,0,0,0,0,0,0,0,0,0,0,0,0,0,0,0,0,0,0,0,0,0,0,0,0,0,0,0,0,0,0,0,0,0,0,0,0,0,0,0,0,0,0,0,0,0,0,0,0,0,0,0,0,
0,0,0,0,0,0,0,0,0,0,0,0,0,0,0,0,0,0,0,0,0,0,0,0,0,0,0,0,0,0,0,0,0,0,0,0,0,0,0,0,0,0,0,0,0,0,0,0,0,0,0,0,0,0,0,0,0,0,0,0,0,0,0,0,0,0,0,0,0,0,
0,0,0,0,0,0,0,0,0,0,0,0,0,0,0,0,0,0,0,0,0,0,0,0,0,0,0,0,0,0,0,0,0,0,0,0,0,0,0,0,0,0,0,0,0,0,0,0,0,0,0,0,0,0,0,0,0,0,0,0,0,0,0,0,0,0,0,0,0,0,
0,0,0,0,0,0,0,0,0,0,0,0,0,0,0,0,0,0,0,0,0,0,0,0,0,0,0,0,0,0,0,0,0,0,0,0,0,0,0,0,0,0,0,0,0,0,0,0,0,0,0,0,0,0,0,0,0,0,0,0,0,0,0,0,0,0,0,0,0,0,
0,0,0,0,0,0,0,0,0,0,0,0,0,0,0,0,0,0,0,0,0,0,0,0,0,0,0,0,0,0,0,0,0,0,0,0,0,0,0,0,0,0,0,0,0,0,0,0,0,0,0,0,0,0,0,0,0,0,0,0,0,0,0,0,0,0,0,0,0,0,
0,0,0,0,0,0,0,0,0,0,0,0,0,0,0,0,0,0,0,0,0,0,0,0,0,0,0,0,0,0,0,0,0,0,0,0,0,0,0,0,0,0,0,0,0,0,0,0,0,0,0,0,0,0,0,0,0,0,0,0,0,0,0,0,0,0,0,0,0,0,
0,0,0,0,0,0,0,0,0,0,0,0,0,0,0,0,0,0,0,0,0,0,0,0,0,0,0,0,0,0,0,0,0,0,0,0,0,0,0,0,0,0,0,0,0,0,0,0,0,0,0,0,0,0,0,0,0,0,0,0,0,0,0,0,0,0,0,0,0,0,
0,0,0,0,0,0,0,0,0,0,0,0,0,0,0,0,0,0,0,0,0,0,0,0,0,0,0,0,0,0,0,0,0,0,0,0,0,0,0,0,0,0,0,0,0,0,0,0,0,0,0,0,0,0,0,0,0,0,0,0,0,0,0,0,0,0,0,0,0,0,
0,0,0,0,0,0,0,0,0,0,0,0,0,0,0,0,0,0,0,0,0,0,0,0,0,0,0,0,0,0,0,0,0,0,0,0,0,0,0,0,0,0,0,0,0,0,0,0,0,0,0,0,0,0,0,0,0,0,0,0,0,0,0,0,0,0,0,0,0,0,
0,0,0,0,0,0,0,0,0,0,0,0,0,0,0,0,0,0,0,0,0,0,0,0,0,0,0,0,0,0,0,0,0,0,0,0,0,0,0,0,0,0,0,0,0,0,0,0,0,0,0,0,0,0,0,0,0,0,0,0,0,0,0,0,0,0,0,0,0,0,
0,0,0,0,0,0,0,0,0,0,0,0,0,0,0,0,0,0,0,0,0,0,0,0,0,0,0,0,0,0,0,0,0,0,0,0,0,0,0,0,0,0,0,0,0,0,0,0,0,0,0,0,0,0,0,0,0,0,0,0,0,0,0,0,0,0,0,0,0,0,
0,0,0,0,0,0,0,0,0,0,0,0,0,0,0,0,0,0,0,0,0,0,0,0,0,0,0,0,0,0,0,0,0,0,0,0,0,0,0,0,0,0,0,0,0,0,0,0,0,0,0,0,0,0,0,0,0,0,0,0,0,0,0,0,0,0,0,0,0,0,
0,0,0,0,0,0,0,0,0,0,0,0,0,0,0,0,0,0,0,0,0,0,0,0,0,0,0,0,0,0,0,0,0,0,0,0,0,0,0,0,0,0,0,0,0,0,0,0,0,0,0,0,0,0,0,0,0,0,0,0,0,0,0,0,0,0,0,0,0,0,
0,0,0,0,0,0,0,0,0,0,0,0,0,0,0,0,0,0,0,0,0,0,0,0,0,0,0,0,0,0,0,0,0,0,0,0,0,0,0,0,0,0,0,0,0,0,0,0,0,0,0,0,0,0,0,0,0,0,0,0,0,0,0,0,0,0,0,0,0,0,
0,0,0,0,0,0,0,0,0,0,0,0,0,0,0,0,0,0,0,0,0,0,0,0,0,0,0,0,0,0,0,0,0,0,0,0,0,0,0,0,0,0,0,0,0,0,0,0,0,0,0,0,0,0,0,0,0,0,0,0,0,0,0,0,0,0,0,0,0,0,
0,0,0,0,0,0,0,0,0,0,0,0,0,0,0,0,0,0,0,0,0,0,0,0,0,0,0,0,0,0,0,0,0,0,0,0,0,0,0,0,0,0,0,0,0,0,0,0,0,0,0,0,0,0,0,0,0,0,0,0,0,0,0,0,0,0,0,0,0,0,
0,0,0,0,0,0,0,0,0,0,0,0,0,0,0,0,0,0,0,0,0,0,0,0,0,0,0,0,0,0,0,0,0,0,0,0,0,0,0,0,0,0,0,0,0,0,0,0,0,0,0,0,0,0,0,0,0,0,0,0,0,0,0,0,0,0,0,0,0,0,
0,0,0,0,0,0,0,0,0,0,0,0,0,0,0,0,0,0,0,0,0,54,0,0,0,0,0,0,0,0,0,0,0,0,0,0,0,0,0,0,0,0,0,0,0,0,0,56,0,0,0,0,0,0,0,0,0,0,0,0,0,0,0,0,0,0,0,0,0,0,
0,0,0,0,0,0,0,0,0,0,0,0,0,0,0,0,0,0,0,0,54,0,0,0,0,0,0,0,0,0,0,0,0,0,0,0,0,0,0,0,0,0,0,0,0,0,0,0,56,0,0,0,0,0,0,0,0,0,0,0,0,0,0,0,0,0,0,0,0,0,
0,0,0,0,0,0,0,0,0,0,0,0,0,0,0,0,0,0,0,54,0,0,0,0,0,0,0,0,0,0,0,0,0,0,0,0,0,0,0,0,0,0,0,0,0,0,0,0,56,56,0,0,0,0,0,0,0,0,0,0,0,0,0,0,0,0,0,0,0,0,
0,0,0,0,0,0,0,0,0,0,0,0,0,0,0,0,0,0,54,0,0,0,0,0,0,0,0,0,0,0,0,0,0,0,0,0,0,0,0,0,0,0,0,0,0,0,0,0,0,56,56,0,0,0,0,0,0,0,0,0,0,0,0,0,0,0,0,0,0,0,
0,0,0,0,0,0,0,0,0,0,0,0,0,0,0,0,0,0,54,0,0,0,0,0,0,0,0,0,0,0,0,0,0,0,0,0,0,0,0,0,0,0,0,0,0,0,0,0,0,0,56,0,0,0,0,0,0,0,0,0,0,0,0,0,0,0,0,0,0,0,
0,0,0,0,0,0,0,0,0,0,0,0,0,0,0,0,0,0,54,0,0,0,0,0,0,0,0,0,0,0,0,0,0,0,0,0,0,0,0,0,0,0,0,0,0,0,0,0,0,0,56,0,0,0,0,0,0,0,0,0,0,0,0,0,0,0,0,0,0,0,
0,0,0,0,0,0,0,0,0,0,0,0,0,0,0,0,0,0,54,0,0,0,0,0,0,0,0,0,0,0,0,0,0,0,0,0,0,0,0,0,0,0,0,0,0,0,0,0,0,0,56,0,0,0,0,0,0,0,0,0,0,0,0,0,0,0,0,0,0,0,
0,0,0,0,0,0,0,0,0,0,0,0,0,0,0,0,0,0,54,0,0,0,0,0,0,0,0,0,0,0,0,0,0,0,0,0,0,0,0,0,0,0,0,0,0,0,0,0,0,0,56,0,0,0,0,0,0,0,0,0,0,0,0,0,0,0,0,0,0,0,
0,0,0,0,0,0,0,0,0,0,0,0,0,0,0,0,0,0,54,0,0,0,0,0,0,0,0,0,0,0,50,61,61,61,61,61,61,61,61,48,0,0,0,0,0,0,0,0,0,0,56,0,0,0,0,0,0,0,0,0,0,0,0,0,0,0,0,0,0,0,
0,0,0,0,0,0,0,0,0,0,0,0,0,0,0,0,0,0,60,48,0,0,0,0,0,0,0,0,0,50,62,0,0,0,0,0,0,0,0,54,0,0,0,0,0,0,0,0,0,0,56,0,0,0,0,0,0,0,0,0,0,0,0,0,0,0,0,0,0,0,
0,0,0,0,0,0,0,0,0,0,0,0,0,0,0,0,0,0,0,60,48,0,0,0,0,0,0,0,50,62,0,0,0,0,0,0,0,0,0,60,61,61,61,61,61,61,61,61,61,61,62,0,0,0,0,0,0,0,0,0,0,0,0,0,0,0,0,0,0,0,
0,0,0,0,0,0,0,0,0,0,0,0,0,0,0,0,0,0,0,0,60,61,61,61,61,61,61,61,62,0,0,0,0,0,0,0,0,0,0,0,0,0,0,0,0,0,0,0,0,0,0,0,0,0,0,0,0,0,0,0,0,0,0,0,0,0,0,0,0,0,
0,0,0,0,0,0,0,0,0,0,0,0,0,0,0,0,0,0,0,0,0,0,0,0,0,0,0,0,0,0,0,0,0,0,0,0,0,0,0,0,0,0,0,0,0,0,0,0,0,0,0,0,0,0,0,0,0,0,0,0,0,0,0,0,0,0,0,0,0,0,
0,0,0,0,0,0,0,0,0,0,0,0,0,0,0,0,0,0,0,0,0,0,0,0,0,0,0,0,0,0,0,0,0,0,0,0,0,0,0,0,0,0,0,0,0,0,0,0,0,0,0,0,0,0,0,0,0,0,0,0,0,0,0,0,0,0,0,0,0,0,
0,0,0,0,0,0,0,0,0,0,0,0,0,0,0,0,0,0,0,0,0,0,0,0,0,0,0,0,0,0,0,0,0,0,0,0,0,0,0,0,0,0,0,0,0,0,0,0,0,0,0,0,0,0,0,0,0,0,0,0,0,0,0,0,0,0,0,0,0,0,
0,0,0,0,0,0,0,0,0,0,0,0,0,0,0,0,0,0,0,0,0,0,0,0,0,0,0,0,0,0,0,0,0,0,0,0,0,0,0,0,0,0,0,0,0,0,0,0,0,0,0,0,0,0,0,0,0,0,0,0,0,0,0,0,0,0,0,0,0,0,
0,0,0,0,0,0,0,0,0,0,0,0,0,0,0,0,0,0,0,0,0,0,0,0,0,0,0,0,0,0,0,0,0,0,0,0,0,0,0,0,0,0,0,0,0,0,0,0,0,0,0,0,0,0,0,0,0,0,0,0,0,0,0,0,0,0,0,0,0,0,
0,0,0,0,0,0,0,0,0,0,0,0,0,0,0,0,0,0,0,0,0,0,0,0,0,0,0,0,0,0,0,0,0,0,0,0,0,0,0,0,0,0,0,0,0,0,0,0,0,0,0,0,0,0,0,0,0,0,0,0,0,0,0,0,0,0,0,0,0,0
</data>
 </layer>
 <layer id="4" name="Cliff" width="70" height="70">
  <data encoding="csv">
0,0,0,0,0,0,0,0,0,0,0,0,0,0,0,0,0,0,0,0,0,0,0,0,0,0,0,0,0,0,0,0,0,0,0,0,0,0,0,0,0,0,0,0,0,0,0,0,0,0,0,0,0,0,0,0,0,0,0,0,0,0,0,0,0,0,0,0,0,0,
0,0,0,0,0,0,0,0,0,0,0,0,0,0,0,0,0,0,0,0,0,0,0,0,0,0,0,0,0,0,0,0,0,0,0,0,0,0,0,0,0,0,0,0,0,0,0,0,0,0,0,0,0,0,0,0,0,0,0,0,0,0,0,0,0,0,0,0,0,0,
0,0,0,0,0,0,0,0,0,0,0,0,0,0,0,0,0,0,0,0,0,0,0,0,0,0,0,0,0,0,0,0,0,0,0,0,0,0,0,0,0,0,0,0,0,0,0,0,0,0,0,0,0,0,0,0,0,0,0,0,0,0,0,0,0,0,0,0,0,0,
0,0,0,0,0,0,0,0,0,0,0,0,0,0,0,0,0,0,0,0,0,0,0,0,0,0,0,0,0,0,0,0,0,0,0,0,0,0,0,0,0,0,0,0,0,0,0,0,0,0,0,0,0,0,0,0,0,0,0,0,0,0,0,0,0,0,0,0,0,0,
0,0,0,0,0,0,0,0,0,0,0,0,0,0,0,0,0,0,0,0,0,0,0,0,0,0,0,0,0,0,0,0,0,0,0,0,0,0,0,0,0,0,0,0,0,0,0,0,0,0,0,0,0,0,0,0,0,0,0,0,0,0,0,0,0,0,0,0,0,0,
0,0,0,0,0,0,0,0,0,0,0,0,0,0,0,0,0,0,0,0,0,0,0,0,0,0,0,0,0,0,0,0,0,0,0,0,0,0,0,0,0,0,0,0,0,0,0,0,0,0,0,0,0,0,0,0,0,0,0,0,0,0,0,0,0,0,0,0,0,0,
0,0,0,0,0,0,0,0,0,0,0,0,0,0,0,0,0,0,0,0,0,0,0,0,0,0,0,0,0,0,0,0,0,0,0,0,0,0,0,0,0,0,0,0,0,0,0,0,0,0,0,0,0,0,0,0,0,0,0,0,0,0,0,0,0,0,0,0,0,0,
0,0,0,0,0,0,0,0,0,0,0,0,0,0,0,0,0,0,0,0,0,0,0,0,0,0,0,0,0,0,0,0,0,0,0,0,0,0,0,0,0,0,0,0,0,0,0,0,0,0,0,0,0,0,0,0,0,0,0,0,0,0,0,0,0,0,0,0,0,0,
0,0,0,0,0,0,0,0,0,0,0,0,0,0,0,0,0,0,0,0,0,0,0,0,0,0,0,0,0,0,0,0,0,0,0,0,0,0,0,0,0,0,0,0,0,0,0,0,0,0,0,0,0,0,0,0,0,0,0,0,0,0,0,0,0,0,0,0,0,0,
0,0,0,0,0,0,0,0,0,0,0,0,0,0,0,0,0,0,0,0,0,0,0,0,0,0,0,0,0,0,0,0,0,0,0,0,0,0,0,0,0,0,0,0,0,0,0,0,0,0,0,0,0,0,0,0,0,0,0,0,0,0,0,0,0,0,0,0,0,0,
0,0,0,0,0,0,0,0,0,0,0,0,0,0,0,0,0,0,0,0,0,0,0,0,0,0,0,0,0,0,0,0,0,0,0,0,0,0,0,0,0,0,0,0,0,0,0,0,0,0,0,0,0,0,0,0,0,0,0,0,0,0,0,0,0,0,0,0,0,0,
0,0,0,0,0,0,0,0,0,0,0,0,0,0,0,0,0,0,0,0,0,0,0,0,0,0,0,0,0,0,0,0,0,0,0,0,0,0,0,0,0,0,0,0,0,0,0,0,0,0,0,0,0,0,0,0,0,0,0,0,0,0,0,0,0,0,0,0,0,0,
0,0,0,0,0,0,0,0,0,0,0,0,0,0,0,0,0,0,0,0,0,0,0,0,0,0,0,0,0,0,0,0,0,0,0,0,0,0,0,0,0,0,0,0,0,0,0,0,0,0,0,0,0,0,0,0,0,0,0,0,0,0,0,0,0,0,0,0,0,0,
0,0,0,0,0,0,0,0,0,0,0,0,0,0,0,0,0,0,0,0,0,0,0,0,0,0,0,0,0,0,0,0,0,0,0,0,0,0,0,0,0,0,0,0,0,0,0,0,0,0,0,0,0,0,0,0,0,0,0,0,0,0,0,0,0,0,0,0,0,0,
0,0,0,0,0,0,0,0,0,0,0,0,0,0,0,0,0,0,0,0,0,0,0,0,0,0,0,0,0,0,0,0,0,0,0,0,0,0,0,0,0,0,0,0,0,0,0,0,0,0,0,0,0,0,0,0,0,0,0,0,0,0,0,0,0,0,0,0,0,0,
0,0,0,0,0,0,0,0,0,0,0,0,0,0,0,0,0,0,0,0,0,0,0,0,0,0,0,0,0,0,0,0,0,0,0,0,0,0,0,0,0,0,0,0,0,0,0,0,0,0,0,0,0,0,0,0,0,0,0,0,0,0,0,0,0,0,0,0,0,0,
0,0,0,0,0,0,0,0,0,0,0,0,0,0,0,0,0,0,0,0,0,0,0,0,0,0,0,0,0,0,0,0,0,0,0,0,0,0,0,0,0,0,0,0,0,0,0,0,0,0,0,0,0,0,0,0,0,0,0,0,0,0,0,0,0,0,0,0,0,0,
0,0,0,0,0,0,0,0,0,0,0,0,0,0,0,0,0,0,0,0,0,0,0,0,0,0,0,0,0,0,0,0,0,0,0,0,0,0,0,0,0,0,0,0,0,0,0,0,0,0,0,0,0,0,0,0,0,0,0,0,0,0,0,0,0,0,0,0,0,0,
0,0,0,0,0,0,0,0,0,0,0,0,0,0,0,0,0,0,0,0,0,0,0,0,0,0,0,0,0,0,0,0,0,0,0,0,0,0,0,0,0,0,0,0,0,0,0,0,0,0,0,0,0,0,0,0,0,0,0,0,0,0,0,0,0,0,0,0,0,0,
0,0,0,0,0,0,0,0,0,0,0,0,0,0,0,0,0,0,0,0,0,0,0,0,0,0,0,0,0,0,0,0,0,0,0,0,0,0,0,0,0,0,0,0,0,0,0,0,0,0,0,0,0,0,0,0,0,0,0,0,0,0,0,0,0,0,0,0,0,0,
0,0,0,0,0,0,0,0,0,0,0,0,0,0,0,0,0,0,0,0,0,0,0,0,0,0,0,0,0,0,0,0,0,0,0,0,0,0,0,0,0,0,0,0,0,0,0,0,0,0,0,0,0,0,0,0,0,0,0,0,0,0,0,0,0,0,0,0,0,0,
0,0,0,0,0,0,0,0,0,0,0,0,0,0,0,0,0,0,0,0,0,0,0,0,0,0,0,0,0,0,0,0,0,0,0,0,0,0,0,0,0,0,0,0,0,0,0,0,0,0,0,0,0,0,0,0,0,0,0,0,0,0,0,0,0,0,0,0,0,0,
0,0,0,0,0,0,0,0,0,0,0,0,0,0,0,0,0,0,0,0,0,0,0,0,0,0,0,0,0,0,0,0,0,0,0,0,0,0,0,0,0,0,0,0,0,0,0,0,0,0,0,0,0,0,0,0,0,0,0,0,0,0,0,0,0,0,0,0,0,0,
0,0,0,0,0,0,0,0,0,0,0,0,0,0,0,0,0,0,0,0,0,0,0,0,0,0,0,0,0,0,0,0,0,0,0,0,0,0,0,0,0,0,0,0,0,0,0,0,0,0,0,0,0,0,0,0,0,0,0,0,0,0,0,0,0,0,0,0,0,0,
0,0,0,0,0,0,0,0,0,0,0,0,0,0,0,0,0,0,0,0,0,0,0,0,0,0,0,0,0,0,0,0,0,0,0,0,0,0,0,0,0,0,0,0,0,0,0,0,0,0,0,0,0,0,0,0,0,0,0,0,0,0,0,0,0,0,0,0,0,0,
0,0,0,0,0,0,0,0,0,0,0,0,0,0,0,0,0,0,0,0,0,0,0,0,0,0,0,0,0,0,0,0,0,0,0,0,0,0,0,0,0,0,0,0,0,0,0,0,0,0,0,0,0,0,0,0,0,0,0,0,0,0,0,0,0,0,0,0,0,0,
0,0,0,0,0,0,0,0,0,0,0,0,0,0,0,0,0,0,0,0,0,0,0,0,0,0,0,0,0,0,0,0,0,0,0,0,0,0,0,0,0,0,0,0,0,0,0,0,0,0,0,0,0,0,0,0,0,0,0,0,0,0,0,0,0,0,0,0,0,0,
0,0,0,0,0,0,0,0,0,0,0,0,0,0,0,0,0,0,0,0,0,0,0,0,0,0,0,0,0,0,0,0,0,0,0,0,0,0,0,0,0,0,0,0,0,0,0,0,0,0,0,0,0,0,0,0,0,0,0,0,0,0,0,0,0,0,0,0,0,0,
0,0,0,0,0,0,0,0,0,0,0,0,0,0,0,0,0,0,0,0,0,0,0,0,0,0,0,0,0,0,0,0,0,0,0,0,0,0,0,0,0,0,0,0,0,0,0,0,0,0,0,0,0,0,0,0,0,0,0,0,0,0,0,0,0,0,0,0,0,0,
0,0,0,0,0,0,0,0,0,0,0,0,0,0,0,0,0,0,0,0,0,0,0,0,0,0,0,0,0,0,0,0,0,0,0,0,0,0,0,0,0,0,0,0,0,0,0,0,0,0,0,0,0,0,0,0,0,0,0,0,0,0,0,0,0,0,0,0,0,0,
0,0,0,0,0,0,0,0,0,0,0,0,0,0,0,0,0,0,0,0,0,0,0,0,0,0,0,0,0,0,0,0,0,0,0,0,0,0,0,0,0,0,0,0,0,0,0,0,0,0,0,0,0,0,0,0,0,0,0,0,0,0,0,0,0,0,0,0,0,0,
0,0,0,0,0,0,0,0,0,0,0,0,0,0,0,0,0,0,0,0,0,0,0,0,0,0,0,0,0,0,0,0,0,0,0,0,0,0,0,0,0,0,0,0,0,0,0,0,0,0,0,0,0,0,0,0,0,0,0,0,0,0,0,0,0,0,0,0,0,0,
0,0,0,0,0,0,0,0,0,0,0,0,0,0,0,0,0,0,0,0,0,0,0,0,0,0,0,0,0,0,0,0,0,0,0,0,0,0,0,0,0,0,0,0,0,0,0,0,0,0,0,0,0,0,0,0,0,0,0,0,0,0,0,0,0,0,0,0,0,0,
0,0,0,0,0,0,0,0,0,0,0,0,0,0,0,0,0,0,0,0,0,0,0,0,0,0,0,0,0,0,0,0,0,0,0,0,0,0,0,0,0,0,0,0,0,0,0,0,0,0,0,0,0,0,0,0,0,0,0,0,0,0,0,0,0,0,0,0,0,0,
0,0,0,0,0,0,0,0,0,0,0,0,0,0,0,0,0,0,0,0,0,0,0,0,0,0,0,0,0,0,0,0,0,0,0,0,0,0,0,0,0,0,0,0,0,0,0,0,0,0,0,0,0,0,0,0,0,0,0,0,0,0,0,0,0,0,0,0,0,0,
0,0,0,0,0,0,0,0,0,0,0,0,0,0,0,0,0,0,0,0,0,0,0,0,0,0,0,0,0,0,0,0,0,0,0,0,0,0,0,0,0,0,0,0,0,0,0,0,0,0,0,0,0,0,0,0,0,0,0,0,0,0,0,0,0,0,0,0,0,0,
0,0,0,0,0,0,0,0,0,0,0,0,0,0,0,0,0,0,0,0,0,0,0,0,0,0,0,0,0,0,0,0,0,0,0,0,0,0,0,0,0,0,0,0,0,0,0,0,0,0,0,0,0,0,0,0,0,0,0,0,0,0,0,0,0,0,0,0,0,0,
0,0,0,0,0,0,0,0,0,0,0,0,0,0,0,0,0,0,0,0,0,0,0,0,0,0,0,0,0,0,0,0,0,0,0,0,0,0,0,0,0,0,0,0,0,0,0,0,0,0,0,0,0,0,0,0,0,0,0,0,0,0,0,0,0,0,0,0,0,0,
0,0,0,0,0,0,0,0,0,0,0,0,0,0,0,0,0,0,0,0,0,0,0,0,0,0,0,0,0,0,0,0,0,0,0,0,0,0,0,0,0,0,0,0,0,0,0,0,0,0,0,0,0,0,0,0,0,0,0,0,0,0,0,0,0,0,0,0,0,0,
0,0,0,0,0,0,0,0,0,0,0,0,0,0,0,0,0,0,0,0,0,0,0,0,0,0,0,0,0,0,0,0,0,0,0,0,0,0,0,0,0,0,0,0,0,0,0,0,0,0,0,0,0,0,0,0,0,0,0,0,0,0,0,0,0,0,0,0,0,0,
0,0,0,0,0,0,0,0,0,0,0,0,0,0,0,0,0,0,0,0,0,0,0,0,0,0,0,0,0,0,0,0,0,0,0,0,0,0,0,0,0,0,0,0,0,0,0,0,0,0,0,0,0,0,0,0,0,0,0,0,0,0,0,0,0,0,0,0,0,0,
0,0,0,0,0,0,0,0,0,0,0,0,0,0,0,0,0,0,0,0,0,0,0,0,0,0,0,0,0,0,0,0,0,0,0,0,0,0,0,0,0,0,0,0,0,0,0,0,0,0,0,0,0,0,0,0,0,0,0,0,0,0,0,0,0,0,0,0,0,0,
0,0,0,0,0,0,0,0,0,0,0,0,0,0,0,0,0,0,0,0,0,0,0,0,0,0,0,0,0,0,0,0,0,0,0,0,0,0,0,0,0,0,0,0,0,0,0,0,0,0,0,0,0,0,0,0,0,0,0,0,0,0,0,0,0,0,0,0,0,0,
0,0,0,0,0,0,0,0,0,0,0,0,0,0,0,0,0,0,0,0,0,0,0,0,0,0,0,0,0,0,0,0,0,0,0,0,0,0,0,0,0,0,0,0,0,0,0,0,0,0,0,0,0,0,0,0,0,0,0,0,0,0,0,0,0,0,0,0,0,0,
0,0,0,0,0,0,0,0,0,0,0,0,0,0,0,0,0,0,0,0,0,0,0,0,0,0,0,0,0,0,0,0,0,0,0,0,0,0,0,0,0,0,0,0,0,0,0,0,0,0,0,0,0,0,0,0,0,0,0,0,0,0,0,0,0,0,0,0,0,0,
0,0,0,0,0,0,0,0,0,0,0,0,0,0,0,0,0,0,0,0,0,0,0,0,0,0,0,0,0,0,0,0,0,0,0,0,0,0,0,0,0,0,0,0,0,0,0,0,0,0,0,0,0,0,0,0,0,0,0,0,0,0,0,0,0,0,0,0,0,0,
0,0,0,0,0,0,0,0,0,0,0,0,0,0,0,0,0,0,0,0,0,0,0,0,0,0,0,0,0,0,0,0,0,0,0,0,0,0,0,0,0,0,0,0,0,0,0,0,0,0,0,0,0,0,0,0,0,0,0,0,0,0,0,0,0,0,0,0,0,0,
0,0,0,0,0,0,0,0,0,0,0,0,0,0,0,0,0,0,0,0,0,0,0,0,0,0,0,0,0,0,0,0,0,0,0,0,0,0,0,0,0,0,0,0,0,0,0,0,0,0,0,0,0,0,0,0,0,0,0,0,0,0,0,0,0,0,0,0,0,0,
0,0,0,0,0,0,0,0,0,0,0,0,0,0,0,0,0,0,0,0,0,0,0,0,0,0,0,0,0,0,0,0,0,0,0,0,0,0,0,0,0,0,0,0,0,0,0,0,0,0,0,0,0,0,0,0,0,0,0,0,0,0,0,0,0,0,0,0,0,0,
0,0,0,0,0,0,0,0,0,0,0,0,0,0,0,0,0,0,0,0,0,0,0,0,0,0,0,0,0,0,0,0,0,0,0,0,0,0,0,0,0,0,0,0,0,0,0,0,0,0,0,0,0,0,0,0,0,0,0,0,0,0,0,0,0,0,0,0,0,0,
0,0,0,0,0,0,0,0,0,0,0,0,0,0,0,0,0,0,0,0,0,0,0,0,0,0,0,0,0,0,0,0,0,0,0,0,0,0,0,0,0,0,0,0,0,0,0,0,0,0,0,0,0,0,0,0,0,0,0,0,0,0,0,0,0,0,0,0,0,0,
0,0,0,0,0,0,0,0,0,0,0,0,0,0,0,0,0,0,0,0,0,0,21,22,22,22,22,22,22,22,22,22,22,22,22,22,22,22,22,22,22,22,22,22,22,22,23,0,0,0,0,0,0,0,0,0,0,0,0,0,0,0,0,0,0,0,0,0,0,0,
0,0,0,0,0,0,0,0,0,0,0,0,0,0,0,0,0,0,0,0,0,21,27,0,0,0,0,0,0,0,0,0,0,0,0,0,0,0,0,0,0,0,0,0,0,0,29,23,0,0,0,0,0,0,0,0,0,0,0,0,0,0,0,0,0,0,0,0,0,0,
0,0,0,0,0,0,0,0,0,0,0,0,0,0,0,0,0,0,0,0,21,27,0,0,0,0,0,0,0,0,0,0,0,0,0,0,0,0,0,0,0,0,0,0,0,0,0,29,23,0,0,0,0,0,0,0,0,0,0,0,0,0,0,0,0,0,0,0,0,0,
0,0,0,0,0,0,0,0,0,0,0,0,0,0,0,0,0,0,0,21,27,0,0,0,0,0,0,0,0,0,0,0,0,0,0,0,0,0,0,0,0,0,0,0,0,0,0,0,29,23,0,0,0,0,0,0,0,0,0,0,0,0,0,0,0,0,0,0,0,0,
0,0,0,0,0,0,0,0,0,0,0,0,0,0,0,0,0,0,0,39,0,0,0,0,0,0,0,0,0,0,0,0,0,0,0,0,0,0,0,0,0,0,0,0,0,0,0,0,0,41,0,0,0,0,0,0,0,0,0,0,0,0,0,0,0,0,0,0,0,0,
0,0,0,0,0,0,0,0,0,0,0,0,0,0,0,0,0,0,0,39,0,0,0,0,0,0,0,0,0,0,0,0,0,0,0,0,0,0,0,0,0,0,0,0,0,0,0,0,0,41,0,0,0,0,0,0,0,0,0,0,0,0,0,0,0,0,0,0,0,0,
0,0,0,0,0,0,0,0,0,0,0,0,0,0,0,0,0,0,0,39,0,0,0,0,0,0,0,0,0,0,0,0,0,0,0,0,0,0,0,0,0,0,0,0,0,0,0,0,0,41,0,0,0,0,0,0,0,0,0,0,0,0,0,0,0,0,0,0,0,0,
0,0,0,0,0,0,0,0,0,0,0,0,0,0,0,0,0,0,0,39,0,0,0,0,0,0,0,0,0,0,0,0,0,0,0,0,0,0,0,0,0,0,0,0,0,0,0,0,0,41,0,0,0,0,0,0,0,0,0,0,0,0,0,0,0,0,0,0,0,0,
0,0,0,0,0,0,0,0,0,0,0,0,0,0,0,0,0,0,0,39,0,0,0,0,0,0,0,0,0,35,46,46,46,46,46,46,46,46,46,46,33,0,0,0,0,0,0,0,0,41,0,0,0,0,0,0,0,0,0,0,0,0,0,0,0,0,0,0,0,0,
0,0,0,0,0,0,0,0,0,0,0,0,0,0,0,0,0,0,0,45,33,0,0,0,0,0,0,0,35,47,58,58,58,58,58,58,58,58,58,58,39,0,0,0,0,0,0,0,0,41,0,0,0,0,0,0,0,0,0,0,0,0,0,0,0,0,0,0,0,0,
0,0,0,0,0,0,0,0,0,0,0,0,0,0,0,0,0,0,0,57,45,33,0,0,0,0,0,35,47,59,0,0,0,0,0,0,0,0,0,0,45,46,46,46,46,46,46,46,46,47,0,0,0,0,0,0,0,0,0,0,0,0,0,0,0,0,0,0,0,0,
0,0,0,0,0,0,0,0,0,0,0,0,0,0,0,0,0,0,0,0,57,45,46,46,46,46,46,47,59,0,0,0,0,0,0,0,0,0,0,0,57,58,58,58,58,58,58,58,58,59,0,0,0,0,0,0,0,0,0,0,0,0,0,0,0,0,0,0,0,0,
0,0,0,0,0,0,0,0,0,0,0,0,0,0,0,0,0,0,0,0,0,57,58,58,58,58,58,59,0,0,0,0,0,0,0,0,0,0,0,0,0,0,0,0,0,0,0,0,0,0,0,0,0,0,0,0,0,0,0,0,0,0,0,0,0,0,0,0,0,0,
0,0,0,0,0,0,0,0,0,0,0,0,0,0,0,0,0,0,0,0,0,0,0,0,0,0,0,0,0,0,0,0,0,0,0,0,0,0,0,0,0,0,0,0,0,0,0,0,0,0,0,0,0,0,0,0,0,0,0,0,0,0,0,0,0,0,0,0,0,0,
0,0,0,0,0,0,0,0,0,0,0,0,0,0,0,0,0,0,0,0,0,0,0,0,0,0,0,0,0,0,0,0,0,0,0,0,0,0,0,0,0,0,0,0,0,0,0,0,0,0,0,0,0,0,0,0,0,0,0,0,0,0,0,0,0,0,0,0,0,0,
0,0,0,0,0,0,0,0,0,0,0,0,0,0,0,0,0,0,0,0,0,0,0,0,0,0,0,0,0,0,0,0,0,0,0,0,0,0,0,0,0,0,0,0,0,0,0,0,0,0,0,0,0,0,0,0,0,0,0,0,0,0,0,0,0,0,0,0,0,0,
0,0,0,0,0,0,0,0,0,0,0,0,0,0,0,0,0,0,0,0,0,0,0,0,0,0,0,0,0,0,0,0,0,0,0,0,0,0,0,0,0,0,0,0,0,0,0,0,0,0,0,0,0,0,0,0,0,0,0,0,0,0,0,0,0,0,0,0,0,0,
0,0,0,0,0,0,0,0,0,0,0,0,0,0,0,0,0,0,0,0,0,0,0,0,0,0,0,0,0,0,0,0,0,0,0,0,0,0,0,0,0,0,0,0,0,0,0,0,0,0,0,0,0,0,0,0,0,0,0,0,0,0,0,0,0,0,0,0,0,0,
0,0,0,0,0,0,0,0,0,0,0,0,0,0,0,0,0,0,0,0,0,0,0,0,0,0,0,0,0,0,0,0,0,0,0,0,0,0,0,0,0,0,0,0,0,0,0,0,0,0,0,0,0,0,0,0,0,0,0,0,0,0,0,0,0,0,0,0,0,0
</data>
 </layer>
 <layer id="13" name="Rock" width="70" height="70">
  <data encoding="csv">
0,0,0,0,0,0,0,0,0,0,0,0,0,0,0,0,0,0,0,0,0,0,0,0,0,0,0,0,0,0,0,0,0,0,0,0,0,0,0,0,0,0,0,0,0,0,0,0,0,0,0,0,0,0,0,0,0,0,0,0,0,0,0,0,0,0,0,0,0,0,
0,0,0,0,0,0,0,0,0,0,0,0,0,0,0,0,0,0,0,0,0,0,0,0,0,0,0,0,0,0,0,0,0,0,0,0,0,0,0,0,0,0,0,0,0,0,0,0,0,0,0,0,0,0,0,0,0,0,0,0,0,0,0,0,0,0,0,0,0,0,
0,0,0,0,0,0,0,0,0,0,0,0,0,0,0,0,0,0,0,0,0,0,0,0,0,0,0,0,0,0,0,0,0,0,0,0,0,0,0,0,0,0,0,0,0,0,0,0,0,0,0,0,0,0,0,0,0,0,0,0,0,0,0,0,0,0,0,0,0,0,
0,0,0,0,0,0,0,0,0,0,0,0,0,0,0,0,0,0,0,0,0,0,0,0,0,0,0,0,0,0,0,0,0,0,0,0,0,0,0,0,0,0,0,0,0,0,0,0,0,0,0,0,0,0,0,0,0,0,0,0,0,0,0,0,0,0,0,0,0,0,
0,0,0,0,0,0,0,0,0,0,0,0,0,0,0,0,0,0,0,0,0,0,0,0,0,0,0,0,0,0,0,0,0,0,0,0,0,0,0,0,0,0,0,0,0,0,0,0,0,0,0,0,0,0,0,0,0,0,0,0,0,0,0,0,0,0,0,0,0,0,
0,0,0,0,0,0,0,0,0,0,0,0,0,0,0,0,0,0,0,0,0,0,0,0,0,0,0,0,0,0,0,0,0,0,0,0,0,0,0,0,0,0,0,0,0,0,0,0,0,0,0,0,0,0,0,0,0,0,0,0,0,0,0,0,0,0,0,0,0,0,
0,0,0,0,0,0,0,0,0,0,0,0,0,0,0,0,0,0,0,0,0,0,0,0,0,0,0,0,0,0,0,0,0,0,0,0,0,0,0,0,0,0,0,0,0,0,0,0,0,0,0,0,0,0,0,0,0,0,0,0,0,0,0,0,0,0,0,0,0,0,
0,0,0,0,0,0,0,0,0,0,0,0,0,0,0,0,0,0,0,0,0,0,0,0,0,0,0,0,0,0,0,0,0,0,0,0,0,0,0,0,0,0,0,0,0,0,0,0,0,0,0,0,0,0,0,0,0,0,0,0,0,0,0,0,0,0,0,0,0,0,
0,0,0,0,0,0,0,0,0,0,0,0,0,0,0,0,0,0,0,0,0,0,0,0,0,0,0,0,0,0,0,0,0,0,0,0,0,0,0,0,0,0,0,0,0,0,0,0,0,0,0,0,0,0,0,0,0,0,0,0,0,0,0,0,0,0,0,0,0,0,
0,0,0,0,0,0,0,0,0,0,0,0,0,0,0,0,0,0,0,0,0,0,0,0,0,0,0,0,0,0,0,0,0,0,0,0,0,0,0,0,0,0,0,0,0,0,0,0,0,0,0,0,0,0,0,0,0,0,0,0,0,0,0,0,0,0,0,0,0,0,
0,0,0,0,0,0,0,0,0,0,0,0,0,0,0,0,0,0,0,0,0,0,0,0,0,0,0,0,0,0,0,0,0,0,0,0,0,0,0,0,0,0,0,0,0,0,0,0,0,0,0,0,0,0,0,0,0,0,0,0,0,0,0,0,0,0,0,0,0,0,
0,0,0,0,0,0,0,0,0,0,0,0,0,0,0,0,0,0,0,0,0,0,0,0,0,0,0,0,0,0,0,0,0,0,0,0,0,0,0,0,0,0,0,0,0,0,0,0,0,0,0,0,0,0,0,0,0,0,0,0,0,0,0,0,0,0,0,0,0,0,
0,0,0,0,0,0,0,0,0,0,0,0,0,0,0,0,0,0,0,0,0,0,0,0,0,0,0,0,0,0,0,0,0,0,0,0,0,0,0,0,0,0,0,0,0,0,0,0,0,0,0,0,0,0,0,0,0,0,0,0,0,0,0,0,0,0,0,0,0,0,
0,0,0,0,0,0,0,0,0,0,0,0,0,0,0,0,0,0,0,0,0,0,0,0,0,0,0,0,0,0,0,0,0,0,0,0,0,0,0,0,0,0,0,0,0,0,0,0,0,0,0,0,0,0,0,0,0,0,0,0,0,0,0,0,0,0,0,0,0,0,
0,0,0,0,0,0,0,0,0,0,0,0,0,0,0,0,0,0,0,0,0,0,0,0,0,0,0,0,0,0,0,0,0,0,0,0,0,0,0,0,0,0,0,0,0,0,0,0,0,0,0,0,0,0,0,0,0,0,0,0,0,0,0,0,0,0,0,0,0,0,
0,0,0,0,0,0,0,0,0,0,0,0,0,0,0,0,0,0,0,0,0,0,0,0,0,0,0,0,0,0,0,0,0,0,0,0,0,0,0,0,0,0,0,0,0,0,0,0,0,0,0,0,0,0,0,0,0,0,0,0,0,0,0,0,0,0,0,0,0,0,
0,0,0,0,0,0,0,0,0,0,0,0,0,0,0,0,0,0,0,0,0,0,0,0,0,0,0,0,0,0,0,0,0,0,0,0,0,0,0,0,0,0,0,0,0,0,0,0,0,0,0,0,0,0,0,0,0,0,0,0,0,0,0,0,0,0,0,0,0,0,
0,0,0,0,0,0,0,0,0,0,0,0,0,0,0,0,0,0,0,0,0,0,0,0,0,0,0,0,0,0,0,0,0,0,0,0,0,0,0,0,0,0,0,0,0,0,0,0,0,0,0,0,0,0,0,0,0,0,0,0,0,0,0,0,0,0,0,0,0,0,
0,0,0,0,0,0,0,0,0,0,0,0,0,0,0,0,0,0,0,0,0,0,0,0,0,0,0,0,0,0,0,0,0,0,0,0,0,0,0,0,0,0,0,0,0,0,0,0,0,0,0,0,0,0,0,0,0,0,0,0,0,0,0,0,0,0,0,0,0,0,
0,0,0,0,0,0,0,0,0,0,0,0,0,0,0,0,0,0,0,0,0,0,0,0,0,0,0,0,0,0,0,0,0,0,0,0,0,0,0,0,0,0,0,0,0,0,0,0,0,0,0,0,0,0,0,0,0,0,0,0,0,0,0,0,0,0,0,0,0,0,
0,0,0,0,0,0,0,0,0,0,0,0,0,0,0,0,0,0,0,0,0,0,0,0,0,0,0,0,0,0,0,0,0,0,0,0,0,0,0,0,0,0,0,0,0,0,0,0,0,0,0,0,0,0,0,0,0,0,0,0,0,0,0,0,0,0,0,0,0,0,
0,0,0,0,0,0,0,0,0,0,0,0,0,0,0,0,0,0,0,0,0,0,0,0,0,0,0,0,0,0,0,0,0,0,0,0,0,0,0,0,0,0,0,0,0,0,0,0,0,0,0,0,0,0,0,0,0,0,0,0,0,0,0,0,0,0,0,0,0,0,
0,0,0,0,0,0,0,0,0,0,0,0,0,0,0,0,0,0,0,0,0,0,0,0,0,0,0,0,0,0,0,0,0,0,0,0,0,0,0,0,0,0,0,0,0,0,0,0,0,0,0,0,0,0,0,0,0,0,0,0,0,0,0,0,0,0,0,0,0,0,
0,0,0,0,0,0,0,0,0,0,0,0,0,0,0,0,0,0,0,0,0,0,0,0,0,0,0,0,0,0,0,0,0,0,0,0,0,0,0,0,0,0,0,0,0,0,0,0,0,0,0,0,0,0,0,0,0,0,0,0,0,0,0,0,0,0,0,0,0,0,
0,0,0,0,0,0,0,0,0,0,0,0,0,0,0,0,0,0,0,0,0,0,0,0,0,0,0,0,0,0,0,0,0,0,0,0,0,0,0,0,0,0,0,0,0,0,0,0,0,0,0,0,0,0,0,0,0,0,0,0,0,0,0,0,0,0,0,0,0,0,
0,0,0,0,0,0,0,0,0,0,0,0,0,0,0,0,0,0,0,0,0,0,0,0,0,0,0,0,0,0,0,0,0,0,0,0,0,0,0,0,0,0,0,0,0,0,0,0,0,0,0,0,0,0,0,0,0,0,0,0,0,0,0,0,0,0,0,0,0,0,
0,0,0,0,0,0,0,0,0,0,0,0,0,0,0,0,0,0,0,0,0,0,0,0,0,0,0,0,0,0,0,0,0,0,0,0,0,0,0,0,0,0,0,0,0,0,0,0,0,0,0,0,0,0,0,0,0,0,0,0,0,0,0,0,0,0,0,0,0,0,
0,0,0,0,0,0,0,0,0,0,0,0,0,0,0,0,0,0,0,0,0,0,0,0,0,0,0,0,0,0,0,0,0,0,0,0,0,0,0,0,0,0,0,0,0,0,0,0,0,0,0,0,0,0,0,0,0,0,0,0,0,0,0,0,0,0,0,0,0,0,
0,0,0,0,0,0,0,0,0,0,0,0,0,0,0,0,0,0,0,0,0,0,0,0,0,0,0,0,0,0,91,0,0,0,0,0,0,0,0,0,0,0,0,0,0,0,0,0,0,0,0,0,0,0,0,0,0,0,0,0,0,0,0,0,0,0,0,0,0,0,
0,0,0,0,0,0,0,0,0,0,0,0,0,0,0,0,0,0,0,0,0,0,0,0,0,0,0,0,0,0,0,0,0,0,0,0,0,0,0,0,0,0,0,0,0,0,0,0,0,0,0,0,0,0,0,0,0,0,0,0,0,0,0,0,0,0,0,0,0,0,
0,0,0,0,0,0,2147483742,0,0,0,0,0,0,0,0,0,0,0,0,0,0,0,0,0,0,0,0,0,0,0,0,0,0,0,0,0,0,0,0,0,0,0,0,0,0,0,0,0,0,0,0,0,0,0,0,0,0,0,0,0,0,0,0,0,0,0,0,0,0,0,
0,0,0,0,0,0,0,0,0,0,0,0,0,0,0,0,0,0,0,0,0,0,0,0,0,0,0,0,0,0,0,0,0,0,0,0,0,0,0,0,0,0,0,0,0,0,0,0,0,0,0,0,0,0,0,0,0,0,0,0,0,0,0,0,0,0,0,0,0,0,
0,0,0,0,0,0,0,0,0,0,0,0,0,0,0,0,0,0,0,0,0,0,0,0,0,0,0,0,0,0,0,0,0,0,0,0,0,0,0,0,0,0,0,0,0,0,0,0,0,0,0,0,0,0,0,0,0,0,0,0,0,0,0,0,0,0,0,0,0,0,
0,0,0,0,0,0,0,0,0,0,0,0,0,0,0,0,0,0,0,0,0,0,0,0,0,0,0,0,0,0,0,0,0,0,0,0,0,0,0,0,0,0,0,0,0,0,0,0,0,0,0,0,0,0,0,0,0,0,0,0,0,0,0,0,0,0,0,0,0,0,
0,0,0,0,0,0,0,0,0,0,0,0,0,0,0,0,0,0,0,0,0,0,0,0,0,0,0,0,0,0,0,0,0,0,0,0,0,0,0,0,0,0,0,0,0,0,0,0,0,0,0,0,0,0,0,0,0,0,0,0,0,0,0,0,0,0,0,0,0,0,
0,0,0,0,0,0,0,0,0,0,0,0,0,0,0,0,0,0,0,0,0,0,0,0,0,0,0,0,0,0,0,0,0,0,0,0,0,0,0,0,0,0,0,0,0,0,0,0,0,0,0,0,0,0,0,0,0,0,0,0,0,0,0,0,0,0,0,0,0,0,
0,0,0,0,0,0,0,0,0,0,0,0,0,0,0,0,0,0,0,0,0,0,0,0,0,0,0,0,0,0,0,0,0,0,0,0,0,0,0,0,0,0,0,0,0,0,0,0,0,0,0,0,0,0,0,0,0,0,0,0,0,0,0,0,0,0,0,0,0,0,
0,0,0,0,0,0,0,0,0,0,0,0,0,0,0,0,0,0,0,0,0,0,0,0,0,0,0,0,0,0,0,0,0,0,0,0,0,0,0,0,0,0,0,0,0,0,0,0,0,0,0,0,0,0,0,0,0,0,0,0,0,0,0,0,0,0,0,0,0,0,
0,0,0,0,0,0,0,0,0,0,0,0,0,0,0,0,0,0,0,0,0,0,0,0,0,0,0,0,0,0,0,0,0,0,0,0,0,0,0,0,0,0,0,0,0,0,0,0,0,0,0,0,0,0,0,0,0,0,0,0,0,0,0,0,0,0,0,0,0,0,
0,0,0,0,0,0,0,0,0,0,0,0,0,0,0,0,0,0,0,0,0,0,0,0,0,0,0,0,0,0,0,0,0,0,0,0,0,0,0,0,0,0,0,0,0,0,0,0,0,0,0,0,0,0,0,0,0,0,0,0,0,0,0,0,0,0,0,0,0,0,
0,0,0,0,0,0,0,0,0,0,0,0,0,0,0,0,0,0,0,0,0,0,0,0,0,0,0,0,0,0,0,0,0,0,0,0,0,0,0,0,0,0,0,0,0,0,0,0,0,0,0,0,0,0,0,0,0,0,0,0,0,0,0,0,0,0,0,0,0,0,
0,0,0,0,0,0,0,0,0,0,0,0,0,0,0,0,0,0,0,0,0,0,0,0,0,0,0,0,0,0,0,0,0,0,0,0,0,0,0,0,0,0,0,0,0,0,0,0,0,0,0,0,0,0,0,0,0,0,0,0,0,0,0,0,0,0,0,0,0,0,
0,0,0,0,0,0,0,0,0,0,0,0,0,0,0,0,0,0,0,0,0,0,0,0,0,0,0,0,0,0,0,0,0,0,0,0,0,0,0,0,0,0,0,0,0,0,0,0,0,0,0,0,0,0,0,0,0,0,0,0,0,0,0,0,0,0,0,0,0,0,
0,0,0,0,0,0,0,0,0,0,0,0,0,0,0,0,0,0,0,0,0,0,0,0,0,0,0,0,0,0,0,0,0,0,0,0,0,0,0,0,0,0,0,0,0,0,0,0,0,0,0,0,0,0,0,0,0,0,0,0,0,0,0,0,0,0,0,0,0,0,
0,0,0,0,0,0,0,0,0,0,0,0,0,0,0,0,0,0,0,0,0,0,0,0,0,0,0,0,0,0,0,0,0,0,0,0,0,0,0,0,0,0,0,0,0,0,0,0,0,0,0,0,0,0,0,0,0,0,0,0,0,0,0,0,0,0,0,0,0,0,
0,0,0,0,0,0,0,0,0,0,0,0,0,0,0,0,0,0,0,0,0,0,0,0,0,0,0,0,0,0,0,0,0,0,0,0,0,0,0,0,0,0,0,0,0,0,0,0,0,0,0,0,0,0,0,0,0,0,0,0,0,0,0,0,0,0,0,0,0,0,
0,0,0,0,0,0,0,0,0,0,0,0,0,0,0,0,0,0,0,0,0,0,0,0,0,0,0,0,0,0,0,0,0,0,0,0,0,0,0,0,0,0,0,0,0,0,0,0,0,0,0,0,0,0,0,0,0,0,0,0,0,0,0,0,0,0,0,0,0,0,
0,0,0,0,0,0,0,0,0,0,0,0,0,0,0,0,0,0,0,0,0,0,0,0,0,0,0,0,0,0,0,0,0,0,0,0,0,0,0,0,0,0,0,0,0,0,0,0,0,0,0,0,0,0,0,0,0,0,0,0,0,0,0,0,0,0,0,0,0,0,
0,0,0,0,0,0,0,0,0,0,0,0,0,0,0,0,0,0,0,0,0,0,0,0,0,0,0,0,0,0,0,0,0,0,0,0,0,0,0,0,0,0,0,0,0,0,0,0,0,0,0,0,0,0,0,0,0,0,0,0,0,0,0,0,0,0,0,0,0,0,
0,0,0,0,0,0,0,0,0,0,0,0,0,0,0,0,0,0,0,0,0,2147483739,0,0,0,0,0,0,0,0,0,0,0,0,0,0,0,0,0,0,0,0,0,0,0,0,0,0,0,0,0,0,0,0,0,0,0,0,0,0,0,0,0,0,0,0,0,0,0,0,
0,0,0,0,0,0,0,0,0,0,0,0,0,0,0,0,0,0,0,0,0,0,0,0,0,0,0,0,0,0,0,0,0,0,0,0,0,0,0,0,0,0,0,0,0,0,0,0,0,0,0,0,0,0,0,0,0,0,0,0,0,0,0,0,0,0,0,0,0,0,
0,0,0,0,0,0,0,0,0,0,0,0,0,0,0,0,0,0,0,0,0,0,0,0,0,0,0,0,0,0,0,0,0,0,0,0,0,0,0,0,0,0,0,0,0,0,0,0,0,0,0,0,0,0,0,0,0,0,0,0,0,0,0,0,0,0,0,0,0,0,
0,0,0,0,0,0,0,0,0,0,0,0,0,0,0,0,0,0,0,0,0,0,0,0,0,0,0,0,0,0,0,0,0,0,0,0,0,0,0,0,0,0,0,0,0,0,0,0,0,0,0,0,0,0,0,0,0,0,0,0,0,0,0,0,0,0,0,0,0,0,
0,0,0,0,0,0,0,0,0,0,0,0,0,0,0,0,0,0,0,0,0,0,0,0,0,0,0,0,0,0,0,0,0,0,0,0,0,0,0,0,0,0,0,0,0,0,0,0,0,0,0,0,0,0,0,0,0,0,0,0,0,0,0,0,0,0,0,0,0,0,
0,0,0,0,0,0,0,0,0,0,0,0,0,0,0,0,0,0,0,0,0,0,0,0,0,0,0,0,0,0,0,0,0,0,0,0,0,0,0,0,0,0,0,0,0,0,0,0,0,0,0,0,0,0,0,0,0,0,0,0,0,0,0,0,0,0,0,0,0,0,
0,0,0,0,0,0,0,0,0,0,0,0,0,0,0,0,0,0,0,0,0,0,0,0,0,0,0,0,0,0,0,0,0,0,0,0,0,0,0,0,0,0,0,0,0,0,0,0,0,0,0,0,0,0,0,0,0,0,0,0,0,0,0,0,0,0,0,0,0,0,
0,0,0,0,0,0,0,0,0,0,0,0,0,0,0,0,0,0,0,0,0,0,0,0,0,0,0,0,0,0,0,0,0,0,0,0,0,0,0,0,0,0,0,0,0,0,0,0,0,0,0,0,0,0,0,0,0,0,0,0,0,0,0,0,0,0,0,0,0,0,
0,0,0,0,0,0,0,0,0,0,0,0,0,0,0,0,0,0,0,0,0,0,0,0,0,0,0,0,0,0,0,0,0,0,0,0,0,0,0,0,0,0,0,0,0,0,0,0,0,0,0,0,0,0,0,0,0,0,0,0,0,0,0,2147483740,0,0,0,0,0,0,
0,0,0,0,0,0,0,0,0,2147483741,0,0,0,0,0,0,0,0,0,0,0,0,0,0,0,0,0,0,0,0,0,0,0,0,0,0,0,0,0,0,0,0,0,0,0,0,0,0,0,0,0,0,0,0,0,0,0,0,0,0,0,0,0,0,0,0,0,0,0,0,
0,0,0,0,0,0,0,0,0,0,0,0,0,0,0,0,0,0,0,0,0,0,0,0,0,0,0,0,0,0,0,0,0,0,0,0,0,0,0,0,0,0,0,0,0,0,0,0,0,0,0,0,0,0,0,0,0,0,0,0,0,0,0,0,0,0,0,0,0,0,
0,0,0,0,0,0,0,0,0,0,0,0,0,0,0,0,0,0,0,0,0,0,0,0,0,0,0,0,0,0,0,0,0,0,0,0,0,0,0,0,0,0,0,0,0,0,0,0,0,0,0,0,0,0,0,0,0,0,0,0,0,0,0,0,0,0,0,0,0,0,
0,0,0,0,0,0,0,0,0,0,0,0,0,0,0,0,0,0,0,0,0,0,0,0,0,0,0,0,0,0,0,0,0,0,0,0,0,0,0,0,0,0,0,0,0,0,0,0,0,0,0,0,0,0,0,0,0,0,0,0,0,0,0,0,0,0,0,0,0,0,
0,0,0,0,0,0,0,0,0,0,0,0,0,0,0,0,0,0,0,0,0,0,0,0,0,0,0,0,0,0,0,0,0,0,0,0,0,0,0,0,0,0,0,0,0,0,0,0,0,0,0,0,0,0,0,0,0,0,0,0,0,0,0,0,0,0,0,0,0,0,
0,0,0,0,0,0,0,0,0,0,0,0,0,0,0,0,0,0,0,0,0,0,0,0,0,0,0,0,0,0,0,0,0,0,0,0,0,0,0,0,0,0,0,0,0,0,0,0,0,0,0,0,0,0,0,0,0,0,0,0,0,0,0,0,0,0,0,0,0,0,
0,0,0,0,0,0,0,0,0,0,0,0,0,0,0,0,0,0,0,0,0,0,0,0,0,0,0,0,0,0,0,0,0,0,0,0,0,0,0,0,0,0,0,0,0,0,0,0,0,0,0,0,0,0,0,0,0,0,0,0,0,0,0,0,0,0,0,0,0,0,
0,0,0,0,0,0,0,0,0,0,0,0,0,0,0,0,0,0,0,0,0,0,0,0,0,0,0,0,0,0,0,0,0,0,0,0,0,0,0,0,0,0,0,0,0,0,0,0,0,0,0,0,0,0,0,0,0,0,0,0,0,0,0,0,0,0,0,0,0,0,
0,0,0,0,0,0,0,0,0,0,0,0,0,0,0,0,0,0,0,0,0,0,0,0,0,0,0,0,0,0,0,0,0,0,0,0,0,0,0,0,0,0,0,0,0,0,0,0,0,0,0,0,0,0,0,0,0,0,0,0,0,0,0,0,0,0,0,0,0,0,
0,0,0,0,0,0,0,0,0,0,0,0,0,0,0,0,0,0,0,0,0,0,0,0,0,0,0,0,0,0,0,0,0,0,0,0,0,0,0,0,0,0,0,0,0,0,0,0,0,0,0,0,0,0,0,0,0,0,0,0,0,0,0,0,0,0,0,0,0,0,
0,0,0,0,0,0,0,0,0,0,0,0,0,0,0,0,0,0,0,0,0,0,0,0,0,0,0,0,0,0,0,0,0,0,0,0,0,0,0,0,0,0,0,0,0,0,0,0,0,0,0,0,0,0,0,0,0,0,0,0,0,0,0,0,0,0,0,0,0,0,
0,0,0,0,0,0,0,0,0,0,0,0,0,0,0,0,0,0,0,0,0,0,0,0,0,0,0,0,0,0,0,0,0,0,0,0,0,0,0,0,0,0,0,0,0,0,0,0,0,0,0,0,0,0,0,0,0,0,0,0,0,0,0,0,0,0,0,0,0,0
</data>
 </layer>
 <layer id="5" name="stair" width="70" height="70">
  <data encoding="csv">
0,0,0,0,0,0,0,0,0,0,0,0,0,0,0,0,0,0,0,0,0,0,0,0,0,0,0,0,0,0,0,0,0,0,0,0,0,0,0,0,0,0,0,0,0,0,0,0,0,0,0,0,0,0,0,0,0,0,0,0,0,0,0,0,0,0,0,0,0,0,
0,0,0,0,0,0,0,0,0,0,0,0,0,0,0,0,0,0,0,0,0,0,0,0,0,0,0,0,0,0,0,0,0,0,0,0,0,0,0,0,0,0,0,0,0,0,0,0,0,0,0,0,0,0,0,0,0,0,0,0,0,0,0,0,0,0,0,0,0,0,
0,0,0,0,0,0,0,0,0,0,0,0,0,0,0,0,0,0,0,0,0,0,0,0,0,0,0,0,0,0,0,0,0,0,0,0,0,0,0,0,0,0,0,0,0,0,0,0,0,0,0,0,0,0,0,0,0,0,0,0,0,0,0,0,0,0,0,0,0,0,
0,0,0,0,0,0,0,0,0,0,0,0,0,0,0,0,0,0,0,0,0,0,0,0,0,0,0,0,0,0,0,0,0,0,0,0,0,0,0,0,0,0,0,0,0,0,0,0,0,0,0,0,0,0,0,0,0,0,0,0,0,0,0,0,0,0,0,0,0,0,
0,0,0,0,0,0,0,0,0,0,0,0,0,0,0,0,0,0,0,0,0,0,0,0,0,0,0,0,0,0,0,0,0,0,0,0,0,0,0,0,0,0,0,0,0,0,0,0,0,0,0,0,0,0,0,0,0,0,0,0,0,0,0,0,0,0,0,0,0,0,
0,0,0,0,0,0,0,0,0,0,0,0,0,0,0,0,0,0,0,0,0,0,0,0,0,0,0,0,0,0,0,0,0,0,0,0,0,0,0,0,0,0,0,0,0,0,0,0,0,0,0,0,0,0,0,0,0,0,0,0,0,0,0,0,0,0,0,0,0,0,
0,0,0,0,0,0,0,0,0,0,0,0,0,0,0,0,0,0,0,0,0,0,0,0,0,0,0,0,0,0,0,0,0,0,0,0,0,0,0,0,0,0,0,0,0,0,0,0,0,0,0,0,0,0,0,0,0,0,0,0,0,0,0,0,0,0,0,0,0,0,
0,0,0,0,0,0,0,0,0,0,0,0,0,0,0,0,0,0,0,0,0,0,0,0,0,0,0,0,0,0,0,0,0,0,0,0,0,0,0,0,0,0,0,0,0,0,0,0,0,0,0,0,0,0,0,0,0,0,0,0,0,0,0,0,0,0,0,0,0,0,
0,0,0,0,0,0,0,0,0,0,0,0,0,0,0,0,0,0,0,0,0,0,0,0,0,0,0,0,0,0,0,0,0,0,0,0,0,0,0,0,0,0,0,0,0,0,0,0,0,0,0,0,0,0,0,0,0,0,0,0,0,0,0,0,0,0,0,0,0,0,
0,0,0,0,0,0,0,0,0,0,0,0,0,0,0,0,0,0,0,0,0,0,0,0,0,0,0,0,0,0,0,0,0,0,0,0,0,0,0,0,0,0,0,0,0,0,0,0,0,0,0,0,0,0,0,0,0,0,0,0,0,0,0,0,0,0,0,0,0,0,
0,0,0,0,0,0,0,0,0,0,0,0,0,0,0,0,0,0,0,0,0,0,0,0,0,0,0,0,0,0,0,0,0,0,0,0,0,0,0,0,0,0,0,0,0,0,0,0,0,0,0,0,0,0,0,0,0,0,0,0,0,0,0,0,0,0,0,0,0,0,
0,0,0,0,0,0,0,0,0,0,0,0,0,0,0,0,0,0,0,0,0,0,0,0,0,0,0,0,0,0,0,0,0,0,0,0,0,0,0,0,0,0,0,0,0,0,0,0,0,0,0,0,0,0,0,0,0,0,0,0,0,0,0,0,0,0,0,0,0,0,
0,0,0,0,0,0,0,0,0,0,0,0,0,0,0,0,0,0,0,0,0,0,0,0,0,0,0,0,0,0,0,0,0,0,0,0,0,0,0,0,0,0,0,0,0,0,0,0,0,0,0,0,0,0,0,0,0,0,0,0,0,0,0,0,0,0,0,0,0,0,
0,0,0,0,0,0,0,0,0,0,0,0,0,0,0,0,0,0,0,0,0,0,0,0,0,0,0,0,0,0,0,0,0,0,0,0,0,0,0,0,0,0,0,0,0,0,0,0,0,0,0,0,0,0,0,0,0,0,0,0,0,0,0,0,0,0,0,0,0,0,
0,0,0,0,0,0,0,0,0,0,0,0,0,0,0,0,0,0,0,0,0,0,0,0,0,0,0,0,0,0,0,0,0,0,0,0,0,0,0,0,0,0,0,0,0,0,0,0,0,0,0,0,0,0,0,0,0,0,0,0,0,0,0,0,0,0,0,0,0,0,
0,0,0,0,0,0,0,0,0,0,0,0,0,0,0,0,0,0,0,0,0,0,0,0,0,0,0,0,0,0,0,0,0,0,0,0,0,0,0,0,0,0,0,0,0,0,0,0,0,0,0,0,0,0,0,0,0,0,0,0,0,0,0,0,0,0,0,0,0,0,
0,0,0,0,0,0,0,0,0,0,0,0,0,0,0,0,0,0,0,0,0,0,0,0,0,0,0,0,0,0,0,0,0,0,0,0,0,0,0,0,0,0,0,0,0,0,0,0,0,0,0,0,0,0,0,0,0,0,0,0,0,0,0,0,0,0,0,0,0,0,
0,0,0,0,0,0,0,0,0,0,0,0,0,0,0,0,0,0,0,0,0,0,0,0,0,0,0,0,0,0,0,0,0,0,0,0,0,0,0,0,0,0,0,0,0,0,0,0,0,0,0,0,0,0,0,0,0,0,0,0,0,0,0,0,0,0,0,0,0,0,
0,0,0,0,0,0,0,0,0,0,0,0,0,0,0,0,0,0,0,0,0,0,0,0,0,0,0,0,0,0,0,0,0,0,0,0,0,0,0,0,0,0,0,0,0,0,0,0,0,0,0,0,0,0,0,0,0,0,0,0,0,0,0,0,0,0,0,0,0,0,
0,0,0,0,0,0,0,0,0,0,0,0,0,0,0,0,0,0,0,0,0,0,0,0,0,0,0,0,0,0,0,0,0,0,0,0,0,0,0,0,0,0,0,0,0,0,0,0,0,0,0,0,0,0,0,0,0,0,0,0,0,0,0,0,0,0,0,0,0,0,
0,0,0,0,0,0,0,0,0,0,0,0,0,0,0,0,0,0,0,0,0,0,0,0,0,0,0,0,0,0,0,0,0,0,0,0,0,0,0,0,0,0,0,0,0,0,0,0,0,0,0,0,0,0,0,0,0,0,0,0,0,0,0,0,0,0,0,0,0,0,
0,0,0,0,0,0,0,0,0,0,0,0,0,0,0,0,0,0,0,0,0,0,0,0,0,0,0,0,0,0,0,0,0,0,0,0,0,0,0,0,0,0,0,0,0,0,0,0,0,0,0,0,0,0,0,0,0,0,0,0,0,0,0,0,0,0,0,0,0,0,
0,0,0,0,0,0,0,0,0,0,0,0,0,0,0,0,0,0,0,0,0,0,0,0,0,0,0,0,0,0,0,0,0,0,0,0,0,0,0,0,0,0,0,0,0,0,0,0,0,0,0,0,0,0,0,0,0,0,0,0,0,0,0,0,0,0,0,0,0,0,
0,0,0,0,0,0,0,0,0,0,0,0,0,0,0,0,0,0,0,0,0,0,0,0,0,0,0,0,0,0,0,0,0,0,0,0,0,0,0,0,0,0,0,0,0,0,0,0,0,0,0,0,0,0,0,0,0,0,0,0,0,0,0,0,0,0,0,0,0,0,
0,0,0,0,0,0,0,0,0,0,0,0,0,0,0,0,0,0,0,0,0,0,0,0,0,0,0,0,0,0,0,0,0,0,0,0,0,0,0,0,0,0,0,0,0,0,0,0,0,0,0,0,0,0,0,0,0,0,0,0,0,0,0,0,0,0,0,0,0,0,
0,0,0,0,0,0,0,0,0,0,0,0,0,0,0,0,0,0,0,0,0,0,0,0,0,0,0,0,0,0,0,0,0,0,0,0,0,0,0,0,0,0,0,0,0,0,0,0,0,0,0,0,0,0,0,0,0,0,0,0,0,0,0,0,0,0,0,0,0,0,
0,0,0,0,0,0,0,0,0,0,0,0,0,0,0,0,0,0,0,0,0,0,0,0,0,0,0,0,0,0,0,0,0,0,0,0,0,0,0,0,0,0,0,0,0,0,0,0,0,0,0,0,0,0,0,0,0,0,0,0,0,0,0,0,0,0,0,0,0,0,
0,0,0,0,0,0,0,0,0,0,0,0,0,0,0,0,0,0,0,0,0,0,0,0,0,0,0,0,0,0,0,0,0,0,0,0,0,0,0,0,0,0,0,0,0,0,0,0,0,0,0,0,0,0,0,0,0,0,0,0,0,0,0,0,0,0,0,0,0,0,
0,0,0,0,0,0,0,0,0,0,0,0,0,0,0,0,0,0,0,0,0,0,0,0,0,0,0,0,0,0,0,0,0,0,0,0,0,0,0,0,0,0,0,0,0,0,0,0,0,0,0,0,0,0,0,0,0,0,0,0,0,0,0,0,0,0,0,0,0,0,
0,0,0,0,0,0,0,0,0,0,0,0,0,0,0,0,0,0,0,0,0,0,0,0,0,0,0,0,0,0,0,0,0,0,0,0,0,0,0,0,0,0,0,0,0,0,0,0,0,0,0,0,0,0,0,0,0,0,0,0,0,0,0,0,0,0,0,0,0,0,
0,0,0,0,0,0,0,0,0,0,0,0,0,0,0,0,0,0,0,0,0,0,0,0,0,0,0,0,0,0,0,0,0,0,0,0,0,0,0,0,0,0,0,0,0,0,0,0,0,0,0,0,0,0,0,0,0,0,0,0,0,0,0,0,0,0,0,0,0,0,
0,0,0,0,0,0,0,0,0,0,0,0,0,0,0,0,0,0,0,0,0,0,0,0,0,0,0,0,0,0,0,0,0,0,0,0,0,0,0,0,0,0,0,0,0,0,0,0,0,0,0,0,0,0,0,0,0,0,0,0,0,0,0,0,0,0,0,0,0,0,
0,0,0,0,0,0,0,0,0,0,0,0,0,0,0,0,0,0,0,0,0,0,0,0,0,0,0,0,0,0,0,0,0,0,0,0,0,0,0,0,0,0,0,0,0,0,0,0,0,0,0,0,0,0,0,0,0,0,0,0,0,0,0,0,0,0,0,0,0,0,
0,0,0,0,0,0,0,0,0,0,0,0,0,0,0,0,0,0,0,0,0,0,0,0,0,0,0,0,0,0,0,0,0,0,0,0,0,0,0,0,0,0,0,0,0,0,0,0,0,0,0,0,0,0,0,0,0,0,0,0,0,0,0,0,0,0,0,0,0,0,
0,0,0,0,0,0,0,0,0,0,0,0,0,0,0,0,0,0,0,0,0,0,0,0,0,0,0,0,0,0,0,0,0,0,0,0,0,0,0,0,0,0,0,0,0,0,0,0,0,0,0,0,0,0,0,0,0,0,0,0,0,0,0,0,0,0,0,0,0,0,
0,0,0,0,0,0,0,0,0,0,0,0,0,0,0,0,0,0,0,0,0,0,0,0,0,0,0,0,0,0,0,0,0,0,0,0,0,0,0,0,0,0,0,0,0,0,0,0,0,0,0,0,0,0,0,0,0,0,0,0,0,0,0,0,0,0,0,0,0,0,
0,0,0,0,0,0,0,0,0,0,0,0,0,0,0,0,0,0,0,0,0,0,0,0,0,0,0,0,0,0,0,0,0,0,0,0,0,0,0,0,0,0,0,0,0,0,0,0,0,0,0,0,0,0,0,0,0,0,0,0,0,0,0,0,0,0,0,0,0,0,
0,0,0,0,0,0,0,0,0,0,0,0,0,0,0,0,0,0,0,0,0,0,0,0,0,0,0,0,0,0,0,0,0,0,0,0,0,0,0,0,0,0,0,0,0,0,0,0,0,0,0,0,0,0,0,0,0,0,0,0,0,0,0,0,0,0,0,0,0,0,
0,0,0,0,0,0,0,0,0,0,0,0,0,0,0,0,0,0,0,0,0,0,0,0,0,0,0,0,0,0,0,0,0,0,0,0,0,0,0,0,0,0,0,0,0,0,0,0,0,0,0,0,0,0,0,0,0,0,0,0,0,0,0,0,0,0,0,0,0,0,
0,0,0,0,0,0,0,0,0,0,0,0,0,0,0,0,0,0,0,0,0,0,0,0,0,0,0,0,0,0,0,0,0,0,0,0,0,0,0,0,0,0,0,0,0,0,0,0,0,0,0,0,0,0,0,0,0,0,0,0,0,0,0,0,0,0,0,0,0,0,
0,0,0,0,0,0,0,0,0,0,0,0,0,0,0,0,0,0,0,0,0,0,0,0,0,0,0,0,0,0,0,0,0,0,0,0,0,0,0,0,0,0,0,0,0,0,0,0,0,0,0,0,0,0,0,0,0,0,0,0,0,0,0,0,0,0,0,0,0,0,
0,0,0,0,0,0,0,0,0,0,0,0,0,0,0,0,0,0,0,0,0,0,0,0,0,0,0,0,0,0,0,0,0,0,0,0,0,0,0,0,0,0,0,0,0,0,0,0,0,0,0,0,0,0,0,0,0,0,0,0,0,0,0,0,0,0,0,0,0,0,
0,0,0,0,0,0,0,0,0,0,0,0,0,0,0,0,0,0,0,0,0,0,0,0,0,0,0,0,0,0,0,0,0,0,0,0,0,0,0,0,0,0,0,0,0,0,0,0,0,0,0,0,0,0,0,0,0,0,0,0,0,0,0,0,0,0,0,0,0,0,
0,0,0,0,0,0,0,0,0,0,0,0,0,0,0,0,0,0,0,0,0,0,0,0,0,0,0,0,0,0,0,0,0,0,0,0,0,0,0,0,0,0,0,0,0,0,0,0,0,0,0,0,0,0,0,0,0,0,0,0,0,0,0,0,0,0,0,0,0,0,
0,0,0,0,0,0,0,0,0,0,0,0,0,0,0,0,0,0,0,0,0,0,0,0,0,0,0,0,0,0,0,0,0,0,0,0,0,0,0,0,0,0,0,0,0,0,0,0,0,0,0,0,0,0,0,0,0,0,0,0,0,0,0,0,0,0,0,0,0,0,
0,0,0,0,0,0,0,0,0,0,0,0,0,0,0,0,0,0,0,0,0,0,0,0,0,0,0,0,0,0,0,0,0,0,0,0,0,0,0,0,0,0,0,0,0,0,0,0,0,0,0,0,0,0,0,0,0,0,0,0,0,0,0,0,0,0,0,0,0,0,
0,0,0,0,0,0,0,0,0,0,0,0,0,0,0,0,0,0,0,0,0,0,0,0,0,0,0,0,0,0,0,0,0,0,0,0,0,0,0,0,0,0,0,0,0,0,0,0,0,0,0,0,0,0,0,0,0,0,0,0,0,0,0,0,0,0,0,0,0,0,
0,0,0,0,0,0,0,0,0,0,0,0,0,0,0,0,0,0,0,0,0,0,0,0,0,0,0,0,0,0,0,0,0,0,0,0,0,0,0,0,0,0,0,0,0,0,0,0,0,0,0,0,0,0,0,0,0,0,0,0,0,0,0,0,0,0,0,0,0,0,
0,0,0,0,0,0,0,0,0,0,0,0,0,0,0,0,0,0,0,0,0,0,0,0,0,0,0,0,0,0,0,0,0,0,0,0,0,0,0,0,0,0,0,0,0,0,0,0,0,0,0,0,0,0,0,0,0,0,0,0,0,0,0,0,0,0,0,0,0,0,
0,0,0,0,0,0,0,0,0,0,0,0,0,0,0,0,0,0,0,0,0,0,0,0,0,0,0,0,0,0,0,0,0,0,0,0,0,0,0,0,0,0,0,0,0,0,0,0,0,0,0,0,0,0,0,0,0,0,0,0,0,0,0,0,0,0,0,0,0,0,
0,0,0,0,0,0,0,0,0,0,0,0,0,0,0,0,0,0,0,0,0,0,0,0,0,0,0,0,0,0,0,0,0,0,0,0,0,0,0,0,0,0,0,0,0,0,0,0,0,0,0,0,0,0,0,0,0,0,0,0,0,0,0,0,0,0,0,0,0,0,
0,0,0,0,0,0,0,0,0,0,0,0,0,0,0,0,0,0,0,0,0,0,0,0,0,0,0,0,0,0,0,0,0,0,0,0,0,0,0,0,0,0,0,0,0,0,0,0,0,0,0,0,0,0,0,0,0,0,0,0,0,0,0,0,0,0,0,0,0,0,
0,0,0,0,0,0,0,0,0,0,0,0,0,0,0,0,0,0,0,0,0,0,0,0,0,0,0,0,0,0,0,0,0,0,0,0,0,0,0,0,0,0,0,0,0,0,0,0,0,0,0,0,0,0,0,0,0,0,0,0,0,0,0,0,0,0,0,0,0,0,
0,0,0,0,0,0,0,0,0,0,0,0,0,0,0,0,0,0,0,0,0,0,0,0,0,0,0,0,0,0,0,0,0,0,0,0,0,0,0,0,0,0,0,0,0,0,0,0,0,0,0,0,0,0,0,0,0,0,0,0,0,0,0,0,0,0,0,0,0,0,
0,0,0,0,0,0,0,0,0,0,0,0,0,0,0,0,0,0,0,0,0,0,0,0,0,0,0,0,0,0,0,0,0,0,0,0,0,0,0,0,0,0,0,0,0,0,0,0,0,0,0,0,0,0,0,0,0,0,0,0,0,0,0,0,0,0,0,0,0,0,
0,0,0,0,0,0,0,0,0,0,0,0,0,0,0,0,0,0,0,0,0,0,0,0,0,0,0,0,0,0,0,0,0,0,0,0,0,0,0,0,0,0,0,0,0,0,0,0,0,0,0,0,0,0,0,0,0,0,0,0,0,0,0,0,0,0,0,0,0,0,
0,0,0,0,0,0,0,0,0,0,0,0,0,0,0,0,0,0,0,0,0,0,0,0,0,0,0,0,0,0,0,0,0,0,0,0,0,0,0,0,0,0,0,0,0,0,0,0,0,0,0,0,0,0,0,0,0,0,0,0,0,0,0,0,0,0,0,0,0,0,
0,0,0,0,0,0,0,0,0,0,0,0,0,0,0,0,0,0,0,0,0,0,0,0,0,0,0,0,0,0,0,0,0,0,0,0,0,0,0,0,0,0,0,0,0,0,0,0,0,0,0,0,0,0,0,0,0,0,0,0,0,0,0,0,0,0,0,0,0,0,
0,0,0,0,0,0,0,0,0,0,0,0,0,0,0,0,0,0,0,0,0,0,0,0,0,0,0,0,0,0,0,0,0,0,0,0,0,0,0,0,0,0,0,0,0,0,0,0,0,0,0,0,0,0,0,0,0,0,0,0,0,0,0,0,0,0,0,0,0,0,
0,0,0,0,0,0,0,0,0,0,0,0,0,0,0,0,0,0,0,0,0,0,0,0,0,0,0,0,0,0,0,0,0,0,0,0,0,0,0,0,0,0,0,0,0,0,0,0,0,0,0,0,0,0,0,0,0,0,0,0,0,0,0,0,0,0,0,0,0,0,
0,0,0,0,0,0,0,0,0,0,0,0,0,0,0,0,0,0,0,0,0,0,0,0,0,0,0,0,0,0,0,0,0,0,0,0,0,0,0,0,0,0,0,0,64,65,0,0,0,0,0,0,0,0,0,0,0,0,0,0,0,0,0,0,0,0,0,0,0,0,
0,0,0,0,0,0,0,0,0,0,0,0,0,0,0,0,0,0,0,0,0,0,0,64,65,0,0,0,0,0,0,0,0,0,0,0,0,0,0,0,0,0,0,67,68,69,70,0,0,0,0,0,0,0,0,0,0,0,0,0,0,0,0,0,0,0,0,0,0,0,
0,0,0,0,0,0,0,0,0,0,0,0,0,0,0,0,0,0,0,0,0,0,67,68,69,70,0,0,0,0,0,0,0,0,0,0,0,0,0,0,0,0,0,75,73,77,78,0,0,0,0,0,0,0,0,0,0,0,0,0,0,0,0,0,0,0,0,0,0,0,
0,0,0,0,0,0,0,0,0,0,0,0,0,0,0,0,0,0,0,0,0,0,71,72,73,74,0,0,0,0,0,0,0,0,0,0,0,0,0,0,0,0,0,79,80,81,82,0,0,0,0,0,0,0,0,0,0,0,0,0,0,0,0,0,0,0,0,0,0,0,
0,0,0,0,0,0,0,0,0,0,0,0,0,0,0,0,0,0,0,0,0,0,79,80,81,82,0,0,0,0,0,0,0,0,0,0,0,0,0,0,0,0,0,0,0,0,0,0,0,0,0,0,0,0,0,0,0,0,0,0,0,0,0,0,0,0,0,0,0,0,
0,0,0,0,0,0,0,0,0,0,0,0,0,0,0,0,0,0,0,0,0,0,0,0,0,0,0,0,0,0,0,0,0,0,0,0,0,0,0,0,0,0,0,0,0,0,0,0,0,0,0,0,0,0,0,0,0,0,0,0,0,0,0,0,0,0,0,0,0,0,
0,0,0,0,0,0,0,0,0,0,0,0,0,0,0,0,0,0,0,0,0,0,0,0,0,0,0,0,0,0,0,0,0,0,0,0,0,0,0,0,0,0,0,0,0,0,0,0,0,0,0,0,0,0,0,0,0,0,0,0,0,0,0,0,0,0,0,0,0,0,
0,0,0,0,0,0,0,0,0,0,0,0,0,0,0,0,0,0,0,0,0,0,0,0,0,0,0,0,0,0,0,0,0,0,0,0,0,0,0,0,0,0,0,0,0,0,0,0,0,0,0,0,0,0,0,0,0,0,0,0,0,0,0,0,0,0,0,0,0,0,
0,0,0,0,0,0,0,0,0,0,0,0,0,0,0,0,0,0,0,0,0,0,0,0,0,0,0,0,0,0,0,0,0,0,0,0,0,0,0,0,0,0,0,0,0,0,0,0,0,0,0,0,0,0,0,0,0,0,0,0,0,0,0,0,0,0,0,0,0,0,
0,0,0,0,0,0,0,0,0,0,0,0,0,0,0,0,0,0,0,0,0,0,0,0,0,0,0,0,0,0,0,0,0,0,0,0,0,0,0,0,0,0,0,0,0,0,0,0,0,0,0,0,0,0,0,0,0,0,0,0,0,0,0,0,0,0,0,0,0,0
</data>
 </layer>
 <objectgroup id="7" name="Shadow">
  <object id="537" type="Tree_Shadow2" gid="84" x="519.333" y="3688" width="192" height="64"/>
  <object id="554" type="Tree_Shadow1" gid="83" x="2310.67" y="3397.33" width="192" height="64"/>
  <object id="555" type="Tree_Shadow1" gid="83" x="2597.33" y="3905.33" width="192" height="64"/>
  <object id="556" type="Tree_Shadow1" gid="83" x="2832" y="3416" width="192" height="64"/>
  <object id="564" type="Tree_Shadow2" gid="84" x="2536" y="4360" width="192" height="64"/>
  <object id="565" type="Tree_Shadow2" gid="84" x="2516" y="4529.33" width="192" height="64"/>
  <object id="566" type="Tree_Shadow2" gid="84" x="3060" y="4604" width="192" height="64"/>
  <object id="568" type="Tree_Shadow1" gid="83" x="3322.33" y="4383.33" width="192" height="64"/>
  <object id="569" type="Tree_Shadow1" gid="83" x="3482.67" y="4440" width="192" height="64"/>
  <object id="570" type="Tree_Shadow1" gid="83" x="3632" y="4538.66" width="192" height="64"/>
  <object id="572" type="Tree_Shadow1" gid="83" x="3772" y="4630.67" width="192" height="64"/>
  <object id="573" type="Tree_Shadow1" gid="83" x="2357.33" y="4089.33" width="192" height="64"/>
  <object id="574" type="Tree_Shadow1" gid="83" x="2422.67" y="4309.33" width="192" height="64"/>
  <object id="575" type="Tree_Shadow1" gid="83" x="2065" y="4267" width="192" height="64"/>
  <object id="577" type="Tree_Shadow1" gid="83" x="3532" y="3997" width="192" height="64"/>
  <object id="578" type="Tree_Shadow1" gid="83" x="1489.33" y="4494.67" width="192" height="64"/>
  <object id="579" type="Tree_Shadow2" gid="84" x="1600" y="3965.33" width="192" height="64"/>
  <object id="581" type="Tree_Shadow1" gid="83" x="781.333" y="1976" width="192" height="64"/>
  <object id="582" type="Tree_Shadow1" gid="83" x="537.333" y="1984" width="192" height="64"/>
  <object id="583" type="Tree_Shadow2" gid="84" x="392.5" y="1947" width="192" height="64"/>
  <object id="584" type="Tree_Shadow2" gid="84" x="281" y="1913" width="192" height="64"/>
  <object id="586" type="Tree_Shadow2" gid="84" x="195" y="2020.5" width="192" height="64"/>
  <object id="587" type="Tree_Shadow2" gid="84" x="87.5" y="2088" width="192" height="64"/>
  <object id="588" type="Tree_Shadow2" gid="84" x="-57.3333" y="2416" width="192" height="64"/>
  <object id="589" type="Tree_Shadow1" gid="83" x="553.333" y="2849.33" width="192" height="64"/>
  <object id="591" type="Tree_Shadow1" gid="83" x="1036" y="2801.33" width="192" height="64"/>
  <object id="592" type="Tree_Shadow1" gid="83" x="1174.67" y="3108" width="192" height="64"/>
  <object id="593" type="Tree_Shadow1" gid="83" x="555.333" y="3284.67" width="192" height="64"/>
  <object id="594" type="Tree_Shadow1" gid="83" x="492.667" y="3075.33" width="192" height="64"/>
  <object id="595" type="Tree_Shadow1" gid="83" x="1510.5" y="3167" width="192" height="64"/>
  <object id="597" type="Tree_Shadow1" gid="83" x="1615.33" y="3282.67" width="192" height="64"/>
  <object id="598" type="Tree_Shadow1" gid="83" x="1771" y="3240.5" width="192" height="64"/>
  <object id="599" type="Tree_Shadow2" gid="84" x="2540.67" y="3108.67" width="192" height="64"/>
  <object id="600" type="Tree_Shadow2" gid="84" x="2380" y="3083.33" width="192" height="64"/>
  <object id="601" type="Tree_Shadow2" gid="84" x="2086" y="3123.67" width="192" height="64"/>
  <object id="602" type="Tree_Shadow1" gid="83" x="2214" y="3158.67" width="192" height="64"/>
  <object id="604" type="Tree_Shadow2" gid="84" x="2679.5" y="2847" width="192" height="64"/>
  <object id="605" type="Tree_Shadow2" gid="84" x="2513.5" y="2894.5" width="192" height="64"/>
  <object id="606" type="Tree_Shadow1" gid="83" x="2417.5" y="2835" width="192" height="64"/>
  <object id="607" type="Tree_Shadow2" gid="84" x="2525.5" y="2689" width="192" height="64"/>
  <object id="608" type="Tree_Shadow2" gid="84" x="2278.5" y="2673.5" width="192" height="64"/>
  <object id="609" type="Tree_Shadow1" gid="83" x="3380.33" y="4191.67" width="192" height="64"/>
  <object id="610" type="Tree_Shadow1" gid="83" x="4100.67" y="4158.33" width="192" height="64"/>
  <object id="611" type="Tree_Shadow1" gid="83" x="4259" y="4242" width="192" height="64"/>
  <object id="762" type="Tree_Shadow1" gid="83" x="1328.5" y="2903" width="192" height="64"/>
  <object id="765" type="Tree_Shadow2" gid="84" x="1509.58" y="2938.54" width="192" height="64"/>
  <object id="766" type="Tree_Shadow2" gid="84" x="1340.67" y="3115.67" width="192" height="64"/>
  <object id="767" type="Tree_Shadow2" gid="84" x="1977.5" y="3278.5" width="192" height="64"/>
  <object id="768" type="Tree_Shadow1" gid="83" x="1991.5" y="2955.5" width="192" height="64"/>
  <object id="769" type="Tree_Shadow1" gid="83" x="1816.5" y="2951" width="192" height="64"/>
  <object id="770" type="Tree_Shadow1" gid="83" x="1869" y="3198.5" width="192" height="64"/>
  <object id="778" type="Tree_Shadow1" gid="83" x="2258.33" y="2919" width="192" height="64"/>
  <object id="779" type="Tree_Shadow1" gid="83" x="2105.33" y="2784" width="192" height="64"/>
  <object id="780" type="Tree_Shadow1" gid="83" x="1228.67" y="2752.67" width="192" height="64"/>
  <object id="781" type="Tree_Shadow1" gid="83" x="1401.33" y="2767.33" width="192" height="64"/>
  <object id="782" type="Tree_Shadow1" gid="83" x="1665.33" y="2924.67" width="192" height="64"/>
  <object id="1179" type="Tree_Shadow1" gid="83" x="4040" y="2650.67" width="192" height="64"/>
  <object id="1180" type="Tree_Shadow1" gid="83" x="4343.33" y="2586.67" width="192" height="64"/>
  <object id="1182" type="Tree_Shadow1" gid="83" x="4111.33" y="2410.67" width="192" height="64"/>
  <object id="1183" type="Tree_Shadow1" gid="83" x="3980" y="2192.67" width="192" height="64"/>
  <object id="1184" type="Tree_Shadow1" gid="83" x="4142" y="2128.67" width="192" height="64"/>
  <object id="1185" type="Tree_Shadow1" gid="83" x="3284.67" y="2004.67" width="192" height="64"/>
  <object id="1186" type="Tree_Shadow1" gid="83" x="3548.67" y="2000.67" width="192" height="64"/>
  <object id="1187" type="Tree_Shadow1" gid="83" x="3909.33" y="2000.67" width="192" height="64"/>
  <object id="1188" type="Tree_Shadow1" gid="83" x="3457.33" y="1831.33" width="192" height="64"/>
  <object id="1189" type="Tree_Shadow1" gid="83" x="3716.67" y="1752" width="192" height="64"/>
  <object id="1190" type="Tree_Shadow1" gid="83" x="3388.67" y="1612.67" width="192" height="64"/>
  <object id="1191" type="Tree_Shadow1" gid="83" x="3647.33" y="1548.67" width="192" height="64"/>
  <object id="1192" type="Tree_Shadow1" gid="83" x="3910" y="1762" width="192" height="64"/>
  <object id="1194" type="Tree_Shadow1" gid="83" x="4183.33" y="1601.33" width="192" height="64"/>
  <object id="1195" type="Tree_Shadow1" gid="83" x="4312" y="1462.67" width="192" height="64"/>
  <object id="1196" type="Tree_Shadow1" gid="83" x="3118.67" y="1567.33" width="192" height="64"/>
  <object id="1197" type="Tree_Shadow1" gid="83" x="3268.67" y="1518" width="192" height="64"/>
  <object id="1198" type="Tree_Shadow1" gid="83" x="4124" y="1194" width="192" height="64"/>
  <object id="1199" type="Tree_Shadow1" gid="83" x="4230" y="1085.33" width="192" height="64"/>
  <object id="1200" type="Tree_Shadow1" gid="83" x="4348" y="2238.67" width="192" height="64"/>
  <object id="1201" type="Tree_Shadow1" gid="83" x="4326" y="1884.67" width="192" height="64"/>
  <object id="1203" type="Tree_Shadow1" gid="83" x="3914" y="1102.67" width="192" height="64"/>
  <object id="1204" type="Tree_Shadow1" gid="83" x="3902" y="933.333" width="192" height="64"/>
  <object id="1205" type="Tree_Shadow1" gid="83" x="4125.33" y="864" width="192" height="64"/>
  <object id="1206" type="Tree_Shadow1" gid="83" x="4329.33" y="771.333" width="192" height="64"/>
  <object id="1207" type="Tree_Shadow1" gid="83" x="3875.33" y="719.333" width="192" height="64"/>
  <object id="1208" type="Tree_Shadow1" gid="83" x="4133.33" y="470" width="192" height="64"/>
  <object id="1209" type="Tree_Shadow1" gid="83" x="4262.67" y="597.333" width="192" height="64"/>
  <object id="1210" type="Tree_Shadow1" gid="83" x="3916" y="515.333" width="192" height="64"/>
  <object id="1211" type="Tree_Shadow1" gid="83" x="4342" y="226.667" width="192" height="64"/>
  <object id="1212" type="Tree_Shadow1" gid="83" x="4072" y="198" width="192" height="64"/>
  <object id="1213" type="Tree_Shadow1" gid="83" x="3614" y="331.333" width="192" height="64"/>
  <object id="1214" type="Tree_Shadow1" gid="83" x="3196" y="314" width="192" height="64"/>
  <object id="1215" type="Tree_Shadow1" gid="83" x="2798" y="318" width="192" height="64"/>
  <object id="1216" type="Tree_Shadow1" gid="83" x="3644" y="156" width="192" height="64"/>
  <object id="1217" type="Tree_Shadow1" gid="83" x="2694.67" y="274" width="192" height="64"/>
  <object id="1218" type="Tree_Shadow1" gid="83" x="3075.33" y="244" width="192" height="64"/>
  <object id="1219" type="Tree_Shadow1" gid="83" x="2537.33" y="302.667" width="192" height="64"/>
  <object id="1220" type="Tree_Shadow1" gid="83" x="2370.67" y="250.667" width="192" height="64"/>
  <object id="1221" type="Tree_Shadow1" gid="83" x="2196.67" y="270.667" width="192" height="64"/>
  <object id="1222" type="Tree_Shadow1" gid="83" x="1961.33" y="622" width="192" height="64"/>
  <object id="1223" type="Tree_Shadow1" gid="83" x="1696.67" y="676.667" width="192" height="64"/>
  <object id="1224" type="Tree_Shadow1" gid="83" x="1717.33" y="338.667" width="192" height="64"/>
  <object id="1225" type="Tree_Shadow1" gid="83" x="2420" y="3248.67" width="192" height="64"/>
  <object id="1226" type="Tree_Shadow1" gid="83" x="2651.33" y="3256" width="192" height="64"/>
  <object id="1227" type="Tree_Shadow1" gid="83" x="3025.33" y="3263.33" width="192" height="64"/>
  <object id="1228" type="Tree_Shadow1" gid="83" x="3153.33" y="3442" width="192" height="64"/>
  <object id="1229" type="Tree_Shadow1" gid="83" x="3268.67" y="3524.67" width="192" height="64"/>
  <object id="1230" type="Tree_Shadow1" gid="83" x="3492.67" y="3734" width="192" height="64"/>
  <object id="1234" type="Tree_Shadow1" gid="83" x="3232" y="4220" width="192" height="64"/>
  <object id="1235" type="Tree_Shadow1" gid="83" x="3155.33" y="4487.33" width="192" height="64"/>
  <object id="1236" type="Tree_Shadow1" gid="83" x="3843.33" y="4418" width="192" height="64"/>
  <object id="1238" type="Tree_Shadow1" gid="83" x="4024" y="3600" width="192" height="64"/>
  <object id="1239" type="Tree_Shadow1" gid="83" x="3754" y="3451.33" width="192" height="64"/>
  <object id="1240" type="Tree_Shadow1" gid="83" x="4323.33" y="3474.67" width="192" height="64"/>
  <object id="1241" type="Tree_Shadow1" gid="83" x="4161.33" y="3721.33" width="192" height="64"/>
  <object id="1242" type="Tree_Shadow1" gid="83" x="4109.33" y="3882" width="192" height="64"/>
  <object id="1243" type="Tree_Shadow1" gid="83" x="4310" y="4015.33" width="192" height="64"/>
  <object id="1244" type="Tree_Shadow1" gid="83" x="4197.33" y="4329.33" width="192" height="64"/>
  <object id="1247" type="Tree_Shadow1" gid="83" x="2297" y="2006" width="192" height="64"/>
  <object id="1248" type="Tree_Shadow1" gid="83" x="2021" y="1938" width="192" height="64"/>
  <object id="1249" type="Tree_Shadow1" gid="83" x="2153" y="1818" width="192" height="64"/>
  <object id="1250" type="Tree_Shadow1" gid="83" x="2412" y="1835" width="192" height="64"/>
  <object id="1251" type="Tree_Shadow1" gid="83" x="2530" y="1938" width="192" height="64"/>
  <object id="1252" type="Tree_Shadow1" gid="83" x="2684" y="1711" width="192" height="64"/>
  <object id="1253" type="Tree_Shadow1" gid="83" x="2174" y="1567" width="192" height="64"/>
  <object id="1254" type="Tree_Shadow1" gid="83" x="1759" y="1802" width="192" height="64"/>
  <object id="1255" type="Tree_Shadow1" gid="83" x="1559" y="1720" width="192" height="64"/>
  <object id="1256" type="Tree_Shadow1" gid="83" x="1439.67" y="1832.33" width="192" height="64"/>
  <object id="1257" type="Tree_Shadow1" gid="83" x="1755" y="1634" width="192" height="64"/>
  <object id="1258" type="Tree_Shadow1" gid="83" x="1595" y="1513" width="192" height="64"/>
  <object id="1259" type="Tree_Shadow1" gid="83" x="1044" y="1931" width="192" height="64"/>
  <object id="1260" type="Tree_Shadow1" gid="83" x="1209" y="1875" width="192" height="64"/>
  <object id="1261" type="Tree_Shadow1" gid="83" x="1212" y="1568" width="192" height="64"/>
  <object id="1265" type="Tree_Shadow1" gid="83" x="1300" y="1363" width="192" height="64"/>
  <object id="1266" type="Tree_Shadow1" gid="83" x="1449" y="1272" width="192" height="64"/>
  <object id="1267" type="Tree_Shadow1" gid="83" x="1603" y="1332" width="192" height="64"/>
  <object id="1268" type="Tree_Shadow1" gid="83" x="1796" y="1337" width="192" height="64"/>
  <object id="1269" type="Tree_Shadow1" gid="83" x="27" y="1764" width="192" height="64"/>
  <object id="1270" type="Tree_Shadow1" gid="83" x="-76" y="1945" width="192" height="64"/>
  <object id="1271" type="Tree_Shadow1" gid="83" x="-40" y="2280" width="192" height="64"/>
  <object id="1274" type="Tree_Shadow1" gid="83" x="430" y="1622" width="192" height="64"/>
  <object id="1275" type="Tree_Shadow1" gid="83" x="1316" y="1176" width="192" height="64"/>
  <object id="1276" type="Tree_Shadow1" gid="83" x="1102" y="1041" width="192" height="64"/>
  <object id="1277" type="Tree_Shadow1" gid="83" x="980" y="890" width="192" height="64"/>
  <object id="1278" type="Tree_Shadow1" gid="83" x="824" y="923" width="192" height="64"/>
  <object id="1279" type="Tree_Shadow1" gid="83" x="1093" y="766" width="192" height="64"/>
  <object id="1280" type="Tree_Shadow1" gid="83" x="952" y="352" width="192" height="64"/>
  <object id="1281" type="Tree_Shadow1" gid="83" x="1101" y="506" width="192" height="64"/>
  <object id="1282" type="Tree_Shadow1" gid="83" x="755" y="620" width="192" height="64"/>
  <object id="1283" type="Tree_Shadow1" gid="83" x="1074" y="207" width="192" height="64"/>
  <object id="1284" type="Tree_Shadow1" gid="83" x="505" y="531" width="192" height="64"/>
  <object id="1285" type="Tree_Shadow1" gid="83" x="665" y="1025" width="192" height="64"/>
  <object id="1286" type="Tree_Shadow1" gid="83" x="753" y="1094" width="192" height="64"/>
  <object id="1287" type="Tree_Shadow1" gid="83" x="951" y="1352" width="192" height="64"/>
  <object id="1290" type="Tree_Shadow1" gid="83" x="1153" y="1291" width="192" height="64"/>
  <object id="1291" type="Tree_Shadow1" gid="83" x="1178" y="1758" width="192" height="64"/>
  <object id="1292" type="Tree_Shadow1" gid="83" x="447" y="2601" width="192" height="64"/>
  <object id="1293" type="Tree_Shadow1" gid="83" x="89" y="2602" width="192" height="64"/>
  <object id="1294" type="Tree_Shadow1" gid="83" x="323" y="2611" width="192" height="64"/>
  <object id="1295" type="Tree_Shadow1" gid="83" x="279" y="2942" width="192" height="64"/>
  <object id="1296" type="Tree_Shadow1" gid="83" x="336" y="3751" width="192" height="64"/>
  <object id="1297" type="Tree_Shadow1" gid="83" x="144" y="3804" width="192" height="64"/>
  <object id="1298" type="Tree_Shadow1" gid="83" x="400" y="3612" width="192" height="64"/>
  <object id="1299" type="Tree_Shadow1" gid="83" x="513" y="3523" width="192" height="64"/>
  <object id="1300" type="Tree_Shadow1" gid="83" x="85" y="4014" width="192" height="64"/>
  <object id="1301" type="Tree_Shadow1" gid="83" x="257" y="4328" width="192" height="64"/>
  <object id="1302" type="Tree_Shadow1" gid="83" x="87" y="4493" width="192" height="64"/>
  <object id="1303" type="Tree_Shadow1" gid="83" x="802" y="4612" width="192" height="64"/>
  <object id="1307" type="Tree_Shadow1" gid="83" x="977" y="4468.67" width="192" height="64"/>
  <object id="1308" type="Tree_Shadow1" gid="83" x="1121" y="4426" width="192" height="64"/>
  <object id="1309" type="Tree_Shadow1" gid="83" x="929" y="4665" width="192" height="64"/>
  <object id="1310" type="Tree_Shadow1" gid="83" x="1394" y="3550" width="192" height="64"/>
  <object id="1311" type="Tree_Shadow2" gid="84" x="3122.67" y="4211.33" width="192" height="64"/>
  <object id="1312" type="Tree_Shadow2" gid="84" x="3502.67" y="4234" width="192" height="64"/>
  <object id="1316" type="Tree_Shadow2" gid="84" x="4056.67" y="4374" width="192" height="64"/>
  <object id="1317" type="Tree_Shadow2" gid="84" x="3866.67" y="3578" width="192" height="64"/>
  <object id="1318" type="Tree_Shadow2" gid="84" x="4321.33" y="3622" width="192" height="64"/>
  <object id="1319" type="Tree_Shadow2" gid="84" x="2982.67" y="3611.33" width="192" height="64"/>
  <object id="1320" type="Tree_Shadow2" gid="84" x="1238" y="3726" width="192" height="64"/>
  <object id="1321" type="Tree_Shadow2" gid="84" x="3032" y="3398.67" width="192" height="64"/>
  <object id="1322" type="Tree_Shadow2" gid="84" x="1893.33" y="2764.67" width="192" height="64"/>
  <object id="1323" type="Tree_Shadow2" gid="84" x="4188.67" y="2652.67" width="192" height="64"/>
  <object id="1324" type="Tree_Shadow2" gid="84" x="4209.33" y="2330.67" width="192" height="64"/>
  <object id="1325" type="Tree_Shadow2" gid="84" x="4325.33" y="2368" width="192" height="64"/>
  <object id="1326" type="Tree_Shadow2" gid="84" x="4298" y="2036.67" width="192" height="64"/>
  <object id="1327" type="Tree_Shadow2" gid="84" x="3760.67" y="1960.67" width="192" height="64"/>
  <object id="1328" type="Tree_Shadow2" gid="84" x="4096.67" y="1775.33" width="192" height="64"/>
  <object id="1329" type="Tree_Shadow2" gid="84" x="3630" y="1893.33" width="192" height="64"/>
  <object id="1330" type="Tree_Shadow2" gid="84" x="3204" y="1897.33" width="192" height="64"/>
  <object id="1331" type="Tree_Shadow2" gid="84" x="3253.33" y="1694" width="192" height="64"/>
  <object id="1332" type="Tree_Shadow2" gid="84" x="3148.67" y="1764" width="192" height="64"/>
  <object id="1333" type="Tree_Shadow2" gid="84" x="3832" y="1218" width="192" height="64"/>
  <object id="1334" type="Tree_Shadow2" gid="84" x="4046.67" y="1008.67" width="192" height="64"/>
  <object id="1335" type="Tree_Shadow2" gid="84" x="4029.33" y="583.333" width="192" height="64"/>
  <object id="1336" type="Tree_Shadow2" gid="84" x="3779.33" y="371.333" width="192" height="64"/>
  <object id="1337" type="Tree_Shadow2" gid="84" x="3484.67" y="324" width="192" height="64"/>
  <object id="1338" type="Tree_Shadow2" gid="84" x="4072" y="361.333" width="192" height="64"/>
  <object id="1339" type="Tree_Shadow2" gid="84" x="3355.33" y="289.333" width="192" height="64"/>
  <object id="1340" type="Tree_Shadow2" gid="84" x="3067.33" y="331.333" width="192" height="64"/>
  <object id="1341" type="Tree_Shadow2" gid="84" x="2916" y="268.667" width="192" height="64"/>
  <object id="1342" type="Tree_Shadow2" gid="84" x="2283.33" y="326" width="192" height="64"/>
  <object id="1343" type="Tree_Shadow2" gid="84" x="2004.33" y="384.667" width="192" height="64"/>
  <object id="1344" type="Tree_Shadow2" gid="84" x="2065.33" y="276.667" width="192" height="64"/>
  <object id="1345" type="Tree_Shadow2" gid="84" x="1852" y="692.667" width="192" height="64"/>
  <object id="1346" type="Tree_Shadow2" gid="84" x="904.667" y="728" width="192" height="64"/>
  <object id="1347" type="Tree_Shadow2" gid="84" x="1796.67" y="1114" width="192" height="64"/>
  <object id="1348" type="Tree_Shadow2" gid="84" x="1908" y="1222" width="192" height="64"/>
  <object id="1349" type="Tree_Shadow2" gid="84" x="2666.67" y="1857.33" width="192" height="64"/>
  <object id="1350" type="Tree_Shadow2" gid="84" x="2356.67" y="1508.67" width="192" height="64"/>
  <object id="1351" type="Tree_Shadow2" gid="84" x="1662" y="1882.67" width="192" height="64"/>
  <object id="1352" type="Tree_Shadow2" gid="84" x="1245.33" y="1957.33" width="192" height="64"/>
  <object id="1353" type="Tree_Shadow2" gid="84" x="433.333" y="1786" width="192" height="64"/>
  <object id="1354" type="Tree_Shadow2" gid="84" x="562.667" y="2632.67" width="192" height="64"/>
  <object id="1355" type="Tree_Shadow2" gid="84" x="169.333" y="2634.67" width="192" height="64"/>
  <object id="1356" type="Tree_Shadow2" gid="84" x="402" y="3165.33" width="192" height="64"/>
  <object id="1357" type="Tree_Shadow2" gid="84" x="370" y="2968" width="192" height="64"/>
  <object id="1358" type="Tree_Shadow2" gid="84" x="384" y="3922" width="192" height="64"/>
  <object id="1359" type="Tree_Shadow2" gid="84" x="640" y="4427.33" width="192" height="64"/>
  <object id="1360" type="Tree_Shadow2" gid="84" x="577.333" y="4575.33" width="192" height="64"/>
  <object id="1361" type="Tree_Shadow2" gid="84" x="434.667" y="4490.67" width="192" height="64"/>
  <object id="1362" type="Tree_Shadow2" gid="84" x="244.667" y="4526.67" width="192" height="64"/>
  <object id="1365" type="Tree_Shadow2" gid="84" x="1912" y="4188.67" width="192" height="64"/>
  <object id="1366" type="Tree_Shadow2" gid="84" x="2195.33" y="4018.67" width="192" height="64"/>
  <object id="1367" type="Tree_Shadow2" gid="84" x="2153.33" y="4369.33" width="192" height="64"/>
  <object id="1368" type="Tree_Shadow1" gid="83" x="2007.33" y="4536" width="192" height="64"/>
  <object id="1369" type="Tree_Shadow1" gid="83" x="1620.67" y="4472.67" width="192" height="64"/>
  <object id="1370" type="Tree_Shadow1" gid="83" x="91" y="3365" width="192" height="64"/>
  <object id="1371" type="Tree_Shadow1" gid="83" x="148" y="3064" width="192" height="64"/>
  <object id="1372" type="Tree_Shadow2" gid="84" x="3792" y="253" width="192" height="64"/>
  <object id="1373" type="Tree_Shadow2" gid="84" x="1692" y="451" width="192" height="64"/>
  <object id="1374" type="Tree_Shadow2" gid="84" x="1690" y="187" width="192" height="64"/>
  <object id="1415" type="Tree_Shadow2" gid="84" x="1338.67" y="1776.67" width="192" height="64"/>
  <object id="1623" type="Tree_Shadow1" gid="83" x="1549" y="2664" width="192" height="64"/>
  <object id="1666" type="Tree_Shadow2" gid="84" x="592" y="1114" width="192" height="64"/>
  <object id="1667" type="Tree_Shadow2" gid="84" x="496" y="1270" width="192" height="64"/>
  <object id="1668" type="Tree_Shadow1" gid="83" x="803" y="1743" width="192" height="64"/>
  <object id="1669" type="Tree_Shadow1" gid="83" x="497.5" y="1524" width="192" height="64"/>
  <object id="1670" type="Tree_Shadow1" gid="1073741907" x="273.5" y="1556" width="192" height="64"/>
  <object id="1671" type="Tree_Shadow1" gid="83" x="319.5" y="1363" width="192" height="64"/>
  <object id="1672" type="Tree_Shadow1" gid="83" x="413" y="1138" width="192" height="64"/>
  <object id="1673" type="Tree_Shadow1" gid="83" x="320" y="945" width="192" height="64"/>
  <object id="1674" type="Tree_Shadow2" gid="84" x="826" y="1264" width="192" height="64"/>
  <object id="1675" type="Tree_Shadow2" gid="84" x="234" y="1077" width="192" height="64"/>
  <object id="1676" type="Tree_Shadow2" gid="84" x="582" y="852" width="192" height="64"/>
  <object id="1680" type="Tree_Shadow1" gid="83" x="1030" y="1819" width="192" height="64"/>
  <object id="1681" type="Tree_Shadow2" gid="84" x="832" y="1853" width="192" height="64"/>
  <object id="1778" type="Tree_Shadow1" gid="83" x="1065.33" y="1463.33" width="192" height="64"/>
  <object id="1861" type="Tree_Shadow1" gid="83" x="1401.33" y="2238.67" width="192" height="64"/>
  <object id="1862" type="Tree_Shadow1" gid="83" x="1738.67" y="2062.67" width="192" height="64"/>
  <object id="1863" type="Tree_Shadow1" gid="83" x="1272" y="2160" width="192" height="64"/>
  <object id="1864" type="Tree_Shadow1" gid="83" x="1086.67" y="2149.33" width="192" height="64"/>
  <object id="1865" type="Tree_Shadow2" gid="84" x="1165.33" y="2232" width="192" height="64"/>
  <object id="1866" type="Tree_Shadow2" gid="84" x="1944" y="2045.33" width="192" height="64"/>
  <object id="1867" type="Tree_Shadow2" gid="84" x="1396.67" y="2020.67" width="192" height="64"/>
  <object id="1890" type="Tree_Shadow1" gid="83" x="3553" y="2625.5" width="192" height="64"/>
  <object id="1891" type="Tree_Shadow1" gid="83" x="3601.5" y="2835.5" width="192" height="64"/>
  <object id="1892" type="Tree_Shadow1" gid="83" x="3761.5" y="2947.5" width="192" height="64"/>
  <object id="1893" type="Tree_Shadow1" gid="83" x="4006" y="2847" width="192" height="64"/>
  <object id="1894" type="Tree_Shadow1" gid="83" x="4305" y="2772" width="192" height="64"/>
  <object id="1895" type="Tree_Shadow1" gid="83" x="4090" y="2775" width="192" height="64"/>
  <object id="1896" type="Tree_Shadow1" gid="83" x="3886" y="2809" width="192" height="64"/>
  <object id="1897" type="Tree_Shadow1" gid="83" x="3735" y="2599" width="192" height="64"/>
  <object id="1898" type="Tree_Shadow2" gid="84" x="3805" y="2433" width="192" height="64"/>
  <object id="1899" type="Tree_Shadow2" gid="84" x="3782" y="2249" width="192" height="64"/>
  <object id="1900" type="Tree_Shadow2" gid="84" x="3533" y="2338" width="192" height="64"/>
  <object id="1901" type="Tree_Shadow1" gid="83" x="3481" y="2180" width="192" height="64"/>
  <object id="1902" type="Tree_Shadow1" gid="83" x="2841" y="2964" width="192" height="64"/>
  <object id="1903" type="Tree_Shadow1" gid="83" x="2856" y="2846" width="192" height="64"/>
  <object id="1904" type="Tree_Shadow2" gid="84" x="2948" y="3084" width="192" height="64"/>
  <object id="1905" type="Tree_Shadow2" gid="84" x="3159" y="3255" width="192" height="64"/>
  <object id="1906" type="Tree_Shadow2" gid="84" x="2822" y="2586" width="192" height="64"/>
  <object id="1907" type="Tree_Shadow2" gid="84" x="2640" y="2594" width="192" height="64"/>
  <object id="1908" type="Tree_Shadow2" gid="84" x="2527" y="2488" width="192" height="64"/>
  <object id="1909" type="Tree_Shadow2" gid="84" x="2898" y="2720" width="192" height="64"/>
  <object id="1943" type="Tree_Shadow2" gid="84" x="3926.5" y="2891.5" width="192" height="64"/>
  <object id="1944" type="Tree_Shadow2" gid="84" x="4149.5" y="2880.5" width="192" height="64"/>
  <object id="1945" type="Tree_Shadow2" gid="84" x="4411.5" y="2867" width="192" height="64"/>
  <object id="1946" type="Tree_Shadow1" gid="83" x="4270" y="2856.5" width="192" height="64"/>
  <object id="1951" type="Tree_Shadow1" gid="83" x="2063.33" y="4036.67" width="192" height="64"/>
  <object id="1952" type="Tree_Shadow1" gid="83" x="1913.67" y="4030.33" width="192" height="64"/>
  <object id="1953" type="Tree_Shadow1" gid="83" x="2390" y="4058.5" width="192" height="64"/>
  <object id="1954" type="Tree_Shadow1" gid="83" x="2354" y="4511.33" width="192" height="64"/>
  <object id="1955" type="Tree_Shadow1" gid="83" x="3115.33" y="4115.33" width="192" height="64"/>
 </objectgroup>
 <objectgroup id="3" name="Object">
  <object id="3" type="Tree3" gid="19" x="980" y="4594" width="192" height="256"/>
  <object id="4" type="Tree1" gid="18" x="3148" y="4648" width="192" height="256"/>
  <object id="7" type="Tree4" gid="20" x="3304" y="4640" width="192" height="256"/>
  <object id="11" type="Tree1" gid="18" x="3962" y="4645.33" width="192" height="256"/>
  <object id="13" type="Tree1" gid="18" x="4164" y="4472" width="192" height="256"/>
  <object id="14" type="Tree1" gid="18" x="4309" y="4214" width="192" height="256"/>
  <object id="15" type="Tree1" gid="18" x="4098" y="4138" width="192" height="256"/>
  <object id="19" type="Tree1" gid="18" x="4156" y="3700" width="192" height="256"/>
  <object id="20" type="Tree1" gid="18" x="4312" y="4001" width="192" height="256"/>
  <object id="28" type="Tree1" gid="18" x="1488" y="4480" width="192" height="256"/>
  <object id="31" type="Tree1" gid="18" x="812" y="4588" width="192" height="256"/>
  <object id="32" type="Tree1" gid="18" x="72" y="4288" width="192" height="256"/>
  <object id="33" type="Tree1" gid="18" x="512" y="4245.33" width="192" height="256"/>
  <object id="35" type="Tree1" gid="18" x="248" y="4040" width="192" height="256"/>
  <object id="36" type="Tree1" gid="18" x="92" y="3992" width="192" height="256"/>
  <object id="37" type="Tree1" gid="18" x="-4" y="3577.33" width="192" height="256"/>
  <object id="38" type="Tree1" gid="18" x="341.333" y="3737.33" width="192" height="256"/>
  <object id="40" type="Tree1" gid="18" x="270" y="3140" width="192" height="256"/>
  <object id="42" type="Tree1" gid="18" x="556" y="3266.67" width="192" height="256"/>
  <object id="43" type="Tree1" gid="18" x="280" y="2924" width="192" height="256"/>
  <object id="44" type="Tree1" gid="18" x="492" y="3056" width="192" height="256"/>
  <object id="45" type="Tree1" gid="18" x="273" y="2472" width="192" height="256"/>
  <object id="46" type="Tree1" gid="18" x="312" y="2600" width="192" height="256"/>
  <object id="47" type="Tree1" gid="18" x="-32" y="2264" width="192" height="256"/>
  <object id="48" type="Tree1" gid="18" x="450" y="2585.33" width="192" height="256"/>
  <object id="49" type="Tree1" gid="18" x="48" y="2008" width="192" height="256"/>
  <object id="50" type="Tree1" gid="18" x="-64" y="1924" width="192" height="256"/>
  <object id="51" type="Tree1" gid="18" x="28" y="1748" width="192" height="256"/>
  <object id="52" type="Tree1" gid="18" x="264" y="1760" width="192" height="256"/>
  <object id="53" type="Tree1" gid="18" x="264" y="1860" width="192" height="256"/>
  <object id="55" type="Tree1" gid="18" x="537.333" y="1965.33" width="192" height="256"/>
  <object id="59" type="Tree1" gid="18" x="1181" y="1746.33" width="192" height="256"/>
  <object id="61" type="Tree1" gid="18" x="1980" y="1768" width="192" height="256"/>
  <object id="62" type="Tree1" gid="18" x="2024" y="1912" width="192" height="256"/>
  <object id="63" type="Tree1" gid="18" x="1441.67" y="1811.33" width="192" height="256"/>
  <object id="64" type="Tree1" gid="18" x="2320" y="1728" width="192" height="256"/>
  <object id="65" type="Tree1" gid="18" x="2532" y="1920" width="192" height="256"/>
  <object id="70" type="Tree1" gid="18" x="3461.33" y="1815.33" width="192" height="256"/>
  <object id="71" type="Tree1" gid="18" x="3917" y="1989" width="192" height="256"/>
  <object id="72" type="Tree1" gid="18" x="3552" y="1984" width="192" height="256"/>
  <object id="73" type="Tree1" gid="18" x="3909" y="1745" width="192" height="256"/>
  <object id="74" type="Tree1" gid="18" x="4140" y="2116" width="192" height="256"/>
  <object id="75" type="Tree1" gid="18" x="4328" y="1868" width="192" height="256"/>
  <object id="77" type="Tree1" gid="18" x="4344" y="2224" width="192" height="256"/>
  <object id="78" type="Tree1" gid="18" x="4112" y="2396" width="192" height="256"/>
  <object id="79" type="Tree1" gid="18" x="4308.67" y="2521.67" width="192" height="256"/>
  <object id="80" type="Tree1" gid="18" x="4310" y="2746.67" width="192" height="256"/>
  <object id="81" type="Tree1" gid="18" x="4089" y="2757" width="192" height="256"/>
  <object id="83" type="Tree3" gid="19" x="4283" y="3820" width="192" height="256"/>
  <object id="84" type="Tree3" gid="19" x="4329" y="4371" width="192" height="256"/>
  <object id="87" type="Tree3" gid="19" x="3772" y="4444" width="192" height="256"/>
  <object id="89" type="Tree3" gid="19" x="4054" y="4355" width="192" height="256"/>
  <object id="91" type="Tree3" gid="19" x="4241" y="2627" width="192" height="256"/>
  <object id="92" type="Tree3" gid="19" x="4324" y="2356" width="192" height="256"/>
  <object id="93" type="Tree3" gid="19" x="4212" y="2308" width="192" height="256"/>
  <object id="94" type="Tree3" gid="19" x="4299" y="2013" width="192" height="256"/>
  <object id="95" type="Tree3" gid="19" x="3972" y="1900" width="192" height="256"/>
  <object id="96" type="Tree3" gid="19" x="3624" y="1868" width="192" height="256"/>
  <object id="97" type="Tree3" gid="19" x="3760" y="1936" width="192" height="256"/>
  <object id="99" type="Tree3" gid="19" x="3207.67" y="1877.67" width="192" height="256"/>
  <object id="103" type="Tree3" gid="19" x="2556" y="1732" width="192" height="256"/>
  <object id="104" type="Tree3" gid="19" x="2268" y="1884" width="192" height="256"/>
  <object id="105" type="Tree3" gid="19" x="2064" y="1808" width="192" height="256"/>
  <object id="106" type="Tree3" gid="19" x="1684" y="1760" width="192" height="256"/>
  <object id="107" type="Tree3" gid="19" x="1641.33" y="1860" width="192" height="256"/>
  <object id="108" type="Tree3" gid="19" x="1338" y="1754.33" width="192" height="256"/>
  <object id="110" type="Tree3" gid="19" x="631" y="1884" width="192" height="256"/>
  <object id="111" type="Tree3" gid="19" x="715.333" y="1757" width="192" height="256"/>
  <object id="112" type="Tree3" gid="19" x="440" y="1768" width="192" height="256"/>
  <object id="113" type="Tree3" gid="19" x="284" y="1892" width="192" height="256"/>
  <object id="114" type="Tree3" gid="19" x="84" y="2068" width="192" height="256"/>
  <object id="116" type="Tree4" gid="20" x="190" y="2000" width="192" height="256"/>
  <object id="118" type="Tree4" gid="20" x="-58.6667" y="2396" width="192" height="256"/>
  <object id="119" type="Tree4" gid="20" x="394" y="1926" width="192" height="256"/>
  <object id="121" type="Tree4" gid="20" x="560" y="2616" width="192" height="256"/>
  <object id="122" type="Tree4" gid="20" x="199" y="2343" width="192" height="256"/>
  <object id="123" type="Tree4" gid="20" x="376" y="2948" width="192" height="256"/>
  <object id="124" type="Tree4" gid="20" x="300" y="3288" width="192" height="256"/>
  <object id="127" type="Tree2" gid="17" x="552" y="2836" width="192" height="256"/>
  <object id="128" type="Tree3" gid="19" x="356" y="2684" width="192" height="256"/>
  <object id="130" type="Tree3" gid="19" x="184" y="3028" width="192" height="256"/>
  <object id="131" type="Tree3" gid="19" x="404" y="2836" width="192" height="256"/>
  <object id="133" type="Tree3" gid="19" x="404" y="3152" width="192" height="256"/>
  <object id="135" type="Tree3" gid="19" x="207.333" y="3413.33" width="192" height="256"/>
  <object id="136" type="Tree3" gid="19" x="350" y="3412" width="192" height="256"/>
  <object id="138" type="Tree3" gid="19" x="24" y="3808" width="192" height="256"/>
  <object id="140" type="Tree3" gid="19" x="-28" y="4100" width="192" height="256"/>
  <object id="141" type="Tree3" gid="19" x="260" y="4180" width="192" height="256"/>
  <object id="142" type="Tree3" gid="19" x="381.333" y="3898.67" width="192" height="256"/>
  <object id="143" type="Tree1" gid="18" x="96" y="4472" width="192" height="256"/>
  <object id="145" type="Tree2" gid="17" x="-64" y="4328" width="192" height="256"/>
  <object id="147" type="Tree2" gid="17" x="252" y="4304" width="192" height="256"/>
  <object id="148" type="Tree2" gid="17" x="150.667" y="3788" width="192" height="256"/>
  <object id="149" type="Tree2" gid="17" x="-72" y="4644" width="192" height="256"/>
  <object id="150" type="Tree3" gid="19" x="244" y="4504" width="192" height="256"/>
  <object id="152" type="Tree3" gid="19" x="432" y="4468" width="192" height="256"/>
  <object id="156" type="Tree3" gid="19" x="582.667" y="4558.67" width="192" height="256"/>
  <object id="157" type="Tree3" gid="19" x="1108" y="4528" width="192" height="256"/>
  <object id="161" type="Tree3" gid="19" x="1811.33" y="4334" width="192" height="256"/>
  <object id="162" type="Tree3" gid="19" x="1888.67" y="4493" width="192" height="256"/>
  <object id="166" type="Tree3" gid="19" x="2510.67" y="4506.67" width="192" height="256"/>
  <object id="169" type="Tree3" gid="19" x="3060" y="4584" width="192" height="256"/>
  <object id="170" type="Tree3" gid="19" x="3360" y="4552" width="192" height="256"/>
  <object id="173" type="Tree1" gid="18" x="2176" y="4568" width="192" height="256"/>
  <object id="176" type="Tree2" gid="17" x="3382" y="4172.67" width="192" height="256"/>
  <object id="177" type="Tree2" gid="17" x="3772" y="4612" width="192" height="256"/>
  <object id="178" type="Tree2" gid="17" x="3964" y="4504" width="192" height="256"/>
  <object id="179" type="Tree2" gid="17" x="3847" y="4398" width="192" height="256"/>
  <object id="180" type="Tree2" gid="17" x="4197" y="4279" width="192" height="256"/>
  <object id="181" type="Tree2" gid="17" x="4093" y="3870" width="192" height="256"/>
  <object id="183" type="Tree2" gid="17" x="4072" y="2578" width="192" height="256"/>
  <object id="186" type="Tree2" gid="17" x="3980" y="2176" width="192" height="256"/>
  <object id="187" type="Tree2" gid="17" x="4112" y="1984" width="192" height="256"/>
  <object id="195" type="Tree2" gid="17" x="2416" y="1816" width="192" height="256"/>
  <object id="196" type="Tree2" gid="17" x="2300" y="1980" width="192" height="256"/>
  <object id="198" type="Tree2" gid="17" x="2160" y="1796" width="192" height="256"/>
  <object id="201" type="Tree2" gid="17" x="1764" y="1780" width="192" height="256"/>
  <object id="202" type="Tree2" gid="17" x="1190" y="1851" width="192" height="256"/>
  <object id="204" type="Tree2" gid="17" x="1052" y="1909" width="192" height="256"/>
  <object id="206" type="Tree2" gid="17" x="777.667" y="1960.67" width="192" height="256"/>
  <object id="207" type="Tree2" gid="17" x="557" y="1767" width="192" height="256"/>
  <object id="209" type="Tree2" gid="17" x="132" y="1884" width="192" height="256"/>
  <object id="210" type="Tree2" gid="17" x="-8" y="2116" width="192" height="256"/>
  <object id="211" type="Tree1" gid="18" x="3155.33" y="4456" width="192" height="256"/>
  <object id="212" type="Tree1" gid="18" x="2358.66" y="4494.67" width="192" height="256"/>
  <object id="215" type="Tree1" gid="18" x="3230.66" y="4207.33" width="192" height="256"/>
  <object id="218" type="Tree2" gid="17" x="3128" y="4101.33" width="192" height="256"/>
  <object id="219" type="Tree2" gid="17" x="3317.66" y="4449.33" width="192" height="256"/>
  <object id="231" type="Tree1" gid="18" x="3314" y="4002" width="192" height="256"/>
  <object id="232" type="Tree1" gid="18" x="3457.33" y="4074" width="192" height="256"/>
  <object id="233" type="Tree1" gid="18" x="3625.33" y="4520" width="192" height="256"/>
  <object id="235" type="Tree1" gid="18" x="3152" y="3944" width="192" height="256"/>
  <object id="236" type="Tree1" gid="18" x="3532" y="3978" width="192" height="256"/>
  <object id="241" type="Tree1" gid="18" x="1976.67" y="4378.67" width="192" height="256"/>
  <object id="242" type="Tree1" gid="18" x="3172" y="3740" width="192" height="256"/>
  <object id="243" type="Tree1" gid="18" x="3378" y="3814" width="192" height="256"/>
  <object id="244" type="Tree1" gid="18" x="3496" y="3716" width="192" height="256"/>
  <object id="245" type="Tree1" gid="18" x="3272" y="3506" width="192" height="256"/>
  <object id="257" type="Tree3" gid="19" x="3300" y="4088" width="192" height="256"/>
  <object id="259" type="Tree3" gid="19" x="3162" y="3800" width="192" height="256"/>
  <object id="260" type="Tree3" gid="19" x="3346" y="3626" width="192" height="256"/>
  <object id="262" type="Tree3" gid="19" x="3450.67" y="4382.67" width="192" height="256"/>
  <object id="264" type="Tree3" gid="19" x="3571" y="3794" width="192" height="256"/>
  <object id="288" type="Tree1" gid="18" x="1757.82" y="4485.81" width="192" height="256"/>
  <object id="292" type="Tree1" gid="18" x="1216.72" y="4519.64" width="192" height="256"/>
  <object id="293" type="Tree1" gid="18" x="1816.48" y="4170.18" width="192" height="256"/>
  <object id="297" type="Tree1" gid="18" x="1110.06" y="4412.85" width="192" height="256"/>
  <object id="304" type="Tree1" gid="18" x="1508" y="3148" width="192" height="256"/>
  <object id="306" type="Tree1" gid="18" x="1871.17" y="3174.33" width="192" height="256"/>
  <object id="307" type="Tree1" gid="18" x="2213.33" y="3140" width="192" height="256"/>
  <object id="308" type="Tree3" gid="19" x="2085.33" y="3101.33" width="192" height="256"/>
  <object id="309" type="Tree3" gid="19" x="1709.33" y="3102.67" width="192" height="256"/>
  <object id="311" type="Tree4" gid="20" x="2380" y="3061.33" width="192" height="256"/>
  <object id="313" type="Tree2" gid="17" x="1989.33" y="2944" width="192" height="256"/>
  <object id="314" type="Tree2" gid="17" x="1672" y="2910.67" width="192" height="256"/>
  <object id="317" type="Tree1" gid="18" x="1813.33" y="2938.67" width="192" height="256"/>
  <object id="318" type="Tree1" gid="18" x="2104" y="2770.67" width="192" height="256"/>
  <object id="319" type="Tree1" gid="18" x="2257.33" y="2901.33" width="192" height="256"/>
  <object id="322" type="Tree3" gid="19" x="1890.67" y="2745.33" width="192" height="256"/>
  <object id="324" type="Tree3" gid="19" x="1509.33" y="2921.33" width="192" height="256"/>
  <object id="325" type="Tree3" gid="19" x="1620" y="2738.67" width="192" height="256"/>
  <object id="326" type="Tree3" gid="19" x="2541.67" y="3088.33" width="192" height="256"/>
  <object id="327" type="Tree3" gid="19" x="2511" y="2874" width="192" height="256"/>
  <object id="329" type="Tree4" gid="20" x="2685" y="2785.33" width="192" height="256"/>
  <object id="332" type="Tree2" gid="17" x="2413" y="2816" width="192" height="256"/>
  <object id="334" type="Tree3" gid="19" x="2274" y="2652" width="192" height="256"/>
  <object id="335" type="Tree3" gid="19" x="2529" y="2668" width="192" height="256"/>
  <object id="336" type="Tree3" gid="19" x="2050" y="2605" width="192" height="256"/>
  <object id="338" type="Tree3" gid="19" x="1339.85" y="3093.15" width="192" height="256"/>
  <object id="340" type="Tree1" gid="18" x="1322.18" y="2888.48" width="192" height="256"/>
  <object id="341" type="Tree2" gid="17" x="1134.3" y="2924.85" width="192" height="256"/>
  <object id="342" type="Tree2" gid="17" x="1414.06" y="2756.12" width="192" height="256"/>
  <object id="343" type="Tree2" gid="17" x="1549.45" y="2646.06" width="192" height="256"/>
  <object id="344" type="Tree2" gid="17" x="1234.3" y="2740" width="192" height="256"/>
  <object id="345" type="Tree2" gid="17" x="1743.39" y="2797.58" width="192" height="256"/>
  <object id="347" type="Tree1" gid="18" x="1175.36" y="3086.73" width="192" height="256"/>
  <object id="348" type="Tree1" gid="18" x="1033.33" y="2785.33" width="192" height="256"/>
  <object id="349" type="Tree1" gid="18" x="1310.67" y="2610.67" width="192" height="256"/>
  <object id="350" type="Tree1" gid="18" x="1664" y="2621.33" width="192" height="256"/>
  <object id="354" type="Tree2" gid="17" x="2004" y="4518" width="192" height="256"/>
  <object id="357" type="Tree2" gid="17" x="1615.33" y="4452.67" width="192" height="256"/>
  <object id="358" type="Tree2" gid="17" x="1362" y="4558.67" width="192" height="256"/>
  <object id="362" type="Tree4" gid="20" x="1743.67" y="4279.67" width="192" height="256"/>
  <object id="364" type="Tree1" gid="18" x="1920" y="4004" width="192" height="256"/>
  <object id="366" type="Tree2" gid="17" x="2388.5" y="4046.33" width="192" height="256"/>
  <object id="367" type="Tree4" gid="20" x="2216.83" y="4024.83" width="192" height="256"/>
  <object id="368" type="Tree3" gid="19" x="2237.33" y="4282.67" width="192" height="256"/>
  <object id="369" type="Tree3" gid="19" x="1909.33" y="4168" width="192" height="256"/>
  <object id="419" type="Tree1" gid="18" x="2308.33" y="4223.67" width="192" height="256"/>
  <object id="420" type="Tree1" gid="18" x="2279.67" y="4358.33" width="192" height="256"/>
  <object id="421" type="Tree1" gid="18" x="2423" y="4287" width="192" height="256"/>
  <object id="422" type="Tree1" gid="18" x="2068.83" y="4019.5" width="192" height="256"/>
  <object id="423" type="Tree3" gid="19" x="2263" y="4425" width="192" height="256"/>
  <object id="424" type="Tree3" gid="19" x="2153" y="4357.67" width="192" height="256"/>
  <object id="425" type="Tree3" gid="19" x="2242.34" y="4196.34" width="192" height="256"/>
  <object id="426" type="Tree3" gid="19" x="2539" y="4339" width="192" height="256"/>
  <object id="436" type="Tree1" gid="18" x="657" y="4357" width="192" height="256"/>
  <object id="437" type="Tree1" gid="18" x="775" y="4259" width="192" height="256"/>
  <object id="438" type="Tree1" gid="18" x="487" y="4091" width="192" height="256"/>
  <object id="439" type="Tree3" gid="19" x="639" y="4403.67" width="192" height="256"/>
  <object id="440" type="Tree3" gid="19" x="379.667" y="4323.67" width="192" height="256"/>
  <object id="441" type="Tree3" gid="19" x="625" y="4169" width="192" height="256"/>
  <object id="442" type="Tree3" gid="19" x="891" y="4323" width="192" height="256"/>
  <object id="451" type="Tree1" gid="18" x="158.333" y="3517" width="192" height="256"/>
  <object id="452" type="Tree1" gid="18" x="387" y="3603" width="192" height="256"/>
  <object id="453" type="Tree1" gid="18" x="505" y="3505" width="192" height="256"/>
  <object id="454" type="Tree1" gid="18" x="445" y="3353" width="192" height="256"/>
  <object id="455" type="Tree3" gid="19" x="135.667" y="3653.67" width="192" height="256"/>
  <object id="456" type="Tree3" gid="19" x="233.667" y="3871.67" width="192" height="256"/>
  <object id="457" type="Tree3" gid="19" x="521" y="3665" width="192" height="256"/>
  <object id="458" type="Tree3" gid="19" x="290.333" y="3562.33" width="192" height="256"/>
  <object id="459" type="Tree1" gid="18" x="3757" y="3429.67" width="192" height="256"/>
  <object id="461" type="Tree1" gid="18" x="4171" y="3496" width="192" height="256"/>
  <object id="462" type="Tree1" gid="18" x="3897" y="3307" width="192" height="256"/>
  <object id="464" type="Tree3" gid="19" x="3865.67" y="3555" width="192" height="256"/>
  <object id="465" type="Tree3" gid="19" x="4035" y="3385" width="192" height="256"/>
  <object id="466" type="Tree3" gid="19" x="4320" y="3601" width="192" height="256"/>
  <object id="478" type="Tree3" gid="19" x="1642.67" y="4312" width="192" height="256"/>
  <object id="485" type="Tree2" gid="17" x="982.667" y="4453.33" width="192" height="256"/>
  <object id="487" type="Tree2" gid="17" x="778.667" y="4441.33" width="192" height="256"/>
  <object id="488" type="Tree2" gid="17" x="517.333" y="4385.33" width="192" height="256"/>
  <object id="489" type="Tree2" gid="17" x="388" y="4174.67" width="192" height="256"/>
  <object id="491" type="Tree1" gid="18" x="-88" y="3142" width="192" height="256"/>
  <object id="492" type="Tree1" gid="18" x="220" y="3256.67" width="192" height="256"/>
  <object id="493" type="Tree1" gid="18" x="-56" y="2914" width="192" height="256"/>
  <object id="494" type="Tree1" gid="18" x="156" y="3046" width="192" height="256"/>
  <object id="496" type="Tree1" gid="18" x="98" y="2588" width="192" height="256"/>
  <object id="497" type="Tree1" gid="18" x="88" y="2422" width="192" height="256"/>
  <object id="498" type="Tree4" gid="20" x="171" y="2612" width="192" height="256"/>
  <object id="499" type="Tree4" gid="20" x="-124" y="2738" width="192" height="256"/>
  <object id="500" type="Tree4" gid="20" x="40" y="2938" width="192" height="256"/>
  <object id="501" type="Tree4" gid="20" x="-36" y="3278" width="192" height="256"/>
  <object id="502" type="Tree2" gid="17" x="216" y="2826" width="192" height="256"/>
  <object id="503" type="Tree3" gid="19" x="16" y="2674" width="192" height="256"/>
  <object id="504" type="Tree3" gid="19" x="-152" y="3018" width="192" height="256"/>
  <object id="505" type="Tree3" gid="19" x="68" y="2826" width="192" height="256"/>
  <object id="506" type="Tree3" gid="19" x="68" y="3142" width="192" height="256"/>
  <object id="507" type="Tree3" gid="19" x="-68" y="3390" width="192" height="256"/>
  <object id="508" type="Tree1" gid="18" x="95" y="3345" width="192" height="256"/>
  <object id="512" type="Tree3" gid="19" x="1245" y="1943" width="192" height="256"/>
  <object id="540" type="Tree2" gid="17" x="1618" y="3260" width="192" height="256"/>
  <object id="541" type="Tree2" gid="17" x="1772" y="3223.5" width="192" height="256"/>
  <object id="548" type="Tree1" gid="18" x="2593.33" y="3884" width="192" height="256"/>
  <object id="549" type="Tree1" gid="18" x="2308.33" y="3382.33" width="192" height="256"/>
  <object id="550" type="Tree1" gid="18" x="2833.33" y="3398.67" width="192" height="256"/>
  <object id="552" type="Tree3" gid="19" x="1976" y="3260" width="192" height="256"/>
  <object id="553" type="Tree3" gid="19" x="1602" y="3944" width="192" height="256"/>
  <object id="804" type="Tree2" gid="17" x="70.6667" y="1703.67" width="192" height="256"/>
  <object id="805" type="Tree1" gid="18" x="424.667" y="1604.33" width="192" height="256"/>
  <object id="806" type="Tree3" gid="19" x="-34" y="1621" width="192" height="256"/>
  <object id="807" type="Tree4" gid="20" x="236" y="1695" width="192" height="256"/>
  <object id="808" type="Tree1" gid="18" x="75.3333" y="1551.67" width="192" height="256"/>
  <object id="809" type="Tree3" gid="19" x="196.667" y="1411.67" width="192" height="256"/>
  <object id="810" type="Tree2" gid="17" x="275" y="1545" width="192" height="256"/>
  <object id="811" type="Tree1" gid="18" x="802.333" y="1730.33" width="192" height="256"/>
  <object id="813" type="Tree4" gid="20" x="603" y="1658" width="192" height="256"/>
  <object id="819" type="Tree4" gid="20" x="1104" y="1479.67" width="192" height="256"/>
  <object id="821" type="Tree3" gid="19" x="1154" y="1364.33" width="192" height="256"/>
  <object id="822" type="Tree1" gid="18" x="1565" y="1703.67" width="192" height="256"/>
  <object id="823" type="Tree3" gid="19" x="1109" y="1617.67" width="192" height="256"/>
  <object id="824" type="Tree1" gid="18" x="1218.33" y="1548.34" width="192" height="256"/>
  <object id="825" type="Tree3" gid="19" x="1429.33" y="1464" width="192" height="256"/>
  <object id="826" type="Tree1" gid="18" x="1752" y="1588" width="192" height="256"/>
  <object id="827" type="Tree3" gid="19" x="1316.33" y="1594" width="192" height="256"/>
  <object id="830" type="Tree2" gid="17" x="1961.67" y="1618.34" width="192" height="256"/>
  <object id="831" type="Tree1" gid="18" x="2185" y="1547" width="192" height="256"/>
  <object id="832" type="Tree3" gid="19" x="1857" y="1535.67" width="192" height="256"/>
  <object id="833" type="Tree4" gid="20" x="2127" y="1609.67" width="192" height="256"/>
  <object id="834" type="Tree1" gid="18" x="1966.33" y="1466.34" width="192" height="256"/>
  <object id="835" type="Tree3" gid="19" x="2126.33" y="1437" width="192" height="256"/>
  <object id="836" type="Tree1" gid="18" x="312.667" y="1341.33" width="192" height="256"/>
  <object id="837" type="Tree3" gid="19" x="443.333" y="1399.34" width="192" height="256"/>
  <object id="844" type="Tree2" gid="17" x="954.667" y="1334.67" width="192" height="256"/>
  <object id="847" type="Tree4" gid="20" x="1454" y="1590.67" width="192" height="256"/>
  <object id="850" type="Tree1" gid="18" x="1300.83" y="1344" width="192" height="256"/>
  <object id="851" type="Tree2" gid="17" x="1595.84" y="1496.67" width="192" height="256"/>
  <object id="852" type="Tree1" gid="18" x="1610.17" y="1332.66" width="192" height="256"/>
  <object id="854" type="Tree4" gid="20" x="1761.17" y="1406" width="192" height="256"/>
  <object id="859" type="Tree4" gid="20" x="840.667" y="459.333" width="192" height="256"/>
  <object id="860" type="Tree2" gid="17" x="673.333" y="1536" width="192" height="256"/>
  <object id="861" type="Tree2" gid="17" x="508.667" y="1507.33" width="192" height="256"/>
  <object id="862" type="Tree2" gid="17" x="1138.67" y="1240.67" width="192" height="256"/>
  <object id="863" type="Tree2" gid="2147483665" x="2526.33" y="1488" width="192" height="256"/>
  <object id="865" type="Tree4" gid="2147483668" x="2361" y="1479.33" width="192" height="256"/>
  <object id="866" type="Tree1" gid="2147483666" x="1084.34" y="197.337" width="192" height="256"/>
  <object id="867" type="Tree3" gid="2147483667" x="2325.67" y="1588.66" width="192" height="256"/>
  <object id="869" type="Tree4" gid="20" x="2470" y="1624" width="192" height="256"/>
  <object id="870" type="Tree1" gid="18" x="3121.04" y="1553.07" width="192" height="256"/>
  <object id="871" type="Tree1" gid="18" x="3386.7" y="1592.75" width="192" height="256"/>
  <object id="872" type="Tree3" gid="19" x="3488.03" y="1445.74" width="192" height="256"/>
  <object id="873" type="Tree2" gid="17" x="3715.37" y="1733.08" width="192" height="256"/>
  <object id="874" type="Tree1" gid="18" x="4127.37" y="844.739" width="192" height="256"/>
  <object id="877" type="Tree1" gid="18" x="3652.03" y="1530.08" width="192" height="256"/>
  <object id="878" type="Tree3" gid="19" x="3773.03" y="1559.74" width="192" height="256"/>
  <object id="879" type="Tree2" gid="17" x="3271.54" y="1489.41" width="192" height="256"/>
  <object id="880" type="Tree1" gid="18" x="4185.21" y="1583.74" width="192" height="256"/>
  <object id="882" type="Tree4" gid="20" x="3902.37" y="1546.41" width="192" height="256"/>
  <object id="883" type="Tree2" gid="2147483665" x="4308.03" y="1442.74" width="192" height="256"/>
  <object id="884" type="Tree1" gid="2147483666" x="4038.37" y="1474.4" width="192" height="256"/>
  <object id="885" type="Tree4" gid="2147483668" x="4048.37" y="1634.74" width="192" height="256"/>
  <object id="887" type="Tree3" gid="2147483667" x="4099.37" y="1756.4" width="192" height="256"/>
  <object id="888" type="Tree3" gid="2147483667" x="3885.03" y="1368.07" width="192" height="256"/>
  <object id="889" type="Tree4" gid="20" x="4256.37" y="1749.07" width="192" height="256"/>
  <object id="890" type="Tree4" gid="20" x="3148.67" y="1745.33" width="192" height="256"/>
  <object id="891" type="Tree1" gid="2147483666" x="4006" y="1270" width="192" height="256"/>
  <object id="892" type="Tree3" gid="2147483667" x="4287.33" y="1246" width="192" height="256"/>
  <object id="893" type="Tree2" gid="2147483665" x="4133.67" y="1181.33" width="192" height="256"/>
  <object id="894" type="Tree2" gid="17" x="3903" y="911.667" width="192" height="256"/>
  <object id="895" type="Tree1" gid="18" x="3880.33" y="699.333" width="192" height="256"/>
  <object id="896" type="Tree4" gid="2147483668" x="4019.66" y="747.33" width="192" height="256"/>
  <object id="897" type="Tree3" gid="2147483667" x="3838.5" y="1196.66" width="192" height="256"/>
  <object id="898" type="Tree3" gid="2147483667" x="4052.5" y="985.665" width="192" height="256"/>
  <object id="899" type="Tree1" gid="2147483666" x="3915.5" y="1086.67" width="192" height="256"/>
  <object id="900" type="Tree1" gid="2147483666" x="3914.17" y="502.342" width="192" height="256"/>
  <object id="902" type="Tree4" gid="2147483668" x="4226.67" y="310" width="192" height="256"/>
  <object id="903" type="Tree4" gid="2147483668" x="3935" y="301.333" width="192" height="256"/>
  <object id="904" type="Tree3" gid="2147483667" x="4032.67" y="565.333" width="192" height="256"/>
  <object id="905" type="Tree2" gid="17" x="4329" y="753.333" width="192" height="256"/>
  <object id="907" type="Tree1" gid="18" x="1450.88" y="1260.2" width="192" height="256"/>
  <object id="909" type="Tree1" gid="18" x="1797.91" y="1322.13" width="192" height="256"/>
  <object id="910" type="Tree3" gid="19" x="1796.58" y="1103.46" width="192" height="256"/>
  <object id="911" type="Tree2" gid="17" x="1636.58" y="1171.46" width="192" height="256"/>
  <object id="912" type="Tree2" gid="2147483665" x="1958.91" y="606.461" width="192" height="256"/>
  <object id="913" type="Tree1" gid="2147483666" x="939.583" y="585.794" width="192" height="256"/>
  <object id="914" type="Tree4" gid="20" x="1066.92" y="609.124" width="192" height="256"/>
  <object id="915" type="Tree3" gid="19" x="1906.75" y="1203.46" width="192" height="256"/>
  <object id="916" type="Tree3" gid="19" x="896.083" y="1068.46" width="192" height="256"/>
  <object id="917" type="Tree1" gid="18" x="1099.08" y="748.796" width="192" height="256"/>
  <object id="919" type="Tree4" gid="20" x="1754.25" y="561.461" width="192" height="256"/>
  <object id="921" type="Tree3" gid="19" x="905.583" y="711.461" width="192" height="256"/>
  <object id="922" type="Tree2" gid="2147483665" x="740.583" y="597.461" width="192" height="256"/>
  <object id="923" type="Tree2" gid="2147483665" x="989.25" y="874.127" width="192" height="256"/>
  <object id="924" type="Tree4" gid="20" x="2667" y="1836" width="192" height="256"/>
  <object id="926" type="Tree3" gid="2147483667" x="3261.67" y="1673.33" width="192" height="256"/>
  <object id="927" type="Tree1" gid="18" x="2679" y="1664" width="192" height="256"/>
  <object id="928" type="Tree4" gid="20" x="3529" y="1632" width="192" height="256"/>
  <object id="929" type="Tree4" gid="20" x="3772" y="1401" width="192" height="256"/>
  <object id="930" type="Tree3" gid="19" x="4357" y="1631.67" width="192" height="256"/>
  <object id="932" type="Tree2" gid="17" x="1883.67" y="359.667" width="192" height="256"/>
  <object id="934" type="Tree4" gid="20" x="3344" y="1832" width="192" height="256"/>
  <object id="935" type="Tree1" gid="18" x="3282.67" y="1990.67" width="192" height="256"/>
  <object id="940" type="Tree2" gid="17" x="758.085" y="1077.17" width="192" height="256"/>
  <object id="941" type="Tree3" gid="2147483667" x="1810.25" y="239.833" width="192" height="256"/>
  <object id="942" type="Tree1" gid="2147483666" x="1885.25" y="483.842" width="192" height="256"/>
  <object id="943" type="Tree4" gid="2147483668" x="943.082" y="178.834" width="192" height="256"/>
  <object id="944" type="Tree1" gid="18" x="4226.67" y="1066.67" width="192" height="256"/>
  <object id="945" type="Tree1" gid="18" x="4261" y="574.333" width="192" height="256"/>
  <object id="946" type="Tree3" gid="19" x="4161.33" y="673.667" width="192" height="256"/>
  <object id="947" type="Tree4" gid="20" x="4161.33" y="1352" width="192" height="256"/>
  <object id="948" type="Tree4" gid="20" x="4248.12" y="897.333" width="192" height="256"/>
  <object id="949" type="Tree4" gid="20" x="4352.24" y="1036" width="192" height="256"/>
  <object id="951" type="Tree3" gid="19" x="1472.67" y="1072.33" width="192" height="256"/>
  <object id="952" type="Tree3" gid="19" x="1952.33" y="175" width="192" height="256"/>
  <object id="954" type="Tree2" gid="17" x="4131.33" y="452" width="192" height="256"/>
  <object id="955" type="Tree2" gid="17" x="4055.33" y="177" width="192" height="256"/>
  <object id="956" type="Tree3" gid="19" x="3919" y="149.667" width="192" height="256"/>
  <object id="957" type="Tree3" gid="19" x="4067.67" y="321" width="192" height="256"/>
  <object id="958" type="Tree1" gid="18" x="4343.67" y="204.333" width="192" height="256"/>
  <object id="959" type="Tree3" gid="19" x="4199" y="153.667" width="192" height="256"/>
  <object id="960" type="Tree3" gid="19" x="4312" y="403" width="192" height="256"/>
  <object id="962" type="Tree1" gid="18" x="1314.76" y="1142.4" width="192" height="256"/>
  <object id="963" type="Tree1" gid="2147483666" x="961.227" y="1184.6" width="192" height="256"/>
  <object id="964" type="Tree3" gid="2147483667" x="1156.56" y="1118.93" width="192" height="256"/>
  <object id="965" type="Tree3" gid="2147483667" x="1109.53" y="340.193" width="192" height="256"/>
  <object id="966" type="Tree2" gid="2147483665" x="1100.19" y="1021.19" width="192" height="256"/>
  <object id="967" type="Tree2" gid="17" x="958.53" y="337.194" width="192" height="256"/>
  <object id="968" type="Tree1" gid="18" x="1704.19" y="655.861" width="192" height="256"/>
  <object id="969" type="Tree4" gid="2147483668" x="718.52" y="88.1917" width="192" height="256"/>
  <object id="970" type="Tree3" gid="2147483667" x="826.357" y="187.86" width="192" height="256"/>
  <object id="971" type="Tree3" gid="2147483667" x="1698.36" y="163.526" width="192" height="256"/>
  <object id="972" type="Tree1" gid="2147483666" x="1103.36" y="482.53" width="192" height="256"/>
  <object id="973" type="Tree4" gid="2147483668" x="1825.19" y="115.861" width="192" height="256"/>
  <object id="981" type="Tree1" gid="18" x="1720.19" y="319.242" width="192" height="256"/>
  <object id="983" type="Tree3" gid="2147483667" x="1701.11" y="438.4" width="192" height="256"/>
  <object id="1020" type="Tree1" gid="2147483666" x="3106.5" y="88.6667" width="192" height="256"/>
  <object id="1021" type="Tree1" gid="2147483666" x="3062.5" y="232.667" width="192" height="256"/>
  <object id="1022" type="Tree1" gid="2147483666" x="3644.83" y="131.997" width="192" height="256"/>
  <object id="1023" type="Tree1" gid="2147483666" x="2766.5" y="48.6667" width="192" height="256"/>
  <object id="1024" type="Tree1" gid="2147483666" x="2534.5" y="284.667" width="192" height="256"/>
  <object id="1025" type="Tree3" gid="2147483667" x="2438.5" y="111.667" width="192" height="256"/>
  <object id="1026" type="Tree3" gid="2147483667" x="2818.5" y="204.667" width="192" height="256"/>
  <object id="1027" type="Tree3" gid="2147483667" x="3022.5" y="128.667" width="192" height="256"/>
  <object id="1028" type="Tree3" gid="2147483667" x="3402.5" y="80.6667" width="192" height="256"/>
  <object id="1029" type="Tree3" gid="2147483667" x="3426.5" y="180.667" width="192" height="256"/>
  <object id="1030" type="Tree3" gid="2147483667" x="3748.5" y="74.9967" width="192" height="256"/>
  <object id="1031" type="Tree2" gid="2147483665" x="2670.5" y="136.667" width="192" height="256"/>
  <object id="1033" type="Tree2" gid="2147483665" x="2926.5" y="116.667" width="192" height="256"/>
  <object id="1034" type="Tree2" gid="2147483665" x="3322.5" y="100.667" width="192" height="256"/>
  <object id="1035" type="Tree4" gid="2147483668" x="2274.17" y="144.667" width="192" height="256"/>
  <object id="1036" type="Tree1" gid="2147483666" x="3517.5" y="170.667" width="192" height="256"/>
  <object id="1038" type="Tree3" gid="2147483667" x="2284.83" y="301.333" width="192" height="256"/>
  <object id="1042" type="Tree4" gid="2147483668" x="2065.17" y="252" width="192" height="256"/>
  <object id="1043" type="Tree4" gid="20" x="3350.67" y="265.333" width="192" height="256"/>
  <object id="1044" type="Tree3" gid="19" x="3776" y="348" width="192" height="256"/>
  <object id="1045" type="Tree4" gid="20" x="3790.67" y="201.333" width="192" height="256"/>
  <object id="1046" type="Tree2" gid="17" x="3620" y="308" width="192" height="256"/>
  <object id="1047" type="Tree1" gid="18" x="2202.67" y="252" width="192" height="256"/>
  <object id="1048" type="Tree1" gid="18" x="2090.67" y="105.333" width="192" height="256"/>
  <object id="1049" type="Tree2" gid="17" x="2378.67" y="232" width="192" height="256"/>
  <object id="1050" type="Tree3" gid="19" x="2533.33" y="190.667" width="192" height="256"/>
  <object id="1051" type="Tree3" gid="19" x="1851" y="667" width="192" height="256"/>
  <object id="1052" type="Tree1" gid="18" x="674.833" y="1013.33" width="192" height="256"/>
  <object id="1053" type="Tree3" gid="19" x="825.5" y="1245.33" width="192" height="256"/>
  <object id="1055" type="Tree4" gid="20" x="318.5" y="1222.33" width="192" height="256"/>
  <object id="1056" type="Tree4" gid="20" x="693.833" y="881.333" width="192" height="256"/>
  <object id="1057" type="Tree1" gid="18" x="825.833" y="905.333" width="192" height="256"/>
  <object id="1058" type="Tree3" gid="19" x="587.833" y="1093.66" width="192" height="256"/>
  <object id="1060" type="Tree1" gid="18" x="801.834" y="385.993" width="192" height="256"/>
  <object id="1061" type="Tree3" gid="19" x="653.833" y="419.67" width="192" height="256"/>
  <object id="1063" type="Tree1" gid="2147483666" x="2690.91" y="253.667" width="192" height="256"/>
  <object id="1064" type="Tree3" gid="2147483667" x="3072.91" y="305.667" width="192" height="256"/>
  <object id="1067" type="Tree3" gid="2147483667" x="3224.24" y="174.333" width="192" height="256"/>
  <object id="1068" type="Tree1" gid="18" x="3197.09" y="294" width="192" height="256"/>
  <object id="1069" type="Tree2" gid="17" x="2806.09" y="296" width="192" height="256"/>
  <object id="1070" type="Tree3" gid="19" x="2913.74" y="244.667" width="192" height="256"/>
  <object id="1071" type="Tree3" gid="19" x="3480" y="301" width="192" height="256"/>
  <object id="1072" type="Tree3" gid="19" x="2006" y="363" width="192" height="256"/>
  <object id="1073" type="Tree2" gid="17" x="1400" y="3532" width="192" height="256"/>
  <object id="1075" type="Tree4" gid="20" x="2984.33" y="3591" width="192" height="256"/>
  <object id="1076" type="Tree3" gid="19" x="1236" y="3706.67" width="192" height="256"/>
  <object id="1079" type="Tree2" gid="17" x="414.168" y="1121.74" width="192" height="256"/>
  <object id="1081" type="Tree3" gid="2147483667" x="492.107" y="1249.77" width="192" height="256"/>
  <object id="1082" type="Tree1" gid="18" x="471.25" y="967.239" width="192" height="256"/>
  <object id="1083" type="Tree3" gid="19" x="624.583" y="637.903" width="192" height="256"/>
  <object id="1085" type="Tree4" gid="20" x="502.25" y="740.573" width="192" height="256"/>
  <object id="1086" type="Tree1" gid="18" x="503.583" y="509.906" width="192" height="256"/>
  <object id="1088" type="Tree1" gid="18" x="547.583" y="138.566" width="192" height="256"/>
  <object id="1089" type="Tree3" gid="19" x="516.916" y="324.243" width="192" height="256"/>
  <object id="1090" type="Tree1" gid="18" x="66.295" y="1003.49" width="192" height="256"/>
  <object id="1091" type="Tree1" gid="18" x="1061.96" y="1441.16" width="192" height="256"/>
  <object id="1092" type="Tree3" gid="19" x="228.965" y="1056.16" width="192" height="256"/>
  <object id="1094" type="Tree3" gid="19" x="-23.365" y="579.168" width="192" height="256"/>
  <object id="1095" type="Tree1" gid="18" x="-39.995" y="1235.57" width="192" height="256"/>
  <object id="1096" type="Tree1" gid="18" x="-8.335" y="780.915" width="192" height="256"/>
  <object id="1097" type="Tree3" gid="19" x="92.995" y="633.905" width="192" height="256"/>
  <object id="1098" type="Tree2" gid="17" x="320.335" y="921.245" width="192" height="256"/>
  <object id="1099" type="Tree1" gid="18" x="256.995" y="718.245" width="192" height="256"/>
  <object id="1100" type="Tree3" gid="19" x="377.995" y="747.905" width="192" height="256"/>
  <object id="1101" type="Tree2" gid="17" x="30.505" y="1126.91" width="192" height="256"/>
  <object id="1102" type="Tree4" gid="20" x="-83.365" y="1377.83" width="192" height="256"/>
  <object id="1103" type="Tree3" gid="2147483667" x="587.635" y="832.495" width="192" height="256"/>
  <object id="1104" type="Tree4" gid="20" x="133.965" y="820.165" width="192" height="256"/>
  <object id="1105" type="Tree4" gid="20" x="376.965" y="589.165" width="192" height="256"/>
  <object id="1106" type="Tree4" gid="20" x="-51.035" y="1020.16" width="192" height="256"/>
  <object id="1107" type="Tree1" gid="18" x="679.635" y="1610.11" width="192" height="256"/>
  <object id="1134" type="Tree1" gid="18" x="76.15" y="1386.83" width="192" height="256"/>
  <object id="1135" type="Tree3" gid="19" x="248.82" y="503.498" width="192" height="256"/>
  <object id="1136" type="Tree3" gid="19" x="830.85" y="1856.58" width="192" height="256"/>
  <object id="1137" type="Tree2" gid="17" x="340.19" y="368.582" width="192" height="256"/>
  <object id="1138" type="Tree1" gid="18" x="1022.18" y="1800.92" width="192" height="256"/>
  <object id="1139" type="Tree3" gid="19" x="397.85" y="195.242" width="192" height="256"/>
  <object id="1140" type="Tree4" gid="20" x="143.82" y="1203.5" width="192" height="256"/>
  <object id="1141" type="Tree4" gid="20" x="396.82" y="36.5025" width="192" height="256"/>
  <object id="1142" type="Tree2" gid="17" x="680" y="281.333" width="192" height="256"/>
  <object id="1143" type="Tree3" gid="19" x="753.333" y="724" width="192" height="256"/>
  <object id="1144" type="Tree3" gid="19" x="3228" y="4407.33" width="192" height="256"/>
  <object id="1145" type="Tree4" gid="20" x="3502" y="4214.67" width="192" height="256"/>
  <object id="1146" type="Tree4" gid="20" x="3465.33" y="4483.33" width="192" height="256"/>
  <object id="1147" type="Tree3" gid="19" x="3119.33" y="4190.67" width="192" height="256"/>
  <object id="1148" type="Tree4" gid="20" x="4228.67" y="4052.67" width="192" height="256"/>
  <object id="1149" type="Tree3" gid="19" x="4115" y="3964" width="192" height="256"/>
  <object id="1150" type="Tree1" gid="18" x="4026" y="3582" width="192" height="256"/>
  <object id="1152" type="Tree4" gid="20" x="4195.67" y="4624.67" width="192" height="256"/>
  <object id="1154" type="Tree4" gid="20" x="4323" y="4512" width="192" height="256"/>
  <object id="1155" type="Tree4" gid="20" x="3928" y="3453" width="192" height="256"/>
  <object id="1156" type="Tree2" gid="17" x="4325" y="3429" width="192" height="256"/>
  <object id="1157" type="Tree4" gid="20" x="3407" y="3879" width="192" height="256"/>
  <object id="1158" type="Tree4" gid="20" x="3176.67" y="3585.33" width="192" height="256"/>
  <object id="1159" type="Tree3" gid="2147483667" x="2817" y="3198.57" width="192" height="256"/>
  <object id="1160" type="Tree1" gid="2147483666" x="2707.15" y="3105.72" width="192" height="256"/>
  <object id="1162" type="Tree2" gid="2147483665" x="2652.27" y="3241.36" width="192" height="256"/>
  <object id="1163" type="Tree2" gid="2147483665" x="2420.88" y="3234.3" width="192" height="256"/>
  <object id="1166" type="Tree1" gid="2147483666" x="2686.66" y="2936.91" width="192" height="256"/>
  <object id="1168" type="Tree1" gid="18" x="3024.33" y="3211" width="192" height="256"/>
  <object id="1169" type="Tree1" gid="18" x="3153" y="3423.33" width="192" height="256"/>
  <object id="1170" type="Tree4" gid="20" x="2942" y="3061" width="192" height="256"/>
  <object id="1171" type="Tree4" gid="20" x="3163" y="3228" width="192" height="256"/>
  <object id="1172" type="Tree4" gid="20" x="3029" y="3378" width="192" height="256"/>
  <object id="1174" type="Tree3" gid="19" x="-62.6667" y="2548.67" width="192" height="256"/>
  <object id="1175" type="Tree3" gid="19" x="-40" y="3695" width="192" height="256"/>
  <object id="1176" type="Tree4" gid="20" x="-57" y="3903" width="192" height="256"/>
  <object id="1387" type="Tree1" gid="18" x="1592" y="4614" width="192" height="256"/>
  <object id="1410" type="Tree3" gid="19" x="3508.5" y="4555.5" width="192" height="256"/>
  <object id="1814" type="Tree1" gid="2147483666" x="1732.58" y="2040.83" width="192" height="256"/>
  <object id="1815" type="Tree3" gid="2147483667" x="1941.91" y="2026.5" width="192" height="256"/>
  <object id="1816" type="Tree4" gid="2147483668" x="1472.25" y="1900.83" width="192" height="256"/>
  <object id="1817" type="Tree3" gid="2147483667" x="1585.58" y="2092.17" width="192" height="256"/>
  <object id="1818" type="Tree1" gid="18" x="1400.75" y="2008.17" width="192" height="256"/>
  <object id="1819" type="Tree2" gid="17" x="1576.75" y="1988.17" width="192" height="256"/>
  <object id="1820" type="Tree3" gid="19" x="1756.74" y="1941.5" width="192" height="256"/>
  <object id="1821" type="Tree1" gid="2147483666" x="1399.25" y="2219.5" width="192" height="256"/>
  <object id="1822" type="Tree3" gid="2147483667" x="1357.58" y="1908.83" width="192" height="256"/>
  <object id="1823" type="Tree4" gid="2147483668" x="1124.25" y="2018.5" width="192" height="256"/>
  <object id="1824" type="Tree3" gid="2147483667" x="1166.91" y="2212.17" width="192" height="256"/>
  <object id="1825" type="Tree1" gid="18" x="1088.75" y="2130.83" width="192" height="256"/>
  <object id="1826" type="Tree2" gid="17" x="1276.75" y="2138.83" width="192" height="256"/>
  <object id="1827" type="Tree3" gid="19" x="1466.08" y="2113.5" width="192" height="256"/>
  <object id="1828" type="Tree1" gid="2147483666" x="3928.07" y="2338.74" width="192" height="256"/>
  <object id="1829" type="Tree3" gid="2147483667" x="3759.07" y="2096.74" width="192" height="256"/>
  <object id="1830" type="Tree4" gid="2147483668" x="3657.74" y="2310.74" width="192" height="256"/>
  <object id="1831" type="Tree3" gid="2147483667" x="3536.4" y="2318.41" width="192" height="256"/>
  <object id="1832" type="Tree1" gid="18" x="3470.24" y="2164.08" width="192" height="256"/>
  <object id="1833" type="Tree2" gid="17" x="3657.24" y="2169.08" width="192" height="256"/>
  <object id="1834" type="Tree3" gid="19" x="3783.9" y="2225.74" width="192" height="256"/>
  <object id="1835" type="Tree1" gid="2147483666" x="3888.1" y="2635.02" width="192" height="256"/>
  <object id="1836" type="Tree3" gid="2147483667" x="3810.1" y="2414.02" width="192" height="256"/>
  <object id="1837" type="Tree4" gid="2147483668" x="3640.77" y="2474.02" width="192" height="256"/>
  <object id="1838" type="Tree3" gid="2147483667" x="3638.43" y="2651.68" width="192" height="256"/>
  <object id="1839" type="Tree1" gid="18" x="3556.27" y="2602.35" width="192" height="256"/>
  <object id="1840" type="Tree2" gid="17" x="3732.27" y="2582.35" width="192" height="256"/>
  <object id="1841" type="Tree3" gid="19" x="3929.93" y="2518.02" width="192" height="256"/>
  <object id="1844" type="Tree1" gid="2147483666" x="3763.71" y="2928.5" width="192" height="256"/>
  <object id="1845" type="Tree3" gid="2147483667" x="3458.71" y="2452.5" width="192" height="256"/>
  <object id="1846" type="Tree2" gid="2147483665" x="3893.71" y="2789.5" width="192" height="256"/>
  <object id="1847" type="Tree2" gid="17" x="3602.88" y="2812.83" width="192" height="256"/>
  <object id="1848" type="Tree3" gid="19" x="3753.54" y="2768.5" width="192" height="256"/>
  <object id="1849" type="Tree1" gid="2147483666" x="4008.12" y="2822.83" width="192" height="256"/>
  <object id="1850" type="Tree4" gid="2147483668" x="2824.43" y="2566.36" width="192" height="256"/>
  <object id="1851" type="Tree3" gid="2147483667" x="2639.09" y="2574.03" width="192" height="256"/>
  <object id="1852" type="Tree2" gid="17" x="2413.93" y="2630.7" width="192" height="256"/>
  <object id="1853" type="Tree3" gid="19" x="2526.59" y="2465.36" width="192" height="256"/>
  <object id="1854" type="Tree4" gid="2147483668" x="2900.46" y="2691.64" width="192" height="256"/>
  <object id="1855" type="Tree3" gid="2147483667" x="2917.12" y="2889.3" width="192" height="256"/>
  <object id="1856" type="Tree1" gid="18" x="2855.96" y="2822.97" width="192" height="256"/>
  <object id="1857" type="Tree2" gid="17" x="2841.96" y="2942.97" width="192" height="256"/>
  <object id="1858" type="Tree3" gid="2147483667" x="2737.4" y="2690.12" width="192" height="256"/>
  <object id="1859" type="Tree3" gid="2147483667" x="3310" y="3294" width="192" height="256"/>
  <object id="1934" type="Tree1" gid="18" x="4274.67" y="2838" width="192" height="256"/>
  <object id="1937" type="Tree4" gid="20" x="4408" y="2846" width="192" height="256"/>
  <object id="1938" type="Tree4" gid="20" x="4146" y="2859.5" width="192" height="256"/>
  <object id="1939" type="Tree4" gid="20" x="3924.5" y="2871" width="192" height="256"/>
 </objectgroup>
 <objectgroup id="10" name="Collision">
  <object id="663" x="1946" y="3064" width="9" height="2"/>
  <object id="1390" x="4224" y="3328" width="256" height="1152"/>
  <object id="1394" x="4157.5" y="4107.5" width="67.1667" height="32.5"/>
  <object id="1405" x="3224.67" y="4349.33" width="1000.33" height="129.334"/>
  <object id="1413" x="3200" y="3776" width="384" height="384"/>
  <object id="1417" x="3182" y="4161.33" width="64.3333" height="30.6667"/>
  <object id="1418" x="3296.33" y="4174.67" width="57.3333" height="18.6667"/>
  <object id="1419" x="3441.33" y="4159.67" width="70.6667" height="14.3333"/>
  <object id="1420" x="3567.67" y="4188" width="61" height="28.6667"/>
  <object id="1421" x="3136" y="3520" width="320" height="256"/>
  <object id="1422" x="3136" y="3776" width="64" height="228.333"/>
  <object id="1423" x="3584.67" y="3932" width="76.6667" height="33.3333"/>
  <object id="1424" x="3456" y="3584.83" width="231.5" height="190.667"/>
  <object id="1425" x="3456" y="3520" width="192" height="64"/>
  <object id="1428" x="4096" y="3264" width="128" height="320"/>
  <object id="1430" x="3931" y="3531.33" width="60" height="24.3333"/>
  <object id="1431" x="3820.33" y="3400.33" width="65.6667" height="28.6667"/>
  <object id="1432" x="4032" y="3200" width="64" height="320"/>
  <object id="1434" x="3968" y="3136" width="64" height="320"/>
  <object id="1435" x="4160" y="3841" width="64" height="27"/>
  <object id="1436" x="3072" y="3391.92" width="384.5" height="128.167"/>
  <object id="1442" x="3008" y="3072" width="64" height="384"/>
  <object id="1443" x="3072" y="3072.17" width="192" height="255.833"/>
  <object id="1448" x="2944" y="3071.5" width="64" height="320.5"/>
  <object id="1449" x="1728" y="3008" width="1216" height="320"/>
  <object id="1451" x="1408" y="3264" width="320" height="64"/>
  <object id="1452" x="1680.25" y="3229.25" width="48" height="31.25"/>
  <object id="1455" x="2368" y="4160" width="256" height="321.333"/>
  <object id="1457" x="1856" y="3776" width="576" height="190"/>
  <object id="1458" x="2432" y="3776" width="192" height="128"/>
  <object id="1459" x="2560" y="3904" width="249.5" height="100.667"/>
  <object id="1460" x="2951.66" y="3903.33" width="184.334" height="101.667"/>
  <object id="1461" x="2451.16" y="4016.34" width="66.3333" height="30.3333"/>
  <object id="1463" x="1728" y="4160" width="128" height="257.333"/>
  <object id="1464" x="1856" y="4159.5" width="512" height="127.167"/>
  <object id="1467" x="639.667" y="4352" width="1088.33" height="128.333"/>
  <object id="1471" x="1600" y="4288" width="128" height="64"/>
  <object id="1473" x="448" y="4160" width="576" height="192"/>
  <object id="1474" x="1024" y="4288.67" width="255.333" height="63.3333"/>
  <object id="1475" x="1152" y="4224" width="128" height="64"/>
  <object id="1476" x="448" y="4096" width="448" height="64"/>
  <object id="1477" x="448" y="4032" width="256" height="64"/>
  <object id="1479" x="448" y="3953" width="192" height="79"/>
  <object id="1480" x="256" y="3330" width="192" height="894"/>
  <object id="1482" x="450.667" y="3070.67" width="189.333" height="449.333"/>
  <object id="1483" x="447.75" y="3872" width="57.75" height="27"/>
  <object id="1484" x="585.818" y="3645.09" width="61.2727" height="20.5455"/>
  <object id="1486" x="639.333" y="3233.67" width="44" height="32.3333"/>
  <object id="1487" x="254.667" y="2880" width="321.333" height="192"/>
  <object id="1488" x="576.125" y="3022.13" width="48.875" height="35.5"/>
  <object id="1489" x="254.667" y="2368" width="257.333" height="512"/>
  <object id="1490" x="618" y="2805.75" width="64" height="31.75"/>
  <object id="1491" x="630" y="2586" width="54.75" height="23.75"/>
  <object id="1492" x="512.5" y="2556.5" width="65.75" height="29.5"/>
  <object id="1493" x="0" y="2304" width="448" height="64"/>
  <object id="1494" x="0" y="2240" width="320" height="64"/>
  <object id="1495" x="0" y="1664" width="130" height="576"/>
  <object id="1496" x="128" y="1600" width="825" height="256"/>
  <object id="1498" x="150.25" y="2042" width="60" height="26"/>
  <object id="1499" x="255.5" y="1984" width="60.5" height="16.25"/>
  <object id="1500" x="349.5" y="1867" width="61.25" height="26"/>
  <object id="1501" x="460.25" y="1897.5" width="59.75" height="28.25"/>
  <object id="1502" x="599.5" y="1933.75" width="66.25" height="31.5"/>
  <object id="1503" x="706.75" y="1856.25" width="50.75" height="29"/>
  <object id="1504" x="840" y="1928.25" width="66.75" height="31.75"/>
  <object id="1506" x="1088" y="1532" width="256" height="324"/>
  <object id="1513" x="1345.33" y="1536.67" width="1407.17" height="127.333"/>
  <object id="1517" x="2086" y="1885.5" width="66" height="29"/>
  <object id="1521" x="2059" y="1664" width="693" height="192"/>
  <object id="1522" x="2363" y="1947.67" width="66.3333" height="32"/>
  <object id="1523" x="2594.67" y="1887.33" width="66.3333" height="32.6667"/>
  <object id="1524" x="2751.33" y="1806.33" width="42" height="30.3333"/>
  <object id="1525" x="2752" y="1642.5" width="54" height="28"/>
  <object id="1526" x="1408" y="3008" width="320" height="64"/>
  <object id="1527" x="1239" y="3056" width="64" height="30.5"/>
  <object id="1528" x="1406" y="3071.5" width="59.5" height="21.75"/>
  <object id="1529" x="1569" y="3118" width="65" height="31"/>
  <object id="1531" x="1664" y="3072" width="64" height="128"/>
  <object id="1532" x="1600" y="3072" width="64" height="64"/>
  <object id="1533" x="1408.5" y="2752" width="1407.5" height="256"/>
  <object id="1534" x="1280" y="2624" width="640" height="128"/>
  <object id="1536" x="2594.83" y="2637.75" width="59.9167" height="30"/>
  <object id="1537" x="1280" y="2560" width="494" height="64"/>
  <object id="1542" x="1096" y="2752.5" width="56" height="33.75"/>
  <object id="1544" x="2109.67" y="2588" width="58.6667" height="32"/>
  <object id="1545" x="2656.91" y="3853.82" width="63.8182" height="30.2727"/>
  <object id="1546" x="3050" y="3562.63" width="61.125" height="28.25"/>
  <object id="1547" x="2897.09" y="3368.55" width="64.1818" height="29.9091"/>
  <object id="1548" x="2372.36" y="3351.82" width="64.1818" height="30.1818"/>
  <object id="1549" x="1463.75" y="3502.5" width="64" height="29.5"/>
  <object id="1550" x="1301.5" y="3679" width="60.5" height="27.75"/>
  <object id="1551" x="1667.63" y="3916" width="60.25" height="28"/>
  <object id="1554" x="896" y="-0.166667" width="256" height="1150.84"/>
  <object id="1555" x="1152" y="1344" width="1502" height="192"/>
  <object id="1556" x="1152" y="1280" width="1088" height="64"/>
  <object id="1557" x="1152" y="1024" width="768" height="256"/>
  <object id="1558" x="1974" y="1176.36" width="59.6364" height="27.4545"/>
  <object id="1559" x="1216.33" y="896" width="54.3337" height="128"/>
  <object id="1560" x="1152" y="832" width="64" height="192"/>
  <object id="1562" x="1152" y="0" width="75.3333" height="748.333"/>
  <object id="1564" x="1792" y="1" width="320" height="575"/>
  <object id="1565" x="1766.55" y="625.455" width="65.6364" height="30.7273"/>
  <object id="1566" x="1916.91" y="639.273" width="60.1818" height="27.8182"/>
  <object id="1567" x="2022.73" y="576.545" width="64" height="30.1818"/>
  <object id="1570" x="2112" y="0" width="2368" height="256"/>
  <object id="1571" x="2350.5" y="273.375" width="60.75" height="28"/>
  <object id="1572" x="2598" y="255.875" width="64.75" height="28.75"/>
  <object id="1573" x="2869.88" y="265.75" width="64.5" height="30.625"/>
  <object id="1574" x="3138.75" y="277.625" width="60.25" height="27.75"/>
  <object id="1575" x="3260.73" y="262" width="64.5455" height="31.8182"/>
  <object id="1576" x="3416.55" y="255.818" width="61.0909" height="8.90909"/>
  <object id="1577" x="3545.45" y="272.545" width="58.9091" height="28.7273"/>
  <object id="1578" x="3683.82" y="277.636" width="64.7273" height="30.5455"/>
  <object id="1579" x="3841.45" y="320" width="60.5455" height="28"/>
  <object id="1580" x="3968" y="256" width="512" height="960"/>
  <object id="1582" x="3200" y="1366" width="1280" height="234"/>
  <object id="1583" x="3860.5" y="1216" width="619.5" height="152"/>
  <object id="1584" x="3264" y="1600" width="1216" height="192"/>
  <object id="1589" x="3346.75" y="1960" width="63.25" height="31.25"/>
  <object id="1590" x="3615.5" y="1953" width="64.25" height="31"/>
  <object id="1591" x="3702.5" y="1842.75" width="48" height="25"/>
  <object id="1592" x="3826" y="1907" width="59.25" height="28.25"/>
  <object id="1593" x="3524.55" y="1792.18" width="56.7273" height="23.2727"/>
  <object id="1594" x="3272.5" y="1847" width="63.5" height="29"/>
  <object id="1595" x="3184.91" y="1524.73" width="15.0909" height="28.1818"/>
  <object id="1596" x="3214.55" y="1716.91" width="49.2727" height="28.1818"/>
  <object id="1598" x="4160" y="2495" width="320" height="321"/>
  <object id="1600" x="4338.67" y="2816" width="64.6667" height="23.6667"/>
  <object id="1602" x="4043.67" y="2145" width="64" height="30.6667"/>
  <object id="1603" x="3980.67" y="1958.67" width="62" height="29.6667"/>
  <object id="1604" x="3968" y="1792" width="192" height="128"/>
  <object id="1605" x="1792" y="3840" width="64" height="163.333"/>
  <object id="1606" x="1728" y="3904" width="64" height="163.75"/>
  <object id="1607" x="1636.33" y="3968" width="91.6667" height="100"/>
  <object id="1608" x="1344.67" y="3967" width="91.3333" height="101"/>
  <object id="1609" x="1344" y="3904" width="64" height="64"/>
  <object id="1610" x="1280.33" y="3840" width="63.6667" height="161.333"/>
  <object id="1611" x="1216" y="3455.33" width="63.6667" height="483"/>
  <object id="1612" x="1280" y="3392" width="64" height="128"/>
  <object id="1613" x="1344" y="3328" width="64" height="128"/>
  <object id="1614" x="1408" y="3328" width="64" height="64"/>
  <object id="1615" x="2780" y="3904" width="29.3333" height="185"/>
  <object id="1616" x="2952" y="3903.67" width="29.6667" height="186.333"/>
  <object id="1618" x="3905" y="1165.67" width="62.6667" height="31.3333"/>
  <object id="1619" x="3942.63" y="669.5" width="31.25" height="24.875"/>
  <object id="1624" x="2346" y="2622" width="50.6667" height="32"/>
  <object id="1625" x="1958.67" y="2716" width="58.6667" height="32"/>
  <object id="1626" x="2164" y="2737.33" width="58.6667" height="32"/>
  <object id="1627" x="576" y="3712" width="64" height="64"/>
  <object id="1629" x="384" y="1920" width="64" height="64"/>
  <object id="1630" x="4032" y="3648" width="64" height="64"/>
  <object id="1631" x="1435.5" y="3966" width="29.5" height="188"/>
  <object id="1632" x="1606" y="3968.5" width="30.5" height="185.5"/>
  <object id="1635" x="2619.33" y="4312" width="47.3333" height="37.3333"/>
  <object id="1636" x="3071.25" y="3328" width="256.75" height="64"/>
  <object id="1637" x="4096" y="4288" width="128" height="64"/>
  <object id="1639" x="4352" y="2304" width="128" height="192"/>
  <object id="1640" x="4288" y="1984" width="192" height="320"/>
  <object id="1641" x="4160" y="1792" width="320" height="192"/>
  <object id="1642" x="4203" y="2085.5" width="66" height="29"/>
  <object id="1643" x="4176" y="2365.5" width="65" height="29"/>
  <object id="1652" x="512" y="1536" width="384" height="64"/>
  <object id="1653" x="512" y="1472" width="320" height="64"/>
  <object id="1654" x="448" y="1408" width="320" height="64"/>
  <object id="1655" x="384" y="1344" width="320" height="64"/>
  <object id="1656" x="384" y="960" width="192" height="384"/>
  <object id="1659" x="512" y="832" width="384" height="128"/>
  <object id="1660" x="568" y="1220.33" width="50.3333" height="29.3333"/>
  <object id="1661" x="653.667" y="1065" width="60.6667" height="28.6667"/>
  <object id="1662" x="821.333" y="1046" width="60.6667" height="30"/>
  <object id="1664" x="891" y="1216.67" width="61.6667" height="28.6667"/>
  <object id="1665" x="1016.67" y="1306.33" width="67.6667" height="28.6667"/>
  <object id="1679" x="1344" y="3136" width="64" height="64"/>
  <object id="1682" x="731" y="978" width="67.3333" height="36"/>
  <object id="1683" x="128" y="1856" width="64" height="128"/>
  <object id="1684" x="1196.33" y="2894.67" width="65" height="28"/>
  <object id="1685" x="1856" y="3968" width="64" height="193.5"/>
  <object id="1687" x="2095" y="334.333" width="36.6667" height="28"/>
  <object id="1689" x="1385.5" y="2859" width="46.5" height="29"/>
  <object id="1691" name="Warp" type="SceneHome" x="2624.68" y="4449.18" width="599.833" height="16.9167">
   <properties>
    <property name="X" type="float" value="1984"/>
    <property name="Y" type="float" value="128"/>
   </properties>
  </object>
  <object id="1692" x="2625" y="4466.5" width="599.5" height="13.5"/>
  <object id="1693" name="Warp" type="SceneFlowerHills" x="1226.08" y="17.5417" width="566.5" height="16.9167">
   <properties>
    <property name="X" type="float" value="0"/>
    <property name="Y" type="float" value="0"/>
   </properties>
  </object>
  <object id="1694" x="1228" y="0" width="563.333" height="16.6667"/>
  <object id="1706" x="4416" y="3200" width="64" height="128"/>
  <object id="1707" x="4352" y="3264" width="64" height="64"/>
  <object id="1708" x="4453.46" y="2816.17" width="24.6667" height="383.667"/>
  <object id="1709" name="Warp" type="SceneUnderWaterfall" x="4437.87" y="2816.17" width="13.8485" height="383.333">
   <properties>
    <property name="X" type="float" value="128"/>
    <property name="Y" type="float" value="672"/>
   </properties>
  </object>
  <object id="1870" x="1354" y="1664" width="694" height="176"/>
  <object id="1872" x="1152" y="1856" width="512" height="128"/>
  <object id="1873" x="1149.33" y="2078.67" width="61.3333" height="57.3333"/>
  <object id="1874" x="1328" y="2096" width="80" height="48"/>
  <object id="1876" x="1227" y="2183" width="69" height="34"/>
  <object id="1877" x="1462" y="2188" width="68.5" height="33"/>
  <object id="1878" x="1648.5" y="2064" width="65" height="32.5"/>
  <object id="1879" x="1796.5" y="2007.5" width="63.5" height="33"/>
  <object id="1880" x="1664" y="1856" width="448" height="64"/>
  <object id="1881" x="3584" y="1792" width="384" height="960"/>
  <object id="1882" x="3968" y="1920" width="192" height="832"/>
  <object id="1883" x="4160" y="1984" width="128" height="512"/>
  <object id="1884" x="4288" y="2304" width="64" height="192"/>
  <object id="1885" x="3533.33" y="2128.67" width="58" height="36"/>
  <object id="1886" x="3522.67" y="2416.67" width="54.6667" height="36"/>
  <object id="1887" x="3614.67" y="2564.67" width="73.3333" height="41.3333"/>
  <object id="1888" x="3660" y="2772" width="70.6667" height="40.6667"/>
  <object id="1889" x="3828.67" y="2884" width="64.6667" height="44"/>
  <object id="1911" x="3072" y="384" width="576" height="128"/>
  <object id="1914" x="3136" y="512" width="640" height="64"/>
  <object id="1915" x="3648" y="448" width="64" height="64"/>
  <object id="1916" x="3200" y="576" width="640" height="64"/>
  <object id="1917" x="3264" y="640" width="576" height="64"/>
  <object id="1918" x="3392" y="704" width="448" height="64"/>
  <object id="1919" x="3456" y="768" width="384" height="64"/>
  <object id="1921" x="3520" y="832" width="320" height="64"/>
  <object id="1923" x="3648" y="896" width="192" height="64"/>
  <object id="1925" x="1920" y="2624" width="896" height="128"/>
  <object id="1926" x="2816" y="2688" width="128" height="320"/>
  <object id="1927" x="2944" y="2752" width="128" height="320"/>
  <object id="1928" x="2600" y="2429" width="53" height="34"/>
  <object id="1929" x="2705" y="2541" width="62" height="35"/>
  <object id="1931" x="2877" y="2534" width="70" height="34"/>
  <object id="1933" x="2964" y="2673" width="57" height="32"/>
  <object id="1940" x="3990" y="2843" width="59" height="27"/>
  <object id="1941" x="4068" y="2794.5" width="69.5" height="29"/>
  <object id="1942" x="4210.5" y="2831" width="62.5" height="29"/>
  <object id="1949" x="2130.33" y="3985.67" width="66.6667" height="34.6667"/>
  <object id="1950" x="1973" y="4138" width="63.3333" height="32.3333"/>
 </objectgroup>
 <objectgroup id="12" name="SpawnPoint">
  <object id="1622" name="Range" type="Light" x="2035.33" y="3491.33">
   <point/>
  </object>
  <object id="1678" name="Chest" x="736" y="1184">
   <point/>
  </object>
  <object id="1686" name="Chest" x="2144" y="4064">
   <point/>
  </object>
  <object id="1699" name="Range" type="Dark" x="2012" y="3642">
   <point/>
  </object>
  <object id="1700" name="Melee" type="Light" x="2358.67" y="3554">
   <point/>
  </object>
  <object id="1701" name="Slime" type="Light" x="2490.34" y="3496.67">
   <point/>
  </object>
  <object id="1702" name="Slime" type="Light" x="2485.34" y="3656">
   <point/>
  </object>
  <object id="1696" name="Player" x="2912" y="4401">
   <point/>
  </object>
  <object id="1711" name="Slime" type="Light" x="832" y="3200">
   <point/>
  </object>
  <object id="1715" name="Slime" type="Light" x="1002.67" y="4053.33">
   <point/>
  </object>
  <object id="1717" name="Range" type="Dark" x="1027.33" y="2977.33">
   <point/>
  </object>
  <object id="1712" name="Slime" type="Dark" x="1164" y="3181.33">
   <point/>
  </object>
  <object id="1713" name="Slime" type="Dark" x="968" y="3333.33">
   <point/>
  </object>
  <object id="1714" name="Melee" type="Light" x="960" y="3136">
   <point/>
  </object>
  <object id="1718" name="Melee" type="Light" x="2752.67" y="2168.67">
   <point/>
  </object>
  <object id="1719" name="Melee" type="Light" x="2850.67" y="2072">
   <point/>
  </object>
  <object id="1720" name="Melee" type="Light" x="3170.67" y="2071">
   <point/>
  </object>
  <object id="1721" name="Melee" type="Light" x="3268.67" y="2168">
   <point/>
  </object>
  <object id="1722" name="Melee" type="Dark" x="3023.67" y="2002">
   <point/>
  </object>
  <object id="1723" name="Slime" type="Dark" x="2942.67" y="2176">
   <point/>
  </object>
  <object id="1724" name="Slime" type="Dark" x="3006.67" y="2083">
   <point/>
  </object>
  <object id="1725" name="Slime" type="Dark" x="3105.67" y="2170">
   <point/>
  </object>
  <object id="1726" name="Range" type="Dark" x="2890.67" y="1933">
   <point/>
  </object>
  <object id="1727" name="Range" type="Dark" x="3015.67" y="1871">
   <point/>
  </object>
  <object id="1728" name="Range" type="Dark" x="3151.67" y="1936">
   <point/>
  </object>
  <object id="1729" name="Range" type="Dark" x="2560" y="876">
   <point/>
  </object>
  <object id="1730" name="Range" type="Dark" x="2720" y="756">
   <point/>
  </object>
  <object id="1731" name="Range" type="Dark" x="2872" y="618">
   <point/>
  </object>
  <object id="1742" name="Melee" type="Dark" x="3286" y="871.333">
   <point/>
  </object>
  <object id="1743" name="Melee" type="Dark" x="3006" y="668.667">
   <point/>
  </object>
  <object id="1744" name="Melee" type="Dark" x="2866" y="1038">
   <point/>
  </object>
  <object id="1745" name="Melee" type="Dark" x="3075.33" y="1050">
   <point/>
  </object>
  <object id="1750" name="Melee" type="Light" x="3134" y="814">
   <point/>
  </object>
  <object id="1752" name="Slime" type="Dark" x="3416" y="1236">
   <point/>
  </object>
  <object id="1753" name="Slime" type="Dark" x="2374" y="542">
   <point/>
  </object>
  <object id="1754" name="Slime" type="Dark" x="2724.67" y="1250">
   <point/>
  </object>
  <object id="1758" name="Slime" type="Dark" x="3344" y="1010">
   <point/>
  </object>
  <object id="1759" name="Slime" type="Dark" x="2168" y="846">
   <point/>
  </object>
  <object id="1760" name="Slime" type="Dark" x="3207.33" y="1279.33">
   <point/>
  </object>
  <object id="1762" name="Slime" type="Light" x="2852" y="414">
   <point/>
  </object>
  <object id="1763" name="Slime" type="Light" x="2692" y="400">
   <point/>
  </object>
  <object id="1764" name="Slime" type="Light" x="2610" y="516">
   <point/>
  </object>
  <object id="1766" name="Slime" type="Light" x="2948.67" y="502">
   <point/>
  </object>
  <object id="1767" name="Slime" type="Light" x="2326" y="924">
   <point/>
  </object>
  <object id="1768" name="Slime" type="Light" x="2426" y="712">
   <point/>
  </object>
  <object id="1769" name="Slime" type="Light" x="3572" y="1106">
   <point/>
  </object>
  <object id="1770" name="Slime" type="Light" x="2504" y="1128">
   <point/>
  </object>
  <object id="1771" name="Range" type="Dark" x="864" y="2993.33">
   <point/>
  </object>
  <object id="1773" name="Chest" x="268" y="2067">
   <point/>
  </object>
  <object id="1774" name="Slime" type="Light" x="514" y="2060">
   <point/>
  </object>
  <object id="1775" name="Slime" type="Light" x="556" y="2162">
   <point/>
  </object>
  <object id="1776" name="Slime" type="Light" x="461" y="2228">
   <point/>
  </object>
  <object id="1777" name="Range" type="Dark" x="409" y="2101">
   <point/>
  </object>
  <object id="1924" name="Chest" x="3792" y="398.667">
   <point/>
  </object>
 </objectgroup>
</map>
