<?xml version="1.0" encoding="UTF-8"?>
<map version="1.10" tiledversion="1.11.2" orientation="orthogonal" renderorder="right-down" width="50" height="50" tilewidth="64" tileheight="64" infinite="0" nextlayerid="11" nextobjectid="491">
 <tileset firstgid="1" source="Grass_Tileset_1.tsx"/>
 <tileset firstgid="9" source="Tree_1.tsx"/>
 <tileset firstgid="13" source="Path_1.tsx"/>
 <tileset firstgid="17" source="soil.tsx"/>
 <tileset firstgid="32" source="Nature_asset_1.tsx"/>
 <tileset firstgid="116" source="Water_tileset.tsx"/>
 <tileset firstgid="207" source="Bridge.tsx"/>
 <layer id="1" name="Floor" width="50" height="50">
  <data encoding="csv">
1,1,1,1,1,1,1,1,1,1,1,1,6,8,3,1,1,6,7,1,1,1,1,1,1,1,1,1,1,3,3,1,1,1,3,1,1,1,1,1,1,1,1,1,1,1,1,1,1,1,
1,1,1,1,1,1,8,8,8,1,1,1,1,8,3,6,7,8,7,2,2,1,3,1,1,1,1,3,3,3,1,1,1,1,1,3,3,1,1,1,1,1,1,1,1,1,1,8,1,1,
1,1,1,1,1,4,6,8,2,2,2,3,3,3,6,1,1,8,4,1,1,4,4,1,8,6,1,3,1,1,1,1,1,1,1,3,3,3,8,6,8,1,1,1,1,6,1,4,1,1,
1,1,1,1,3,7,4,7,1,1,2,4,7,1,1,1,1,1,1,1,1,2,1,1,7,1,3,3,1,1,1,1,1,1,3,3,1,3,3,6,4,8,8,8,1,6,1,2,3,1,
1,1,1,1,4,1,4,8,1,1,1,1,1,1,1,1,1,1,1,1,1,4,1,1,1,1,1,1,1,1,2,2,2,1,3,1,1,1,3,3,7,2,2,3,4,7,1,3,8,8,
1,1,1,1,1,1,1,1,1,8,1,1,1,1,1,1,1,1,1,1,6,3,1,1,4,7,1,1,1,2,2,2,2,1,1,1,1,4,3,4,8,3,1,1,7,1,1,4,1,2,
1,1,1,1,1,1,1,1,1,1,7,6,1,4,2,7,3,4,1,2,7,2,4,4,3,6,8,1,1,2,2,2,1,1,1,7,7,6,8,2,4,8,7,6,1,1,7,8,7,6,
1,6,1,2,1,4,6,1,1,8,3,7,8,7,4,2,7,8,1,6,7,8,1,8,1,1,1,1,1,2,2,2,1,1,1,1,7,7,1,2,7,8,4,8,3,1,3,1,4,8,
7,8,1,1,1,1,1,4,1,7,2,7,1,4,3,3,3,8,7,3,2,6,4,3,1,1,1,1,1,1,1,1,1,1,1,1,1,7,1,1,4,3,2,7,1,2,6,1,1,6,
1,3,7,1,7,4,6,8,2,7,2,7,6,1,1,3,3,1,1,3,8,1,1,1,1,2,2,2,2,2,2,1,1,1,1,1,1,1,6,6,8,1,1,1,1,4,7,1,3,4,
4,6,3,4,1,8,8,1,8,1,6,4,1,3,1,1,3,3,3,1,1,1,2,1,1,1,1,1,2,2,2,1,1,1,1,1,1,1,6,6,2,8,1,1,1,1,1,1,1,4,
1,7,2,8,7,1,7,1,3,4,1,1,3,3,2,2,2,1,3,3,1,1,4,1,1,1,3,1,2,1,1,1,1,1,1,1,1,3,1,1,7,1,4,2,1,1,6,2,2,2,
1,7,8,7,8,3,3,3,4,1,3,1,1,2,2,2,4,1,1,1,1,2,1,3,1,2,2,2,2,1,2,2,1,1,1,1,1,1,3,1,1,1,4,6,1,8,4,8,7,4,
1,1,3,3,3,3,3,3,1,1,1,1,1,2,2,1,1,1,1,1,1,2,1,2,2,2,1,2,2,1,1,1,1,1,1,1,2,1,3,3,1,1,1,6,4,2,8,7,7,1,
1,1,3,3,3,3,3,1,1,3,1,4,4,2,2,1,3,1,1,1,1,1,2,2,1,3,2,2,2,3,1,1,1,1,1,1,2,2,1,3,3,1,1,1,1,3,8,3,4,2,
1,1,3,3,3,3,3,1,1,1,1,2,1,2,1,1,1,1,1,1,3,2,2,2,2,2,2,3,1,1,1,1,1,1,1,1,1,2,2,1,3,1,4,6,7,3,6,6,1,6,
1,1,1,6,1,1,6,3,3,1,1,1,2,1,1,1,1,1,1,1,1,1,3,2,2,2,2,1,2,2,1,1,1,1,1,1,1,1,2,2,3,3,6,1,6,2,6,4,6,8,
1,1,1,4,1,1,7,1,4,3,1,1,2,1,1,1,3,1,1,1,1,1,1,1,1,1,1,1,2,2,1,1,1,1,1,1,1,1,1,2,1,3,2,8,3,8,1,2,8,1,
1,1,1,6,7,1,4,1,8,1,1,1,2,1,1,1,1,3,1,1,1,1,1,1,2,1,1,1,4,2,2,1,1,1,1,1,1,1,1,2,1,1,3,4,1,2,1,6,1,1,
1,1,1,3,6,8,8,1,1,1,3,1,1,1,1,1,1,1,1,1,1,1,1,1,1,1,2,1,1,1,2,2,2,1,1,1,1,1,1,2,1,1,1,8,1,4,1,3,4,4,
1,1,1,4,1,2,4,1,3,1,2,2,1,1,1,1,1,1,1,1,1,2,2,1,1,1,1,1,1,1,1,2,2,1,2,1,1,1,1,1,1,1,1,1,1,3,2,1,1,1,
1,1,1,6,1,1,7,3,3,1,1,1,1,1,1,2,1,1,1,1,1,1,1,1,1,1,1,1,3,4,1,2,1,1,2,1,2,1,1,1,1,1,1,1,1,1,3,3,2,1,
1,1,1,1,3,1,6,6,3,1,1,1,3,1,1,1,1,1,1,1,1,1,1,1,1,1,1,1,1,1,1,1,1,1,2,1,4,1,1,1,1,1,8,4,2,3,4,1,1,8,
1,1,1,1,1,1,2,4,2,4,2,2,1,1,1,1,1,1,1,1,1,1,1,1,1,1,1,1,1,1,3,4,1,1,2,2,1,1,1,1,6,8,8,2,2,1,1,1,1,1,
1,1,6,3,4,6,1,1,1,2,1,1,1,1,1,1,1,1,1,1,1,1,1,1,1,1,1,1,1,1,1,1,1,1,1,1,2,1,1,1,8,8,2,2,1,1,1,1,1,1,
1,4,8,3,4,7,7,4,1,1,3,1,1,1,1,1,1,1,1,1,1,1,1,1,1,1,1,1,1,1,1,1,1,1,1,1,1,3,1,1,1,6,2,7,7,6,4,2,1,1,
8,4,1,1,7,2,6,1,3,3,3,1,1,1,1,1,1,1,1,1,1,1,1,1,1,1,1,1,2,1,1,1,1,1,2,1,1,1,1,4,2,1,3,6,4,6,8,4,1,1,
3,1,2,6,2,2,6,1,1,2,2,1,2,1,1,1,1,1,1,1,1,1,1,1,1,1,1,1,1,1,3,1,1,1,1,1,1,1,1,1,4,4,1,6,8,8,1,6,7,1,
3,6,8,1,1,7,2,1,3,1,2,1,1,1,1,1,1,1,1,1,1,1,1,1,1,1,1,1,1,1,2,1,1,1,2,1,1,1,1,1,3,1,1,1,1,6,7,8,1,1,
1,7,8,2,4,7,3,1,3,3,1,1,1,1,1,1,1,1,1,1,1,1,1,1,1,1,1,1,1,1,1,1,1,4,3,1,1,1,1,2,2,1,1,1,1,6,1,6,6,1,
7,7,8,1,6,4,3,1,1,1,3,2,1,1,1,1,1,1,1,1,1,1,1,1,1,1,1,1,1,1,1,1,1,4,1,1,1,1,1,3,1,1,1,1,2,2,7,2,1,1,
3,4,4,6,2,2,1,3,3,1,3,4,1,2,2,1,1,3,2,2,1,1,1,1,1,1,1,1,1,1,1,2,4,3,1,1,1,1,4,1,1,1,1,1,1,1,1,1,1,1,
7,8,8,7,6,2,3,3,1,1,1,1,1,2,1,1,1,1,3,1,1,4,2,4,1,3,1,1,1,1,3,3,1,1,1,1,1,1,1,1,1,1,1,1,1,1,1,8,1,1,
2,3,1,6,8,3,2,3,1,1,1,1,4,4,1,1,1,1,4,1,2,2,2,1,2,3,2,2,2,2,2,1,1,1,1,1,1,1,1,1,1,1,1,1,1,1,1,1,1,1,
1,1,1,3,3,6,8,2,2,1,1,1,1,1,1,1,1,1,1,2,2,2,2,2,2,2,2,2,1,1,2,1,1,1,1,1,3,1,1,1,1,1,1,6,2,8,4,2,1,1,
1,1,1,1,1,1,1,2,2,1,1,1,1,1,1,2,2,2,2,2,2,1,1,1,1,1,1,1,1,1,1,1,1,1,1,1,1,1,1,3,1,1,1,8,4,6,7,2,1,1,
1,1,1,1,1,1,1,1,1,1,1,1,1,1,1,2,2,2,1,1,1,1,1,4,2,1,1,1,1,1,1,2,2,3,1,1,1,1,1,1,1,1,3,2,6,1,6,6,6,1,
4,1,1,1,1,1,1,1,1,1,1,1,1,1,1,1,1,1,1,1,1,1,1,1,1,2,3,4,2,1,1,1,1,1,1,1,1,1,3,3,2,2,3,8,6,3,8,2,6,1,
4,4,4,1,1,1,1,1,1,1,1,1,2,1,1,1,2,2,1,1,1,1,1,1,1,1,4,1,1,1,1,1,1,1,1,1,1,1,3,1,1,2,7,3,3,6,7,7,4,7,
4,4,4,1,1,1,1,1,2,2,2,1,1,2,1,1,1,1,1,1,1,1,1,1,1,1,1,1,2,1,1,1,1,1,1,1,1,1,1,1,1,2,2,2,2,8,6,6,6,1,
6,1,1,1,1,2,3,3,6,2,2,2,2,1,1,1,1,1,1,1,1,2,2,1,1,1,1,1,1,1,1,1,4,1,1,1,1,1,3,1,1,1,2,2,3,3,3,2,6,1,
6,1,4,2,8,4,3,3,3,2,3,2,2,2,2,2,2,2,1,1,1,1,1,1,1,1,2,2,1,1,1,3,3,3,3,3,2,2,2,1,1,1,3,3,3,2,6,2,3,1,
3,6,2,6,1,2,1,3,3,3,3,8,2,2,2,2,3,1,1,1,1,2,2,4,3,2,1,7,7,1,3,3,1,1,1,1,1,1,1,1,1,1,1,3,3,2,8,2,1,7,
2,8,8,1,3,1,1,3,3,3,3,3,6,2,3,3,2,2,3,2,7,4,6,4,4,8,8,3,7,3,1,6,1,4,4,8,1,1,1,1,1,1,1,3,7,2,7,1,1,8,
8,3,1,4,3,3,3,3,3,3,3,3,3,3,1,2,2,1,8,6,2,6,8,1,3,4,6,2,3,2,3,2,7,4,2,8,1,1,1,1,1,1,1,1,1,1,1,1,1,1,
4,3,6,7,7,3,3,3,5,7,3,3,3,3,3,3,1,6,2,1,7,2,2,7,6,4,4,8,4,3,2,7,1,8,1,1,1,1,1,1,1,1,1,3,1,1,1,1,1,1,
1,3,3,7,3,3,3,3,5,6,3,3,3,3,3,3,4,4,1,1,1,5,6,2,2,2,8,5,8,8,3,8,1,8,8,6,2,1,3,1,1,1,1,3,1,1,1,1,1,1,
6,8,4,1,3,3,3,3,3,5,6,7,8,8,5,3,3,2,3,5,5,5,5,5,5,5,5,5,6,1,6,3,7,1,7,3,1,1,1,1,1,2,2,3,1,1,1,1,1,1,
1,6,2,8,7,1,4,1,1,3,3,8,6,1,1,2,6,4,1,6,8,3,2,3,3,1,1,1,1,1,8,3,1,1,1,8,2,1,2,1,2,2,2,1,1,1,1,1,1,1,
3,4,3,2,3,3,8,4,6,1,4,6,1,1,1,1,1,1,8,2,1,1,7,2,1,1,1,1,1,1,1,1,1,1,1,4,8,8,8,3,2,2,2,1,1,1,1,1,1,1
</data>
 </layer>
 <layer id="5" name="path" width="50" height="50">
  <data encoding="csv">
0,0,0,0,0,0,0,0,0,0,0,0,0,0,0,0,0,0,0,0,0,0,0,0,0,0,0,0,0,0,14,0,0,0,15,0,0,0,0,0,0,0,0,0,0,0,0,0,0,0,
0,0,0,0,0,0,0,0,0,0,0,0,0,0,0,0,0,0,0,0,0,0,0,0,0,0,0,0,0,0,0,0,13,0,0,0,0,0,0,0,0,0,0,0,0,0,0,0,0,0,
0,0,0,0,0,0,0,0,0,0,0,0,0,0,0,0,0,0,0,0,0,0,0,0,0,0,0,0,0,0,0,0,0,0,0,0,0,0,0,0,0,0,0,0,0,0,0,0,0,0,
0,0,0,0,0,0,0,0,0,0,0,0,0,0,0,0,0,0,0,0,0,0,0,0,0,0,0,0,0,0,13,0,0,0,0,0,0,0,0,0,0,0,0,0,0,0,0,0,0,0,
0,0,0,0,0,0,0,0,0,0,0,0,0,0,0,0,0,0,0,0,0,0,0,0,0,0,0,0,0,0,0,0,16,0,0,0,0,0,0,0,0,0,0,0,0,0,0,0,0,0,
0,0,0,0,0,0,0,0,0,0,0,0,0,0,0,0,0,0,0,0,0,0,0,0,0,0,0,0,0,0,13,0,0,0,0,0,0,0,0,0,0,0,0,0,0,0,0,0,0,0,
0,0,0,0,0,0,0,0,0,0,0,0,0,0,0,0,0,0,0,0,0,0,0,0,0,0,0,0,0,0,0,0,0,13,0,0,0,0,0,0,0,0,0,0,0,0,0,0,0,0,
0,0,0,0,0,0,0,0,0,0,0,0,0,0,0,0,0,0,0,0,0,0,0,0,0,0,0,0,0,0,0,0,0,0,0,0,0,0,0,0,0,0,0,0,0,0,0,0,0,0,
0,0,0,0,0,0,0,0,0,0,0,0,0,0,0,0,0,0,0,0,0,0,0,0,0,0,0,0,0,0,13,0,0,13,0,0,0,0,0,0,0,0,0,0,0,0,0,0,0,0,
0,0,0,0,0,0,0,0,0,0,0,0,0,0,0,0,0,0,0,0,0,0,0,0,0,0,0,0,0,0,0,0,0,0,0,0,0,0,0,0,0,0,0,0,0,0,0,0,0,0,
0,0,0,0,0,0,0,0,0,0,0,0,0,0,0,0,0,0,0,0,0,0,0,0,0,0,0,0,0,0,0,13,0,0,0,0,0,0,0,0,0,0,0,0,0,0,0,0,0,0,
0,0,0,0,0,0,0,0,0,0,0,0,0,0,0,0,0,0,0,0,0,0,0,0,0,0,0,0,0,0,0,0,0,0,0,0,0,0,0,0,0,0,0,0,0,0,0,0,0,0,
0,0,0,0,0,0,0,0,0,0,0,0,0,0,0,0,0,0,0,0,0,0,0,0,0,0,0,0,0,0,0,13,0,0,15,0,0,0,0,0,0,0,0,0,0,0,0,0,0,0,
0,0,0,0,0,0,0,0,0,0,0,0,0,0,0,0,0,0,0,0,0,0,0,0,0,0,0,0,0,0,0,0,0,0,0,0,0,0,0,0,0,0,0,0,0,0,0,0,0,0,
0,0,0,0,0,0,0,0,0,0,0,0,0,0,0,0,0,0,0,0,0,0,0,0,0,0,0,0,0,0,0,0,0,0,13,0,0,0,0,0,0,0,0,0,0,0,0,0,0,0,
0,0,0,0,0,0,0,0,0,0,0,0,0,0,0,0,0,0,0,0,0,0,0,0,0,0,0,0,0,0,0,0,0,0,0,0,0,0,0,0,0,0,0,0,0,0,0,0,0,0,
0,0,0,0,0,0,0,0,0,0,0,0,0,0,0,0,0,0,0,0,0,0,0,0,0,0,0,0,0,0,0,16,0,0,0,13,0,0,0,0,0,0,0,0,0,0,0,0,0,0,
0,0,0,0,0,0,0,0,0,0,0,0,0,0,0,0,0,0,0,0,0,0,0,0,0,0,0,0,0,0,0,0,0,0,0,0,0,0,0,0,0,0,0,0,0,0,0,0,0,0,
0,0,0,0,0,0,0,0,0,0,0,0,0,0,0,0,0,0,0,0,0,0,0,0,0,0,0,0,0,0,0,0,15,0,14,0,0,0,0,0,0,0,0,0,0,0,0,0,0,0,
0,0,0,0,0,0,0,0,0,0,0,0,0,0,0,0,0,0,0,0,0,0,0,0,0,0,0,0,0,0,0,0,0,0,0,0,0,0,0,0,0,0,0,0,0,0,0,0,0,0,
0,0,0,0,0,0,0,0,0,0,0,0,0,0,0,0,0,0,0,0,0,0,0,0,0,0,0,0,0,0,0,0,0,0,0,0,0,0,0,0,0,0,0,0,0,0,0,0,0,0,
0,0,0,0,0,0,0,0,0,0,0,0,0,0,0,0,0,0,0,0,0,0,0,0,0,0,0,0,0,0,0,0,0,13,0,13,0,0,0,0,0,0,0,0,0,0,0,0,0,0,
0,0,0,0,0,0,0,0,0,0,0,0,0,0,0,0,0,0,0,0,0,0,0,0,0,0,0,0,0,0,0,0,0,0,0,0,0,15,0,0,0,0,0,0,0,0,0,0,0,0,
0,0,0,0,0,0,0,0,0,0,0,0,0,0,0,0,0,0,0,0,0,0,0,0,0,0,0,0,0,0,0,0,0,0,0,13,0,0,0,0,0,0,0,0,0,0,0,0,0,0,
0,0,0,0,0,0,0,0,0,0,0,0,0,0,0,0,0,0,0,0,0,0,0,0,0,0,0,0,0,0,0,0,0,0,0,0,0,0,0,0,0,0,0,0,0,0,0,0,0,0,
0,0,0,0,0,0,0,0,0,0,0,0,0,0,0,0,0,0,0,0,0,0,0,0,0,0,0,0,0,0,0,0,0,0,0,0,0,13,0,0,0,0,0,0,0,0,0,0,0,0,
0,0,0,0,0,0,0,0,0,0,0,0,0,0,0,0,0,0,0,0,0,0,0,0,0,0,0,0,0,0,0,0,0,0,13,0,0,0,0,0,0,0,0,0,0,0,0,0,0,0,
0,0,0,0,0,0,0,0,0,0,0,0,0,0,0,0,0,0,0,0,0,0,0,0,0,0,0,0,0,0,0,0,0,0,0,0,0,0,0,0,0,0,0,0,0,0,0,0,0,0,
0,0,0,0,0,0,0,0,0,0,0,0,0,0,0,0,0,0,0,0,0,0,0,0,0,0,0,0,0,0,0,0,0,0,0,13,0,0,15,0,0,0,0,0,0,0,0,0,0,0,
0,0,0,0,0,0,0,0,0,0,0,0,0,0,0,0,0,0,0,0,0,0,0,0,0,0,0,0,0,0,0,0,0,0,0,0,0,0,0,0,0,0,0,0,0,0,0,0,0,0,
0,0,0,0,0,0,0,0,0,0,0,0,0,0,0,0,0,0,0,0,0,0,0,0,0,0,0,0,0,0,0,0,0,13,0,0,14,0,0,0,0,0,0,0,0,0,0,0,0,0,
0,0,0,0,0,0,0,0,0,0,0,0,0,0,0,0,0,0,0,0,0,0,0,0,0,0,0,0,0,0,0,0,0,0,0,0,0,0,0,0,0,0,0,0,15,0,0,0,14,0,
0,0,0,0,0,0,0,0,0,0,0,0,0,0,0,0,0,0,0,0,0,0,13,0,0,0,0,0,0,13,0,0,0,0,13,0,0,0,0,0,0,13,0,0,0,0,16,0,0,0,
0,0,0,0,0,0,0,0,0,0,0,0,0,0,0,0,16,0,15,0,0,0,0,0,15,0,0,13,0,0,0,0,0,0,0,0,0,0,0,13,0,0,0,13,0,0,0,0,0,0,
0,15,0,0,0,0,0,0,0,0,0,0,13,0,15,0,0,0,0,0,0,0,15,0,0,0,0,0,0,13,0,0,0,0,0,0,0,0,0,0,0,0,0,0,0,0,0,0,15,0,
0,0,0,0,0,0,0,0,0,13,0,0,0,0,0,0,13,0,0,15,0,0,0,0,0,0,15,0,0,0,0,13,0,0,0,0,0,0,0,0,0,0,0,0,0,0,0,0,0,0,
0,0,0,0,0,0,15,0,13,16,0,15,0,0,0,0,0,0,0,0,13,0,0,0,0,0,0,0,0,0,0,0,0,0,15,0,0,0,0,0,0,0,0,0,0,0,0,0,0,0,
0,0,0,0,15,0,0,0,0,0,0,0,0,0,0,0,0,0,0,0,0,0,0,0,0,0,0,0,0,0,0,0,15,0,0,0,0,14,0,0,0,0,0,0,0,0,0,0,0,0,
0,0,0,0,0,0,0,0,15,0,0,0,0,0,0,0,0,0,0,0,0,0,0,0,0,0,0,0,0,0,0,0,0,0,0,14,0,0,0,0,0,0,0,0,0,0,0,0,0,0,
0,0,0,0,0,0,0,0,0,0,0,0,0,0,0,0,0,0,0,0,0,0,0,0,0,0,0,0,0,0,0,0,0,0,0,0,0,0,15,0,0,0,0,0,0,0,0,0,0,0,
0,0,0,0,0,0,0,0,0,0,0,0,0,0,0,0,0,0,0,0,0,0,0,0,0,0,0,0,0,0,0,0,0,0,0,0,14,0,0,0,0,0,0,0,0,0,0,0,0,0,
0,0,0,0,0,0,0,0,0,0,0,0,0,0,0,0,0,0,0,0,0,0,0,0,0,0,0,0,0,0,0,0,0,0,0,0,0,0,0,0,0,0,0,0,0,0,0,0,0,0,
0,0,0,0,0,0,0,0,0,0,0,0,0,0,0,0,0,0,0,0,0,0,0,0,0,0,0,0,0,0,0,0,0,0,0,0,0,16,0,0,15,0,0,0,0,0,0,0,0,0,
0,0,0,0,0,0,0,0,0,0,0,0,0,0,0,0,0,0,0,0,0,0,0,0,0,0,0,0,0,0,0,0,0,0,0,0,0,0,0,0,0,0,0,0,0,0,0,0,0,0,
0,0,0,0,0,0,0,0,0,0,0,0,0,0,0,0,0,0,0,0,0,0,0,0,0,0,0,0,0,0,0,0,0,0,0,0,0,0,0,15,0,0,0,0,0,0,0,0,0,0,
0,0,0,0,0,0,0,0,0,0,0,0,0,0,0,0,0,0,0,0,0,0,0,0,0,0,0,0,0,0,0,0,0,0,0,0,0,0,0,0,13,0,0,0,0,0,0,0,0,0,
0,0,0,0,0,0,0,0,0,0,0,0,0,0,0,0,0,0,0,0,0,0,0,0,0,0,0,0,0,0,0,0,0,0,0,0,0,0,0,0,0,13,0,0,0,0,0,0,0,0,
0,0,0,0,0,0,0,0,0,0,0,0,0,0,0,0,0,0,0,0,0,0,0,0,0,0,0,0,0,0,0,0,0,0,0,0,0,0,0,13,0,0,0,0,0,0,0,0,0,0,
0,0,0,0,0,0,0,0,0,0,0,0,0,0,0,0,0,0,0,0,0,0,0,0,0,0,0,0,0,0,0,0,0,0,0,0,0,0,0,0,0,13,0,0,0,0,0,0,0,0,
0,0,0,0,0,0,0,0,0,0,0,0,0,0,0,0,0,0,0,0,0,0,0,0,0,0,0,0,0,0,0,0,0,0,0,0,0,0,0,0,0,0,0,0,0,0,0,0,0,0
</data>
 </layer>
 <layer id="6" name="Water" width="50" height="50">
  <data encoding="csv">
0,0,0,0,0,0,0,0,0,0,0,0,0,0,0,0,0,0,0,0,0,0,0,0,0,0,0,0,0,0,0,0,0,0,0,0,0,0,0,0,0,0,0,0,0,0,0,0,0,0,
0,0,0,0,0,0,0,0,0,0,0,0,0,0,0,0,0,0,0,0,0,0,0,0,0,0,0,0,0,0,0,0,0,0,0,0,0,0,0,0,0,0,0,0,0,0,0,0,0,0,
0,0,0,0,0,0,0,0,0,0,0,0,0,0,0,0,0,0,0,0,0,0,0,0,0,0,0,0,0,0,0,0,0,0,0,0,0,0,0,0,0,0,0,0,0,0,0,0,0,0,
0,0,0,0,0,0,0,0,0,0,0,0,0,0,0,0,0,0,0,0,0,0,0,0,0,0,0,0,0,0,0,0,0,0,0,0,0,0,0,0,0,0,0,0,0,0,0,0,0,0,
0,0,0,0,0,0,0,0,0,0,0,0,0,0,0,0,0,0,0,0,0,0,0,0,0,0,0,0,0,0,0,0,0,0,0,0,0,0,0,0,0,0,0,0,0,0,0,0,0,0,
0,0,0,0,0,0,0,0,0,0,0,0,0,0,0,0,0,0,0,0,0,0,0,0,0,0,0,0,0,0,0,0,0,0,0,0,0,0,0,0,0,0,0,0,0,0,0,0,0,0,
0,0,0,0,0,0,0,0,0,0,0,0,0,0,0,0,0,0,0,0,0,0,0,0,0,0,0,0,0,0,0,0,0,0,0,0,0,0,0,0,0,0,0,0,0,0,0,0,0,0,
0,0,0,0,0,0,0,0,0,0,0,0,0,0,0,0,0,0,0,0,0,0,0,0,0,0,0,0,0,0,0,0,0,0,0,0,0,0,0,0,0,0,0,0,0,0,0,0,0,0,
0,0,0,0,0,0,0,0,0,0,0,0,0,0,0,0,0,0,0,0,0,0,0,0,0,0,0,0,0,0,0,0,0,0,0,0,0,0,0,0,0,0,0,0,0,0,0,0,0,0,
0,0,0,0,0,0,0,0,0,0,0,0,0,0,0,0,0,0,0,0,0,0,0,0,0,0,0,0,0,0,0,0,0,0,0,0,0,0,0,0,0,0,0,0,0,0,0,0,0,0,
0,0,0,0,0,0,0,0,0,0,0,0,0,0,0,130,131,131,131,131,131,131,131,131,131,131,132,0,0,0,0,0,0,0,0,0,0,0,0,0,0,0,0,0,0,0,0,0,0,0,
0,0,0,0,0,0,0,0,0,0,0,0,0,0,130,156,157,157,157,157,157,157,157,157,157,157,158,132,0,0,0,0,0,0,0,0,0,0,0,0,0,0,0,0,0,0,0,0,0,0,
0,0,0,0,0,0,0,0,0,0,0,0,0,130,156,157,157,144,144,144,157,144,144,144,144,157,157,145,0,0,0,0,0,0,0,0,0,0,0,0,0,0,0,0,0,0,0,0,0,0,
0,0,0,0,0,0,0,0,0,0,0,0,130,156,157,157,144,144,144,144,144,144,144,144,144,144,157,158,132,0,0,0,0,0,0,0,0,0,0,0,0,0,0,0,0,0,0,0,0,0,
0,0,0,0,0,0,0,0,0,0,0,0,143,157,157,144,144,144,144,144,144,144,157,144,144,144,144,157,145,0,0,0,0,0,0,0,0,0,0,0,0,0,0,0,0,0,0,0,0,0,
0,0,0,0,0,0,0,0,0,0,0,130,156,157,144,144,144,144,144,144,144,144,144,144,144,144,144,157,145,0,0,0,0,0,0,0,0,0,0,0,0,0,0,0,0,0,0,0,0,0,
0,0,0,0,0,0,0,0,0,0,0,143,157,144,144,144,144,157,144,144,144,144,144,157,144,144,144,157,158,132,0,0,0,0,0,0,0,0,0,0,0,0,0,0,0,0,0,0,0,0,
0,0,0,0,0,0,0,0,0,0,0,143,157,144,144,144,144,144,144,144,144,144,144,144,144,144,144,144,157,145,0,0,0,0,0,0,0,0,0,0,0,0,0,0,0,0,0,0,0,0,
0,0,0,0,0,0,0,0,0,0,0,143,157,144,144,157,144,144,144,144,144,144,144,144,144,144,144,144,157,158,132,0,0,0,0,0,0,0,0,0,0,0,0,0,0,0,0,0,0,0,
0,0,0,0,0,0,0,0,0,0,0,143,157,144,144,144,144,144,144,144,144,144,144,144,144,144,144,144,157,157,145,0,0,0,0,0,0,0,0,0,0,0,0,0,0,0,0,0,0,0,
0,0,0,0,0,0,0,0,0,0,0,143,157,144,144,144,144,144,144,157,144,144,144,144,157,144,144,144,144,157,145,0,0,0,0,0,0,0,0,0,0,0,0,0,0,0,0,0,0,0,
0,0,0,0,0,0,0,0,0,0,0,143,157,144,144,144,144,144,157,144,144,144,144,144,144,144,144,144,144,157,145,0,0,0,0,0,0,0,0,0,0,0,0,0,0,0,0,0,0,0,
0,0,0,0,0,0,0,0,0,0,0,143,157,157,144,144,157,144,144,144,144,144,144,144,144,144,144,144,144,157,145,0,0,0,0,0,0,0,0,0,0,0,0,0,0,0,0,0,0,0,
0,0,0,0,0,0,0,0,0,0,0,143,157,157,144,144,144,144,144,144,144,144,144,144,144,144,144,144,157,157,145,0,0,0,0,0,0,0,0,0,0,0,0,0,0,0,0,0,0,0,
0,0,0,0,0,0,0,0,0,0,0,182,169,157,157,144,144,144,144,144,144,144,157,157,157,144,144,144,157,157,145,0,0,0,0,0,0,0,0,0,0,0,0,0,0,0,0,0,0,0,
0,0,0,0,0,0,0,0,0,0,0,0,182,169,157,144,144,144,144,144,144,144,157,144,144,144,144,144,157,171,184,0,0,0,0,0,0,0,0,0,0,0,0,0,0,0,0,0,0,0,
0,0,0,0,0,0,0,0,0,0,0,0,0,143,157,157,144,144,144,144,144,144,144,144,144,144,157,157,171,184,0,0,0,0,0,0,0,0,0,0,0,0,0,0,0,0,0,0,0,0,
0,0,0,0,0,0,0,0,0,0,0,0,0,182,169,157,144,144,144,144,144,144,144,144,144,144,157,157,145,0,0,0,0,0,0,0,0,0,0,0,0,0,0,0,0,0,0,0,0,0,
0,0,0,0,0,0,0,0,0,0,0,0,0,0,143,157,157,144,144,144,144,144,144,144,157,157,171,183,184,0,0,0,0,0,0,0,0,0,0,0,0,0,0,0,0,0,0,0,0,0,
0,0,0,0,0,0,0,0,0,0,0,0,0,0,182,169,157,157,157,157,157,157,157,157,171,183,184,0,0,0,0,0,0,0,0,0,0,0,0,0,0,0,0,0,0,0,0,0,0,0,
0,0,0,0,0,0,0,0,0,0,0,0,0,0,0,182,183,183,183,183,183,183,183,183,184,0,0,0,0,0,0,0,0,0,0,0,0,0,0,0,0,0,0,0,0,0,0,0,0,0,
0,0,0,0,0,0,0,0,0,0,0,0,0,0,0,0,0,0,0,0,0,0,0,0,0,0,0,0,0,0,0,0,0,0,0,0,0,0,0,0,0,0,0,0,0,0,0,0,0,0,
0,0,0,0,0,0,0,0,0,0,0,0,0,0,0,0,0,0,0,0,0,0,0,0,0,0,0,0,0,0,0,0,0,0,0,0,0,0,0,0,0,0,0,0,0,0,0,0,0,0,
0,0,0,0,0,0,0,0,0,0,0,0,0,0,0,0,0,0,0,0,0,0,0,0,0,0,0,0,0,0,0,0,0,0,0,0,0,0,0,0,0,0,0,0,0,0,0,0,0,0,
0,0,0,0,0,0,0,0,0,0,0,0,0,0,0,0,0,0,0,0,0,0,0,0,0,0,0,0,0,0,0,0,0,0,0,0,0,0,0,0,0,0,0,0,0,0,0,0,0,0,
0,0,0,0,0,0,0,0,0,0,0,0,0,0,0,0,0,0,0,0,0,0,0,0,0,0,0,0,0,0,0,0,0,0,0,0,0,0,0,0,0,0,0,0,0,0,0,0,0,0,
0,0,0,0,0,0,0,0,0,0,0,0,0,0,0,0,0,0,0,0,0,0,0,0,0,0,0,0,0,0,0,0,0,0,0,0,0,0,0,0,0,0,0,0,0,0,0,0,0,0,
0,0,0,0,0,0,0,0,0,0,0,0,0,0,0,0,0,0,0,0,0,0,0,0,0,0,0,0,0,0,0,0,0,0,0,0,0,0,0,0,0,0,0,0,0,0,0,0,0,0,
0,0,0,0,0,0,0,0,0,0,0,0,0,0,0,0,0,130,131,131,131,131,131,131,131,131,131,132,0,0,0,0,0,0,0,0,0,0,0,0,0,0,0,0,0,0,0,0,0,0,
0,0,0,0,0,0,0,0,0,0,0,0,0,0,0,130,131,156,157,157,157,157,157,157,157,157,157,158,131,132,0,0,0,0,0,0,0,0,0,0,0,0,0,0,0,0,0,0,0,0,
0,0,0,0,0,0,0,0,0,0,0,0,0,0,130,156,157,157,157,157,157,157,157,157,157,157,157,157,157,158,132,0,0,0,0,0,0,0,0,0,0,0,0,0,0,0,0,0,0,0,
0,0,0,0,0,0,0,0,0,0,0,0,0,0,143,157,157,157,157,157,157,157,157,157,157,157,157,157,157,157,158,132,0,0,0,0,0,0,0,0,0,0,0,0,0,0,0,0,0,0,
0,0,0,0,0,0,0,0,0,0,0,0,0,0,182,169,157,157,157,157,157,157,157,157,157,157,157,157,157,157,157,145,0,0,0,0,0,0,0,0,0,0,0,0,0,0,0,0,0,0,
0,0,0,0,0,0,0,0,0,0,0,0,0,0,0,182,169,170,170,170,170,170,170,170,170,170,170,170,170,171,183,184,0,0,0,0,0,0,0,0,0,0,0,0,0,0,0,0,0,0,
0,0,0,0,0,0,0,0,0,0,0,0,0,0,0,0,182,183,183,183,183,183,183,183,183,183,183,183,183,184,0,0,0,0,0,0,0,0,0,0,0,0,0,0,0,0,0,0,0,0,
0,0,0,0,0,0,0,0,0,0,0,0,0,0,0,0,0,0,0,0,0,0,0,0,0,0,0,0,0,0,0,0,0,0,0,0,0,0,0,0,0,0,0,0,0,0,0,0,0,0,
0,0,0,0,0,0,0,0,0,0,0,0,0,0,0,0,0,0,0,0,0,0,0,0,0,0,0,0,0,0,0,0,0,0,0,0,0,0,0,0,0,0,0,0,0,0,0,0,0,0,
0,0,0,0,0,0,0,0,0,0,0,0,0,0,0,0,0,0,0,0,0,0,0,0,0,0,0,0,0,0,0,0,0,0,0,0,0,0,0,0,0,0,0,0,0,0,0,0,0,0,
0,0,0,0,0,0,0,0,0,0,0,0,0,0,0,0,0,0,0,0,0,0,0,0,0,0,0,0,0,0,0,0,0,0,0,0,0,0,0,0,0,0,0,0,0,0,0,0,0,0,
0,0,0,0,0,0,0,0,0,0,0,0,0,0,0,0,0,0,0,0,0,0,0,0,0,0,0,0,0,0,0,0,0,0,0,0,0,0,0,0,0,0,0,0,0,0,0,0,0,0
</data>
 </layer>
 <layer id="7" name="Tile Layer 4" width="50" height="50">
  <data encoding="csv">
0,0,0,0,0,0,0,0,0,0,0,0,0,0,0,0,0,0,0,0,0,0,0,0,0,0,0,0,0,0,0,0,0,0,0,0,0,0,0,0,0,0,0,0,0,0,0,0,0,0,
0,0,0,0,0,0,0,0,0,0,0,0,0,0,0,0,0,0,0,0,0,0,0,0,0,0,0,0,0,0,0,0,0,0,0,0,0,0,0,0,0,0,0,0,0,0,0,0,0,0,
0,0,0,0,0,0,0,0,0,0,0,0,0,0,0,0,0,0,0,0,0,0,0,0,0,0,0,0,0,0,0,0,0,0,0,0,0,0,0,0,0,0,0,0,0,0,0,0,0,0,
0,0,0,0,0,0,0,0,0,0,0,0,0,0,0,0,0,0,0,0,0,0,0,0,0,0,0,0,0,0,0,0,0,0,0,0,0,0,0,0,0,0,0,0,0,0,0,0,0,0,
0,0,0,0,0,0,0,0,0,0,0,0,0,0,0,0,0,0,0,0,0,0,0,0,0,0,0,0,0,0,0,0,0,0,0,0,0,0,0,0,0,0,0,0,0,0,0,0,0,0,
0,0,0,0,0,0,0,0,0,0,0,0,0,0,0,0,0,0,0,0,0,0,0,0,0,0,0,0,0,0,0,0,0,0,0,0,0,0,0,0,0,0,0,0,0,0,0,0,0,0,
0,0,0,0,0,0,0,0,0,0,0,0,0,0,0,0,0,0,0,0,0,0,0,0,0,0,0,0,0,0,0,0,0,0,0,0,0,0,0,0,0,0,0,0,0,0,0,0,0,0,
0,0,0,0,0,0,0,0,0,0,0,0,0,0,0,0,0,0,0,0,0,0,0,0,0,0,0,0,0,0,0,0,0,0,0,0,0,0,0,0,0,0,0,0,0,0,0,0,0,0,
0,0,0,0,0,0,0,0,0,0,0,0,0,0,0,0,0,0,0,0,0,0,0,0,0,0,0,0,0,0,0,0,0,0,0,0,0,0,0,0,0,0,0,0,0,0,0,0,0,0,
0,0,0,0,0,0,0,0,0,0,0,0,0,0,0,72,0,0,0,0,0,0,0,0,0,0,0,0,0,0,0,0,0,0,0,0,0,0,0,0,0,0,0,0,0,0,0,0,0,0,
0,0,0,0,0,0,0,0,0,0,0,0,0,0,0,0,0,0,0,0,0,0,0,0,0,0,0,0,0,0,0,0,0,0,0,0,0,0,0,0,0,0,0,0,0,0,0,0,0,0,
0,0,0,0,0,0,0,0,0,0,0,0,0,0,0,0,0,0,0,0,0,0,0,0,0,0,0,0,0,0,0,0,0,0,0,0,0,0,0,0,0,0,0,0,0,0,0,0,0,0,
0,0,0,0,0,0,0,0,0,0,0,0,0,0,0,0,0,0,0,0,0,0,0,0,0,0,0,0,0,0,0,0,0,0,0,0,0,0,0,0,0,0,0,0,0,0,0,0,0,0,
0,0,0,0,0,0,0,0,0,0,0,0,0,0,0,0,0,0,0,0,0,0,0,0,0,0,0,0,0,0,0,0,0,0,0,0,0,0,0,0,0,0,0,0,0,0,0,0,0,0,
0,0,0,0,0,0,0,0,0,0,0,0,0,0,0,0,0,0,0,0,0,0,0,0,0,0,0,0,0,0,0,0,0,0,0,0,0,0,0,0,0,0,0,0,0,0,0,0,0,0,
0,0,0,0,0,0,0,0,0,0,0,0,0,0,0,0,0,0,0,0,0,0,0,0,0,0,0,0,0,0,0,0,0,0,0,0,0,0,0,0,0,0,0,0,0,0,0,0,0,0,
0,0,0,0,0,0,0,0,0,0,0,0,0,0,0,0,0,0,0,0,0,0,0,0,0,0,0,0,0,0,0,0,0,0,0,0,0,0,0,0,0,0,0,0,0,0,0,0,0,0,
0,0,0,0,0,0,0,0,0,0,0,0,0,0,0,0,0,0,0,0,0,0,0,0,0,0,0,0,0,0,0,0,0,0,0,0,0,0,0,0,0,0,0,0,0,0,0,0,0,0,
0,0,0,0,0,0,0,0,0,0,0,0,0,0,0,0,0,0,0,0,0,0,0,0,0,0,0,0,0,0,0,0,0,0,0,0,0,0,0,0,0,0,0,0,0,0,0,0,0,0,
0,0,0,0,0,0,0,0,0,0,0,0,0,0,0,0,0,0,0,0,0,0,0,0,0,0,0,0,0,0,0,0,0,0,0,0,0,0,0,0,0,87,0,0,0,0,0,0,0,0,
0,0,0,0,0,0,0,0,0,0,0,0,0,0,0,0,0,0,0,0,0,0,0,0,0,0,0,0,0,0,0,0,0,0,0,0,0,0,0,0,0,0,0,0,0,0,0,0,0,0,
0,0,0,0,0,0,0,0,0,0,0,0,0,0,0,0,0,0,0,0,0,0,0,0,0,0,0,0,0,0,0,0,0,0,0,0,0,0,0,0,0,0,0,0,0,0,0,0,0,0,
0,0,0,0,0,0,0,0,0,0,0,0,0,0,0,0,0,0,0,0,0,0,0,0,0,0,0,0,0,0,0,0,0,0,0,0,0,0,0,0,0,0,0,0,0,0,0,0,0,0,
0,0,0,0,0,0,0,0,0,0,73,0,0,0,0,0,0,0,0,0,0,0,0,0,0,0,0,0,0,0,0,0,0,0,0,0,0,0,0,0,0,0,0,0,0,0,0,0,0,0,
0,0,0,0,0,0,0,0,0,0,0,0,0,0,0,0,0,0,0,0,0,0,0,0,0,0,0,0,0,0,0,0,0,0,0,0,0,0,0,0,0,0,0,0,0,0,0,0,0,0,
0,0,0,0,0,0,0,0,0,0,0,0,0,0,0,0,0,0,0,0,0,0,0,0,0,0,0,0,0,0,0,0,0,0,0,0,0,0,0,0,0,0,0,0,0,0,0,0,0,0,
0,0,0,0,0,0,0,0,0,0,0,0,0,0,0,0,0,0,0,0,0,0,0,0,0,0,0,0,0,0,0,0,0,0,0,0,0,0,0,0,0,0,0,0,0,0,0,0,0,0,
0,0,0,0,0,0,0,0,0,0,0,0,0,0,0,0,0,0,0,0,0,0,0,0,0,0,0,0,0,0,0,0,0,0,0,0,0,0,0,0,0,0,0,0,0,0,0,0,0,0,
0,0,0,0,0,0,0,0,0,0,0,0,0,0,0,0,0,0,0,0,0,0,0,0,0,0,0,0,0,0,0,0,0,0,0,0,0,0,0,0,0,0,0,0,0,0,0,0,0,0,
0,0,0,0,0,0,0,0,0,0,0,0,0,0,0,0,0,0,0,0,0,0,0,0,0,0,0,0,0,0,0,0,0,0,0,0,0,0,0,0,0,0,0,0,0,0,0,0,0,0,
0,0,0,0,0,0,0,0,0,0,0,0,0,0,0,0,0,0,0,0,0,0,0,0,0,0,0,0,0,0,0,0,0,0,0,0,0,0,0,0,0,0,0,0,0,0,0,0,0,0,
0,0,0,0,0,0,0,0,0,0,0,0,0,0,0,0,0,0,0,0,0,0,0,0,0,0,0,0,0,0,0,0,0,0,0,0,0,0,0,0,0,0,0,0,0,0,0,0,0,0,
0,0,0,0,0,0,0,0,0,0,0,0,0,0,0,0,0,0,0,0,0,0,0,0,0,0,0,0,0,0,0,0,0,0,0,0,0,0,0,0,0,0,0,0,0,0,0,0,0,0,
0,0,0,0,0,0,0,0,0,0,0,0,0,0,0,0,0,0,0,0,0,0,0,0,0,0,0,0,0,0,0,0,0,0,0,0,0,0,0,0,0,0,0,0,0,0,0,0,0,0,
0,0,0,0,0,0,0,0,0,0,0,0,0,0,0,0,0,0,0,0,0,0,0,0,0,0,0,0,0,0,0,0,0,0,0,0,0,0,0,0,0,0,0,0,0,0,0,0,0,0,
0,0,0,0,0,0,0,0,0,0,0,0,0,0,0,0,0,0,0,0,0,0,0,0,0,0,0,0,0,0,0,0,0,0,0,0,0,0,0,0,0,0,0,0,0,0,0,0,0,0,
0,0,0,0,0,0,0,0,0,0,0,0,0,0,0,0,0,0,0,0,0,0,0,0,0,0,0,0,0,0,0,0,0,0,0,0,0,0,0,0,0,0,0,0,0,0,0,0,0,0,
0,0,0,0,0,0,0,0,0,0,0,0,0,0,0,0,0,0,0,0,0,0,0,0,0,0,0,0,0,0,0,0,0,0,0,0,0,0,0,0,0,0,0,0,0,0,0,0,0,0,
0,0,0,0,0,0,0,0,0,0,0,0,0,0,0,0,0,0,0,0,0,0,0,0,0,0,0,0,0,0,0,0,0,0,0,0,0,0,0,0,0,0,0,0,0,0,0,0,0,0,
0,0,0,0,0,0,0,0,0,0,0,0,0,0,0,0,0,0,0,0,0,0,0,0,0,0,0,0,0,0,0,0,0,0,0,0,0,0,0,0,0,0,0,0,0,0,0,0,0,0,
0,0,0,0,0,0,0,0,0,0,0,0,0,0,0,0,0,0,0,0,0,0,0,0,0,0,0,0,0,0,0,0,0,0,0,0,0,0,0,0,0,0,0,0,0,0,0,0,0,0,
0,0,0,0,0,0,0,0,0,0,0,0,0,0,0,0,0,0,0,0,0,0,0,0,0,0,0,0,0,0,0,0,0,0,0,0,0,0,0,0,0,0,0,0,0,0,0,0,0,0,
0,0,0,0,0,0,0,0,0,0,0,0,0,0,0,0,0,0,0,0,0,0,0,0,0,0,0,0,0,0,0,0,0,0,0,0,0,0,0,0,0,0,0,0,0,0,0,0,0,0,
0,0,0,0,0,0,0,0,0,0,0,0,0,0,0,0,0,0,0,0,0,0,0,0,0,0,0,0,0,0,0,0,0,0,0,0,0,0,0,0,0,0,0,0,0,0,0,0,0,0,
0,0,0,0,0,0,0,0,0,0,0,0,0,0,0,0,0,0,0,0,0,0,0,0,0,0,0,0,0,0,0,0,0,0,0,0,0,0,0,0,0,0,0,0,0,0,0,0,0,0,
0,0,0,0,0,0,0,0,0,0,0,0,0,0,0,0,0,0,0,0,0,0,0,0,0,0,0,0,0,0,0,0,0,0,0,0,0,0,0,0,0,0,0,0,0,0,0,0,0,0,
0,0,0,0,0,0,0,0,0,0,0,0,0,0,0,0,0,0,0,0,0,0,0,0,0,0,0,0,0,0,0,0,0,0,0,0,0,0,0,0,0,0,0,0,0,0,0,0,0,0,
0,0,0,0,0,0,0,0,0,0,0,0,0,0,0,0,0,0,0,0,0,0,0,0,0,0,0,0,0,0,0,0,0,0,0,0,0,0,0,0,0,0,0,0,0,0,0,0,0,0,
0,0,0,0,0,0,0,0,0,0,0,0,0,0,0,0,0,0,0,0,0,0,0,0,0,0,0,0,0,0,0,0,0,0,0,0,0,0,0,0,0,0,0,0,0,0,0,0,0,0,
0,0,0,0,0,0,0,0,0,0,0,0,0,0,0,0,0,0,0,0,0,0,0,0,0,0,0,0,0,0,0,0,0,0,0,0,0,0,0,0,0,0,0,0,0,0,0,0,0,0
</data>
 </layer>
 <layer id="9" name="Bush" width="50" height="50">
  <data encoding="csv">
0,0,0,0,0,0,0,0,0,0,0,0,0,0,0,0,0,0,0,0,0,0,0,0,0,0,0,0,0,0,0,0,0,0,0,0,0,0,0,0,0,0,0,0,0,0,0,0,0,0,
0,0,0,0,0,0,0,0,0,0,0,0,0,0,0,0,0,0,0,0,0,0,0,0,0,0,0,0,0,0,0,0,0,0,0,0,0,0,0,0,0,0,0,0,0,0,0,0,0,0,
0,0,0,0,0,0,0,0,0,0,0,0,0,0,0,0,0,0,0,0,0,0,0,0,0,0,0,0,0,0,0,0,0,0,0,0,0,0,0,0,0,0,0,0,0,0,0,0,0,0,
0,0,0,0,0,0,0,0,0,0,0,0,0,0,0,0,0,0,0,0,0,0,0,0,0,0,0,0,0,0,0,0,0,0,0,0,0,0,0,0,0,0,0,0,0,0,0,0,0,0,
0,0,0,0,0,0,0,0,0,0,0,0,0,0,0,0,0,0,0,0,0,0,0,0,0,0,0,0,0,0,0,0,0,0,0,0,0,0,0,0,0,0,0,0,0,0,0,0,0,0,
0,0,0,0,0,0,0,0,0,0,0,0,0,0,0,0,0,0,0,0,0,0,0,0,0,0,0,0,0,0,0,0,0,0,0,0,0,0,0,0,0,0,0,0,0,0,0,0,0,0,
0,0,0,0,0,0,0,0,0,0,0,0,0,0,0,0,0,0,0,0,0,0,0,0,0,0,0,0,0,0,0,0,0,0,0,0,0,0,0,0,0,0,0,0,0,0,0,0,0,0,
0,0,0,0,0,0,0,0,0,0,0,0,0,0,0,0,0,0,0,0,0,0,0,0,0,0,0,0,0,0,0,0,0,0,0,0,0,0,0,0,0,0,0,0,0,0,0,0,0,0,
0,0,0,0,0,0,0,0,0,0,0,0,0,0,0,58,0,0,0,0,0,0,0,0,0,0,0,0,0,0,0,0,0,0,0,0,0,0,0,0,0,0,0,0,0,0,0,0,0,0,
0,0,0,0,0,0,0,0,0,0,0,0,0,0,0,0,0,0,0,0,0,0,0,0,0,0,0,0,0,0,0,0,0,0,0,0,0,0,0,0,0,0,0,0,0,0,0,0,0,0,
0,0,0,0,0,0,0,0,0,0,0,0,0,0,0,0,0,0,0,0,0,0,0,0,0,0,0,0,0,0,0,0,0,0,0,0,0,0,0,0,0,0,0,0,0,0,0,0,0,0,
0,0,0,0,0,0,0,0,0,0,0,0,0,0,0,0,0,0,0,0,0,0,0,0,0,0,0,0,0,0,0,0,0,0,0,0,0,0,0,0,0,0,0,0,0,0,0,0,0,0,
0,0,0,0,0,0,0,0,0,0,0,0,0,0,0,0,0,0,0,0,0,0,0,0,0,0,0,0,0,0,0,0,0,0,0,0,0,0,0,0,0,0,0,0,0,0,0,0,0,0,
0,0,0,0,0,0,0,0,0,0,58,0,0,0,0,0,0,0,0,0,0,0,0,0,0,0,0,0,0,0,0,0,0,0,0,0,0,0,0,0,0,0,0,0,0,0,0,0,0,0,
0,0,0,0,0,0,0,0,0,0,0,0,0,0,0,0,0,0,0,0,0,0,0,0,0,0,0,0,0,0,0,0,0,0,0,0,0,0,0,0,0,0,0,0,0,0,0,0,0,0,
0,0,0,0,0,0,0,0,0,0,0,0,0,0,0,0,0,0,0,0,0,0,0,0,0,0,0,0,0,0,0,0,0,0,0,0,0,0,0,0,0,0,0,0,0,0,0,0,0,0,
0,0,0,0,0,0,0,0,0,0,0,0,0,0,0,0,0,0,0,0,0,0,0,0,0,0,0,0,0,0,0,0,0,0,0,0,0,0,0,0,0,58,0,0,0,0,0,0,0,0,
0,0,0,0,0,0,0,0,59,0,0,0,0,0,0,0,0,0,0,0,0,0,0,0,0,0,0,0,0,0,0,0,0,0,0,0,0,0,0,0,0,0,0,0,0,0,0,0,0,0,
0,0,0,0,0,0,0,0,0,0,0,0,0,0,0,0,0,0,0,0,0,0,0,0,0,0,0,0,0,0,0,0,0,0,0,0,0,0,0,0,0,0,0,0,0,0,0,0,0,0,
0,0,0,0,0,0,0,0,0,0,0,0,0,0,0,0,0,0,0,0,0,0,0,0,0,0,0,0,0,0,0,0,0,0,0,0,0,0,0,0,0,0,0,0,0,0,0,0,0,0,
0,0,0,0,0,0,0,0,0,0,0,0,0,0,0,0,0,0,0,0,0,0,0,0,0,0,0,0,0,0,0,0,0,0,0,0,0,0,0,0,0,0,0,0,0,0,0,0,0,0,
0,0,0,0,0,0,0,0,0,0,0,0,0,0,0,0,0,0,0,0,0,0,0,0,0,0,0,0,0,0,0,0,0,0,0,0,0,0,0,0,0,0,0,0,0,0,0,0,0,0,
0,0,0,0,0,0,0,0,0,0,0,0,0,0,0,0,0,0,0,0,0,0,0,0,0,0,0,0,0,0,0,0,0,0,0,0,0,0,0,0,0,0,0,0,0,0,0,0,0,0,
0,0,0,0,0,0,0,0,0,0,0,0,0,0,0,0,0,0,0,0,0,0,0,0,0,0,0,0,0,0,0,0,0,0,0,0,0,0,0,0,0,0,0,0,0,0,0,0,0,0,
0,0,0,0,0,0,0,0,0,0,0,0,0,0,0,0,0,0,0,0,0,0,0,0,0,0,0,0,0,0,0,0,0,0,0,0,0,0,0,0,0,0,0,0,0,0,0,0,0,0,
0,0,0,0,0,0,0,0,0,0,0,0,0,0,0,0,0,0,0,0,0,0,0,0,0,0,0,0,0,0,0,0,0,0,0,0,0,0,0,0,0,0,0,0,0,0,0,0,0,0,
0,0,0,0,0,0,0,0,0,0,0,0,0,0,0,0,0,0,0,0,0,0,0,0,0,0,0,0,0,0,0,0,0,0,0,0,0,0,0,0,0,0,0,0,0,0,0,0,0,0,
0,0,0,0,0,0,0,0,0,0,0,0,0,0,0,0,0,0,0,0,0,0,0,0,0,0,0,0,0,0,0,0,0,0,0,0,0,0,0,0,0,59,0,0,0,0,0,0,0,0,
0,0,0,0,0,0,0,0,0,0,0,0,0,0,0,0,0,0,0,0,0,0,0,0,0,0,0,0,0,0,0,0,0,0,0,0,0,0,0,0,0,0,0,0,0,0,0,0,0,0,
0,0,0,0,0,0,0,0,0,0,0,0,0,0,0,0,0,0,0,0,0,0,0,0,0,0,0,0,0,0,0,0,0,0,0,0,0,0,0,0,0,0,0,0,0,0,0,0,0,0,
0,0,0,0,0,0,0,0,0,0,0,0,0,0,0,0,0,0,0,0,0,0,0,0,0,0,0,0,0,0,0,0,0,0,0,0,0,0,0,0,0,0,0,0,0,0,0,0,0,0,
0,0,0,0,0,0,0,0,0,0,0,0,0,0,0,0,0,0,0,0,0,0,0,0,0,0,0,0,0,0,0,0,0,0,0,0,0,0,0,0,0,0,0,0,0,0,0,0,0,0,
0,0,0,0,0,0,0,0,0,0,0,0,0,0,0,0,0,0,0,0,0,0,0,0,0,0,0,0,0,0,0,0,0,0,0,0,0,0,0,0,0,0,0,0,0,0,0,0,0,0,
0,0,0,0,0,0,0,0,0,0,0,0,0,0,0,0,0,0,0,0,0,0,0,0,0,0,0,0,0,0,0,0,0,0,0,0,0,0,0,0,0,0,0,0,0,0,0,0,0,0,
0,0,0,0,0,0,0,0,0,0,0,0,0,0,0,0,0,0,0,0,0,0,0,0,0,0,0,0,0,0,0,0,0,0,0,0,0,0,0,0,0,0,0,0,0,0,0,0,0,0,
0,0,0,0,0,0,0,0,0,0,0,0,0,0,0,0,0,0,0,0,0,0,0,0,0,0,0,0,0,0,0,0,0,0,0,0,0,0,0,0,0,0,0,0,0,0,0,0,0,0,
0,0,0,0,0,0,0,0,0,0,0,0,0,0,0,0,0,0,0,0,0,0,0,0,0,0,0,0,0,0,0,0,0,0,0,0,0,0,0,0,0,0,0,0,0,0,0,0,0,0,
0,0,0,0,0,0,0,0,0,0,0,0,0,0,0,0,0,0,0,0,0,0,0,0,0,0,0,0,0,0,0,0,0,0,0,0,0,0,0,0,0,0,0,0,0,0,0,0,0,0,
0,0,0,0,0,0,0,0,0,0,0,0,0,0,0,0,0,0,0,0,0,0,0,0,0,0,0,0,0,0,0,0,0,0,0,0,0,0,0,0,0,0,0,0,0,0,0,0,0,0,
0,0,0,0,0,0,0,0,0,0,0,0,0,0,0,0,0,0,0,0,0,0,0,0,0,0,0,0,0,0,0,0,0,0,0,0,0,0,0,0,0,0,0,0,0,0,0,0,0,0,
0,0,0,0,0,0,0,0,0,0,0,0,0,0,0,0,0,0,0,0,0,0,0,0,0,0,0,0,0,0,0,0,0,0,0,0,0,0,0,0,0,0,0,0,0,0,0,0,0,0,
0,0,0,0,0,0,0,0,0,0,0,0,0,0,0,0,0,0,0,0,0,0,0,0,0,0,0,0,0,0,0,0,0,0,0,0,0,0,0,0,0,0,0,0,0,0,0,0,0,0,
0,0,0,0,0,0,0,0,0,0,0,0,0,0,0,0,0,0,0,0,0,0,0,0,0,0,0,0,0,0,0,0,0,0,0,0,0,0,0,0,0,0,0,0,0,0,0,0,0,0,
0,0,0,0,0,0,0,0,0,0,0,0,0,0,0,0,0,0,0,0,0,0,0,0,0,0,0,0,0,0,0,0,0,58,0,0,0,0,0,0,0,0,0,0,0,0,0,0,0,0,
0,0,0,0,0,0,0,0,0,0,0,0,0,0,0,0,0,0,0,0,0,0,0,0,0,0,0,0,0,0,0,0,0,0,0,0,0,0,0,0,0,0,0,0,0,0,0,0,0,0,
0,0,0,0,0,0,0,0,0,0,0,0,0,0,0,0,0,0,0,0,0,0,0,0,0,0,0,0,0,0,0,0,0,0,0,0,0,0,0,0,0,0,0,0,0,0,0,0,0,0,
0,0,0,0,0,0,0,0,0,0,0,0,0,0,0,0,0,0,0,0,0,0,0,0,0,0,0,0,0,0,0,0,0,0,0,0,0,0,0,0,0,0,0,0,0,0,0,0,0,0,
0,0,0,0,0,0,0,0,0,0,0,0,0,0,0,0,0,0,0,0,0,0,0,0,0,0,0,0,0,0,0,0,0,0,0,0,0,0,0,0,0,0,0,0,0,0,0,0,0,0,
0,0,0,0,0,0,0,0,0,0,0,0,0,0,0,0,0,0,0,0,0,0,0,0,0,0,0,0,0,0,0,0,0,0,0,0,0,0,0,0,0,0,0,0,0,0,0,0,0,0,
0,0,0,0,0,0,0,0,0,0,0,0,0,0,0,0,0,0,0,0,0,0,0,0,0,0,0,0,0,0,0,0,0,0,0,0,0,0,0,0,0,0,0,0,0,0,0,0,0,0
</data>
 </layer>
 <layer id="10" name="Bridge" width="50" height="50">
  <data encoding="csv">
0,0,0,0,0,0,0,0,0,0,0,0,0,0,0,0,0,0,0,0,0,0,0,0,0,0,0,0,0,0,0,0,0,0,0,0,0,0,0,0,0,0,0,0,0,0,0,0,0,0,
0,0,0,0,0,0,0,0,0,0,0,0,0,0,0,0,0,0,0,0,0,0,0,0,0,0,0,0,0,0,0,0,0,0,0,0,0,0,0,0,0,0,0,0,0,0,0,0,0,0,
0,0,0,0,0,0,0,0,0,0,0,0,0,0,0,0,0,0,0,0,0,0,0,0,0,0,0,0,0,0,0,0,0,0,0,0,0,0,0,0,0,0,0,0,0,0,0,0,0,0,
0,0,0,0,0,0,0,0,0,0,0,0,0,0,0,0,0,0,0,0,0,0,0,0,0,0,0,0,0,0,0,0,0,0,0,0,0,0,0,0,0,0,0,0,0,0,0,0,0,0,
0,0,0,0,0,0,0,0,0,0,0,0,0,0,0,0,0,0,0,0,0,0,0,0,0,0,0,0,0,0,0,0,0,0,0,0,0,0,0,0,0,0,0,0,0,0,0,0,0,0,
0,0,0,0,0,0,0,0,0,0,0,0,0,0,0,0,0,0,0,0,0,0,0,0,0,0,0,0,0,0,0,0,0,0,0,0,0,0,0,0,0,0,0,0,0,0,0,0,0,0,
0,0,0,0,0,0,0,0,0,0,0,0,0,0,0,0,0,0,0,0,0,0,0,0,0,0,0,0,0,0,0,0,0,0,0,0,0,0,0,0,0,0,0,0,0,0,0,0,0,0,
0,0,0,0,0,0,0,0,0,0,0,0,0,0,0,0,0,0,0,0,0,0,0,0,0,0,0,0,0,0,0,0,0,0,0,0,0,0,0,0,0,0,0,0,0,0,0,0,0,0,
0,0,0,0,0,0,0,0,0,0,0,0,0,0,0,0,0,0,0,0,0,0,0,0,0,0,0,0,0,0,0,0,0,0,0,0,0,0,0,0,0,0,0,0,0,0,0,0,0,0,
0,0,0,0,0,0,0,0,0,0,0,0,0,0,0,0,0,0,0,0,0,0,0,0,0,0,0,0,0,0,0,0,0,0,0,0,0,0,0,0,0,0,0,0,0,0,0,0,0,0,
0,0,0,0,0,0,0,0,0,0,0,0,0,0,0,0,0,0,0,0,0,0,0,0,0,0,0,0,0,0,0,0,0,0,0,0,0,0,0,0,0,0,0,0,0,0,0,0,0,0,
0,0,0,0,0,0,0,0,0,0,0,0,0,0,0,0,0,0,0,0,0,0,0,0,0,0,0,0,0,0,0,0,0,0,0,0,0,0,0,0,0,0,0,0,0,0,0,0,0,0,
0,0,0,0,0,0,0,0,0,0,0,0,0,0,0,0,0,0,0,0,0,0,0,0,0,0,0,0,0,0,0,0,0,0,0,0,0,0,0,0,0,0,0,0,0,0,0,0,0,0,
0,0,0,0,0,0,0,0,0,0,0,0,0,0,0,0,0,0,0,0,0,0,0,0,0,0,0,0,0,0,0,0,0,0,0,0,0,0,0,0,0,0,0,0,0,0,0,0,0,0,
0,0,0,0,0,0,0,0,0,0,0,0,0,0,0,0,0,0,0,0,0,0,0,0,0,0,0,0,0,0,0,0,0,0,0,0,0,0,0,0,0,0,0,0,0,0,0,0,0,0,
0,0,0,0,0,0,0,0,0,0,0,0,0,0,0,0,0,0,0,0,0,0,0,0,0,0,0,0,0,0,0,0,0,0,0,0,0,0,0,0,0,0,0,0,0,0,0,0,0,0,
0,0,0,0,0,0,0,0,0,0,0,0,0,0,0,0,0,0,0,0,0,0,0,0,0,0,0,0,0,0,0,0,0,0,0,0,0,0,0,0,0,0,0,0,0,0,0,0,0,0,
0,0,0,0,0,0,0,0,0,0,0,0,0,0,0,0,0,0,0,0,0,0,0,0,0,0,0,0,0,0,0,0,0,0,0,0,0,0,0,0,0,0,0,0,0,0,0,0,0,0,
0,0,0,0,0,0,0,0,0,0,0,243,245,245,245,246,245,245,245,245,245,245,246,245,245,245,245,245,245,246,242,0,0,0,0,0,0,0,0,0,0,0,0,0,0,0,0,0,0,0,
0,0,0,0,0,0,0,0,0,0,0,250,252,252,252,252,252,252,252,252,252,252,252,252,252,252,252,252,252,252,249,0,0,0,0,0,0,0,0,0,0,0,0,0,0,0,0,0,0,0,
0,0,0,0,0,0,0,0,0,0,0,250,252,252,252,252,252,252,252,252,252,252,252,252,252,252,252,252,252,252,249,0,0,0,0,0,0,0,0,0,0,0,0,0,0,0,0,0,0,0,
0,0,0,0,0,0,0,0,0,0,0,257,259,259,259,260,259,259,259,259,259,259,260,259,259,259,259,259,259,260,256,0,0,0,0,0,0,0,0,0,0,0,0,0,0,0,0,0,0,0,
0,0,0,0,0,0,0,0,0,0,0,0,0,0,0,0,0,0,0,0,0,0,0,0,0,0,0,0,0,0,0,0,0,0,0,0,0,0,0,0,0,0,0,0,0,0,0,0,0,0,
0,0,0,0,0,0,0,0,0,0,0,0,0,0,0,0,0,0,0,0,0,0,0,0,0,0,0,0,0,0,0,0,0,0,0,0,0,0,0,0,0,0,0,0,0,0,0,0,0,0,
0,0,0,0,0,0,0,0,0,0,0,0,0,0,0,0,0,0,0,0,0,0,0,0,0,0,0,0,0,0,0,0,0,0,0,0,0,0,0,0,0,0,0,0,0,0,0,0,0,0,
0,0,0,0,0,0,0,0,0,0,0,0,0,0,0,0,0,0,0,0,0,0,0,0,0,0,0,0,0,0,0,0,0,0,0,0,0,0,0,0,0,0,0,0,0,0,0,0,0,0,
0,0,0,0,0,0,0,0,0,0,0,0,0,0,0,0,0,0,0,0,0,0,0,0,0,0,0,0,0,0,0,0,0,0,0,0,0,0,0,0,0,0,0,0,0,0,0,0,0,0,
0,0,0,0,0,0,0,0,0,0,0,0,0,0,0,0,0,0,0,0,0,0,0,0,0,0,0,0,0,0,0,0,0,0,0,0,0,0,0,0,0,0,0,0,0,0,0,0,0,0,
0,0,0,0,0,0,0,0,0,0,0,0,0,0,0,0,0,0,0,0,0,0,0,0,0,0,0,0,0,0,0,0,0,0,0,0,0,0,0,0,0,0,0,0,0,0,0,0,0,0,
0,0,0,0,0,0,0,0,0,0,0,0,0,0,0,0,0,0,0,0,0,0,0,0,0,0,0,0,0,0,0,0,0,0,0,0,0,0,0,0,0,0,0,0,0,0,0,0,0,0,
0,0,0,0,0,0,0,0,0,0,0,0,0,0,0,0,0,0,0,0,0,0,0,0,0,0,0,0,0,0,0,0,0,0,0,0,0,0,0,0,0,0,0,0,0,0,0,0,0,0,
0,0,0,0,0,0,0,0,0,0,0,0,0,0,0,0,0,0,0,0,0,0,0,0,0,0,0,0,0,0,0,0,0,0,0,0,0,0,0,0,0,0,0,0,0,0,0,0,0,0,
0,0,0,0,0,0,0,0,0,0,0,0,0,0,0,0,0,0,0,0,0,0,0,0,0,0,0,0,0,0,0,0,0,0,0,0,0,0,0,0,0,0,0,0,0,0,0,0,0,0,
0,0,0,0,0,0,0,0,0,0,0,0,0,0,0,0,0,0,0,0,0,0,0,0,0,0,0,0,0,0,0,0,0,0,0,0,0,0,0,0,0,0,0,0,0,0,0,0,0,0,
0,0,0,0,0,0,0,0,0,0,0,0,0,0,0,0,0,0,0,0,0,0,0,0,0,0,0,0,0,0,0,0,0,0,0,0,0,0,0,0,0,0,0,0,0,0,0,0,0,0,
0,0,0,0,0,0,0,0,0,0,0,0,0,0,0,0,0,0,0,0,0,0,0,0,0,0,0,0,0,0,0,0,0,0,0,0,0,0,0,0,0,0,0,0,0,0,0,0,0,0,
0,0,0,0,0,0,0,0,0,0,0,0,0,0,0,0,0,0,0,0,0,0,0,0,0,0,0,0,0,0,0,0,0,0,0,0,0,0,0,0,0,0,0,0,0,0,0,0,0,0,
0,0,0,0,0,0,0,0,0,0,0,0,0,0,0,0,0,0,0,0,0,0,0,0,0,0,0,0,0,0,0,0,0,0,0,0,0,0,0,0,0,0,0,0,0,0,0,0,0,0,
0,0,0,0,0,0,0,0,0,0,0,0,0,0,0,0,0,0,0,0,0,0,0,0,0,0,0,0,0,0,0,0,0,0,0,0,0,0,0,0,0,0,0,0,0,0,0,0,0,0,
0,0,0,0,0,0,0,0,0,0,0,0,0,0,0,0,0,0,0,0,0,0,0,0,0,0,0,0,0,0,0,0,0,0,0,0,0,0,0,0,0,0,0,0,0,0,0,0,0,0,
0,0,0,0,0,0,0,0,0,0,0,0,0,0,0,0,0,0,0,0,0,0,0,0,0,0,0,0,0,0,0,0,0,0,0,0,0,0,0,0,0,0,0,0,0,0,0,0,0,0,
0,0,0,0,0,0,0,0,0,0,0,0,0,0,0,0,0,0,0,0,0,0,0,0,0,0,0,0,0,0,0,0,0,0,0,0,0,0,0,0,0,0,0,0,0,0,0,0,0,0,
0,0,0,0,0,0,0,0,0,0,0,0,0,0,0,0,0,0,0,0,0,0,0,0,0,0,0,0,0,0,0,0,0,0,0,0,0,0,0,0,0,0,0,0,0,0,0,0,0,0,
0,0,0,0,0,0,0,0,0,0,0,0,0,0,0,0,0,0,0,0,0,0,0,0,0,0,0,0,0,0,0,0,0,0,0,0,0,0,0,0,0,0,0,0,0,0,0,0,0,0,
0,0,0,0,0,0,0,0,0,0,0,0,0,0,0,0,0,0,0,0,0,0,0,0,0,0,0,0,0,0,0,0,0,0,0,0,0,0,0,0,0,0,0,0,0,0,0,0,0,0,
0,0,0,0,0,0,0,0,0,0,0,0,0,0,0,0,0,0,0,0,0,0,0,0,0,0,0,0,0,0,0,0,0,0,0,0,0,0,0,0,0,0,0,0,0,0,0,0,0,0,
0,0,0,0,0,0,0,0,0,0,0,0,0,0,0,0,0,0,0,0,0,0,0,0,0,0,0,0,0,0,0,0,0,0,0,0,0,0,0,0,0,0,0,0,0,0,0,0,0,0,
0,0,0,0,0,0,0,0,0,0,0,0,0,0,0,0,0,0,0,0,0,0,0,0,0,0,0,0,0,0,0,0,0,0,0,0,0,0,0,0,0,0,0,0,0,0,0,0,0,0,
0,0,0,0,0,0,0,0,0,0,0,0,0,0,0,0,0,0,0,0,0,0,0,0,0,0,0,0,0,0,0,0,0,0,0,0,0,0,0,0,0,0,0,0,0,0,0,0,0,0,
0,0,0,0,0,0,0,0,0,0,0,0,0,0,0,0,0,0,0,0,0,0,0,0,0,0,0,0,0,0,0,0,0,0,0,0,0,0,0,0,0,0,0,0,0,0,0,0,0,0
</data>
 </layer>
 <objectgroup id="2" name="Object">
  <object id="74" type="Tree2" gid="9" x="85.8182" y="2737.09" width="192" height="256"/>
  <object id="75" type="Tree2" gid="9" x="499.152" y="2939.27" width="192" height="256"/>
  <object id="76" type="Tree2" gid="9" x="-38.303" y="3128.85" width="192" height="256"/>
  <object id="77" type="Tree1" gid="10" x="333.697" y="2879.39" width="192" height="256"/>
  <object id="78" type="Tree1" gid="10" x="794.909" y="3173.45" width="192" height="256"/>
  <object id="79" type="Tree1" gid="10" x="407.758" y="3101.45" width="192" height="256"/>
  <object id="80" type="Tree1" gid="10" x="686.667" y="2976.97" width="192" height="256"/>
  <object id="81" type="Tree1" gid="10" x="1082.79" y="3143.15" width="192" height="256"/>
  <object id="83" type="Tree1" gid="10" x="1437.33" y="3179.52" width="192" height="256"/>
  <object id="84" type="Tree1" gid="10" x="1447.15" y="2970.42" width="192" height="256"/>
  <object id="85" type="Tree1" gid="10" x="1834.3" y="3200.73" width="192" height="256"/>
  <object id="86" type="Tree1" gid="10" x="1946.42" y="3006.79" width="192" height="256"/>
  <object id="89" type="Tree1" gid="10" x="2965.33" y="2988" width="192" height="256"/>
  <object id="90" type="Tree1" gid="10" x="2752" y="3192" width="192" height="256"/>
  <object id="92" type="Tree1" gid="10" x="2697" y="1786" width="192" height="256"/>
  <object id="93" type="Tree1" gid="10" x="3012" y="1636" width="192" height="256"/>
  <object id="95" type="Tree1" gid="10" x="2960" y="1468" width="192" height="256"/>
  <object id="96" type="Tree1" gid="10" x="3092" y="1220" width="192" height="256"/>
  <object id="97" type="Tree1" gid="10" x="2872" y="1188" width="192" height="256"/>
  <object id="98" type="Tree1" gid="10" x="2816" y="912" width="192" height="256"/>
  <object id="99" type="Tree1" gid="10" x="3048" y="840" width="192" height="256"/>
  <object id="100" type="Tree1" gid="10" x="2696" y="756" width="192" height="256"/>
  <object id="101" type="Tree1" gid="10" x="2404" y="676" width="192" height="256"/>
  <object id="102" type="Tree1" gid="10" x="2464" y="472" width="192" height="256"/>
  <object id="103" type="Tree1" gid="10" x="2808" y="560" width="192" height="256"/>
  <object id="104" type="Tree3" gid="11" x="60" y="496" width="192" height="256"/>
  <object id="105" type="Tree3" gid="11" x="372" y="272" width="192" height="256"/>
  <object id="108" type="Tree3" gid="11" x="432" y="480" width="192" height="256"/>
  <object id="109" type="Tree3" gid="11" x="744" y="236" width="192" height="256"/>
  <object id="112" type="Tree3" gid="11" x="2692" y="358" width="192" height="256"/>
  <object id="113" type="Tree3" gid="11" x="3056" y="760" width="192" height="256"/>
  <object id="114" type="Tree3" gid="11" x="2876" y="728" width="192" height="256"/>
  <object id="115" type="Tree3" gid="11" x="3032" y="1224" width="192" height="256"/>
  <object id="116" type="Tree3" gid="11" x="2984" y="1748" width="192" height="256"/>
  <object id="117" type="Tree3" gid="11" x="3132" y="1676" width="192" height="256"/>
  <object id="124" type="Tree3" gid="11" x="2920" y="2704" width="192" height="256"/>
  <object id="125" type="Tree2" gid="9" x="2952" y="3200" width="192" height="256"/>
  <object id="126" type="Tree2" gid="9" x="2120" y="3168" width="192" height="256"/>
  <object id="127" type="Tree2" gid="9" x="2272" y="3012" width="192" height="256"/>
  <object id="128" type="Tree2" gid="9" x="1682.67" y="3062.67" width="192" height="256"/>
  <object id="129" type="Tree2" gid="9" x="1612" y="3220" width="192" height="256"/>
  <object id="131" type="Tree3" gid="11" x="1222.67" y="2962.67" width="192" height="256"/>
  <object id="132" type="Tree3" gid="11" x="824" y="2968" width="192" height="256"/>
  <object id="133" type="Tree3" gid="11" x="1576" y="3100" width="192" height="256"/>
  <object id="134" type="Tree3" gid="11" x="1197.33" y="3168" width="192" height="256"/>
  <object id="135" type="Tree3" gid="11" x="570.667" y="3169.33" width="192" height="256"/>
  <object id="136" type="Tree3" gid="11" x="230.667" y="2813.33" width="192" height="256"/>
  <object id="137" type="Tree3" gid="11" x="162.667" y="3094.67" width="192" height="256"/>
  <object id="138" type="Tree3" gid="11" x="281.333" y="3202.67" width="192" height="256"/>
  <object id="139" type="Tree3" gid="11" x="1073.33" y="3024" width="192" height="256"/>
  <object id="140" type="Tree3" gid="11" x="1489.33" y="3046.67" width="192" height="256"/>
  <object id="141" type="Tree3" gid="11" x="1944" y="3088" width="192" height="256"/>
  <object id="142" type="Tree3" gid="11" x="2084" y="3208" width="192" height="256"/>
  <object id="143" type="Tree3" gid="11" x="2280" y="3116" width="192" height="256"/>
  <object id="144" type="Tree2" gid="9" x="3060" y="2812" width="192" height="256"/>
  <object id="148" type="Tree3" gid="11" x="2768" y="1624" width="192" height="256"/>
  <object id="149" type="Tree3" gid="11" x="3052" y="1472" width="192" height="256"/>
  <object id="150" type="Tree3" gid="11" x="2916" y="1020" width="192" height="256"/>
  <object id="151" type="Tree3" gid="11" x="3028" y="992" width="192" height="256"/>
  <object id="153" type="Tree4" gid="12" x="3000" y="720" width="192" height="256"/>
  <object id="154" type="Tree4" gid="12" x="2800" y="820" width="192" height="256"/>
  <object id="155" type="Tree4" gid="12" x="3068" y="1300" width="192" height="256"/>
  <object id="158" type="Tree2" gid="9" x="2778" y="1338" width="192" height="256"/>
  <object id="159" type="Tree2" gid="9" x="2857" y="1750" width="192" height="256"/>
  <object id="160" type="Tree2" gid="9" x="2816" y="1856" width="192" height="256"/>
  <object id="162" type="Tree2" gid="9" x="2858.67" y="2562" width="192" height="256"/>
  <object id="165" type="Tree1" gid="10" x="3026" y="1880" width="192" height="256"/>
  <object id="169" type="Tree1" gid="10" x="2936" y="1324" width="192" height="256"/>
  <object id="170" type="Tree1" gid="10" x="2726" y="1140" width="192" height="256"/>
  <object id="171" type="Tree2" gid="9" x="2880" y="992" width="192" height="256"/>
  <object id="172" type="Tree2" gid="9" x="2636" y="960" width="192" height="256"/>
  <object id="173" type="Tree1" gid="10" x="2950" y="854" width="192" height="256"/>
  <object id="174" type="Tree1" gid="10" x="2492" y="858" width="192" height="256"/>
  <object id="175" type="Tree1" gid="10" x="2552" y="672" width="192" height="256"/>
  <object id="177" type="Tree3" gid="11" x="3000" y="570" width="192" height="256"/>
  <object id="178" type="Tree3" gid="11" x="3056" y="172" width="192" height="256"/>
  <object id="179" type="Tree3" gid="11" x="3046" y="358" width="192" height="256"/>
  <object id="181" type="Tree4" gid="12" x="2880" y="422" width="192" height="256"/>
  <object id="182" type="Tree4" gid="12" x="2916" y="208" width="192" height="256"/>
  <object id="184" type="Tree4" gid="12" x="2556" y="390" width="192" height="256"/>
  <object id="185" type="Tree4" gid="12" x="2756" y="154" width="192" height="256"/>
  <object id="187" type="Tree1" gid="10" x="2816" y="266" width="192" height="256"/>
  <object id="188" type="Tree1" gid="10" x="2608" y="218" width="192" height="256"/>
  <object id="189" type="Tree1" gid="10" x="2412" y="180" width="192" height="256"/>
  <object id="190" type="Tree1" gid="10" x="2310" y="300" width="192" height="256"/>
  <object id="194" type="Tree3" gid="11" x="2270" y="182" width="192" height="256"/>
  <object id="196" type="Tree3" gid="11" x="2248" y="416" width="192" height="256"/>
  <object id="197" type="Tree3" gid="11" x="2452" y="524" width="192" height="256"/>
  <object id="199" type="Tree3" gid="11" x="2630" y="496" width="192" height="256"/>
  <object id="201" type="Tree3" gid="11" x="2440" y="286" width="192" height="256"/>
  <object id="203" type="Tree4" gid="12" x="1008" y="354" width="192" height="256"/>
  <object id="204" type="Tree1" gid="10" x="1424" y="338" width="192" height="256"/>
  <object id="205" type="Tree1" gid="10" x="1292" y="156" width="192" height="256"/>
  <object id="207" type="Tree1" gid="10" x="1602" y="148" width="192" height="256"/>
  <object id="209" type="Tree1" gid="10" x="1622" y="408.667" width="192" height="256"/>
  <object id="210" type="Tree1" gid="10" x="832" y="512" width="192" height="256"/>
  <object id="211" type="Tree1" gid="10" x="113.091" y="155.273" width="192" height="256"/>
  <object id="212" type="Tree1" gid="10" x="546.424" y="182.545" width="192" height="256"/>
  <object id="213" type="Tree2" gid="9" x="1344" y="512" width="192" height="256"/>
  <object id="214" type="Tree2" gid="9" x="1110.06" y="164.364" width="192" height="256"/>
  <object id="217" type="Tree1" gid="10" x="1170.67" y="461.333" width="192" height="256"/>
  <object id="218" type="Tree1" gid="10" x="1200.97" y="294.667" width="192" height="256"/>
  <object id="220" type="Tree3" gid="11" x="885.818" y="203.758" width="192" height="256"/>
  <object id="222" type="Tree4" gid="12" x="543.394" y="270.424" width="192" height="256"/>
  <object id="223" type="Tree4" gid="12" x="604" y="485.576" width="192" height="256"/>
  <object id="225" type="Tree4" gid="12" x="13.0909" y="273.455" width="192" height="256"/>
  <object id="226" type="Tree4" gid="12" x="225.212" y="188.606" width="192" height="256"/>
  <object id="227" type="Tree4" gid="12" x="261.576" y="464.364" width="192" height="256"/>
  <object id="228" type="Tree1" gid="10" x="173.697" y="346.182" width="192" height="256"/>
  <object id="230" type="Tree1" gid="10" x="458.545" y="461.333" width="192" height="256"/>
  <object id="231" type="Tree1" gid="10" x="761.576" y="303.758" width="192" height="256"/>
  <object id="232" type="Tree3" gid="11" x="1448.36" y="154.848" width="192" height="256"/>
  <object id="233" type="Tree3" gid="11" x="1496.06" y="449.818" width="192" height="256"/>
  <object id="234" type="Tree3" gid="11" x="976.727" y="470.424" width="192" height="256"/>
  <object id="236" type="Tree3" gid="11" x="746.424" y="403.758" width="192" height="256"/>
  <object id="237" type="Tree3" gid="11" x="1572.73" y="257.758" width="192" height="256"/>
  <object id="239" type="Tree1" gid="10" x="246.424" y="721.939" width="192" height="256"/>
  <object id="240" type="Tree1" gid="10" x="4" y="712.848" width="192" height="256"/>
  <object id="241" type="Tree1" gid="10" x="428.242" y="685.576" width="192" height="256"/>
  <object id="242" type="Tree1" gid="10" x="203.515" y="899.879" width="192" height="256"/>
  <object id="244" type="Tree3" gid="11" x="67.6364" y="876.485" width="192" height="256"/>
  <object id="245" type="Tree3" gid="11" x="49.4545" y="1091.64" width="192" height="256"/>
  <object id="246" type="Tree3" gid="11" x="295.515" y="1108.48" width="192" height="256"/>
  <object id="247" type="Tree3" gid="11" x="335.394" y="1393.45" width="192" height="256"/>
  <object id="248" type="Tree1" gid="10" x="-23.2727" y="1270.42" width="192" height="256"/>
  <object id="249" type="Tree1" gid="10" x="125.576" y="1541.09" width="192" height="256"/>
  <object id="250" type="Tree1" gid="10" x="131.273" y="1291.64" width="192" height="256"/>
  <object id="251" type="Tree1" gid="10" x="338.182" y="1626.67" width="192" height="256"/>
  <object id="253" type="Tree1" gid="10" x="376" y="1041.7" width="192" height="256"/>
  <object id="254" type="Tree1" gid="10" x="362.788" y="842.667" width="192" height="256"/>
  <object id="255" type="Tree1" gid="10" x="-2.06061" y="1597.7" width="192" height="256"/>
  <object id="256" type="Tree1" gid="10" x="197.939" y="1855.27" width="192" height="256"/>
  <object id="259" type="Tree4" gid="12" x="36.1212" y="1832.73" width="192" height="256"/>
  <object id="261" type="Tree2" gid="9" x="343.394" y="1885.58" width="192" height="256"/>
  <object id="262" type="Tree2" gid="9" x="40.3636" y="2079.52" width="192" height="256"/>
  <object id="263" type="Tree2" gid="9" x="305.455" y="1491.52" width="192" height="256"/>
  <object id="264" type="Tree2" gid="9" x="43.3939" y="1370.42" width="192" height="256"/>
  <object id="265" type="Tree2" gid="9" x="210.061" y="1040.12" width="192" height="256"/>
  <object id="266" type="Tree2" gid="9" x="-14.1818" y="921.939" width="192" height="256"/>
  <object id="267" type="Tree3" gid="11" x="-11.6364" y="2705.21" width="192" height="256"/>
  <object id="268" type="Tree3" gid="11" x="36.7273" y="2939.52" width="192" height="256"/>
  <object id="269" type="Tree3" gid="11" x="270.909" y="2108.48" width="192" height="256"/>
  <object id="271" type="Tree3" gid="11" x="404" y="2021.94" width="192" height="256"/>
  <object id="272" type="Tree3" gid="11" x="162.788" y="1988.73" width="192" height="256"/>
  <object id="273" type="Tree1" gid="10" x="113.667" y="1681.33" width="192" height="256"/>
  <object id="275" type="Tree1" gid="10" x="319.667" y="1278.67" width="192" height="256"/>
  <object id="276" type="Tree1" gid="10" x="-38" y="1458" width="192" height="256"/>
  <object id="277" type="Tree1" gid="10" x="196" y="1157" width="192" height="256"/>
  <object id="278" type="Tree1" gid="10" x="-25" y="1083" width="192" height="256"/>
  <object id="279" type="Tree1" gid="10" x="109" y="709" width="192" height="256"/>
  <object id="280" type="Tree1" gid="10" x="-24" y="518" width="192" height="256"/>
  <object id="281" type="Tree1" gid="10" x="195" y="534" width="192" height="256"/>
  <object id="282" type="Tree1" gid="10" x="646.667" y="320" width="192" height="256"/>
  <object id="283" type="Tree1" gid="10" x="705.333" y="489.333" width="192" height="256"/>
  <object id="284" type="Tree1" gid="10" x="913.333" y="353.333" width="192" height="256"/>
  <object id="287" type="Tree3" gid="11" x="1324" y="288" width="192" height="256"/>
  <object id="288" type="Tree3" gid="11" x="1088" y="256" width="192" height="256"/>
  <object id="289" type="Tree3" gid="11" x="970" y="132" width="192" height="256"/>
  <object id="290" type="Tree3" gid="11" x="456" y="120" width="192" height="256"/>
  <object id="291" type="Tree3" gid="11" x="300" y="116" width="192" height="256"/>
  <object id="292" type="Tree3" gid="11" x="678" y="82" width="192" height="256"/>
  <object id="293" type="Tree3" gid="11" x="332" y="432" width="192" height="256"/>
  <object id="296" type="Tree2" gid="9" x="464" y="302" width="192" height="256"/>
  <object id="299" type="Tree3" gid="11" x="545.333" y="726.667" width="192" height="256"/>
  <object id="300" type="Tree3" gid="11" x="704" y="640" width="192" height="256"/>
  <object id="301" type="Tree3" gid="11" x="538.667" y="521.333" width="192" height="256"/>
  <object id="303" type="Tree3" gid="11" x="2750.67" y="2966.67" width="192" height="256"/>
  <object id="304" type="Tree4" gid="12" x="3088" y="3025.33" width="192" height="256"/>
  <object id="305" type="Tree4" gid="12" x="2774.67" y="2754.67" width="192" height="256"/>
  <object id="306" type="Tree4" gid="12" x="3020" y="2629.33" width="192" height="256"/>
  <object id="307" type="Tree1" gid="10" x="2881.33" y="2842.67" width="192" height="256"/>
  <object id="309" type="Tree1" gid="10" x="2688" y="1470.67" width="192" height="256"/>
  <object id="313" type="Tree1" gid="10" x="2634.67" y="1637.33" width="192" height="256"/>
  <object id="315" type="Tree1" gid="10" x="2852.67" y="1558" width="192" height="256"/>
  <object id="318" type="Tree3" gid="11" x="183" y="767" width="192" height="256"/>
  <object id="320" type="Tree4" gid="12" x="322" y="552" width="192" height="256"/>
  <object id="322" type="Tree3" gid="11" x="-48" y="1674" width="192" height="256"/>
  <object id="323" type="Tree3" gid="11" x="-58" y="1922" width="192" height="256"/>
  <object id="325" type="Tree3" gid="11" x="284" y="1693.33" width="192" height="256"/>
  <object id="327" type="Tree3" gid="11" x="203.333" y="1338" width="192" height="256"/>
  <object id="329" type="Tree3" gid="11" x="-48" y="324" width="192" height="256"/>
  <object id="330" type="Tree3" gid="11" x="-18" y="138" width="192" height="256"/>
  <object id="331" type="Tree3" gid="11" x="1088" y="576" width="192" height="256"/>
  <object id="333" type="Tree1" gid="10" x="156" y="2945.33" width="192" height="256"/>
  <object id="334" type="Tree1" gid="10" x="-81.3333" y="2916" width="192" height="256"/>
  <object id="335" type="Tree1" gid="10" x="66.6667" y="3237.33" width="192" height="256"/>
  <object id="336" type="Tree1" gid="10" x="401.333" y="3276" width="192" height="256"/>
  <object id="339" type="Tree1" gid="10" x="869.333" y="3244" width="192" height="256"/>
  <object id="340" type="Tree1" gid="10" x="625.333" y="3234.67" width="192" height="256"/>
  <object id="341" type="Tree1" gid="10" x="556" y="3060" width="192" height="256"/>
  <object id="342" type="Tree1" gid="10" x="898.667" y="3074.67" width="192" height="256"/>
  <object id="343" type="Tree1" gid="10" x="1266.67" y="3050.67" width="192" height="256"/>
  <object id="345" type="Tree1" gid="10" x="1404" y="3260" width="192" height="256"/>
  <object id="346" type="Tree1" gid="10" x="1677.33" y="3252" width="192" height="256"/>
  <object id="348" type="Tree2" gid="9" x="733.333" y="3085.33" width="192" height="256"/>
  <object id="349" type="Tree2" gid="9" x="280" y="3037.33" width="192" height="256"/>
  <object id="353" type="Tree2" gid="9" x="994.667" y="2984" width="192" height="256"/>
  <object id="354" type="Tree2" gid="9" x="1010.67" y="3253.33" width="192" height="256"/>
  <object id="357" type="Tree2" gid="9" x="1825.33" y="3025.33" width="192" height="256"/>
  <object id="358" type="Tree2" gid="9" x="1316" y="3113.33" width="192" height="256"/>
  <object id="360" type="Tree2" gid="9" x="1964" y="3253.33" width="192" height="256"/>
  <object id="362" type="Tree1" gid="10" x="2106.67" y="3022.67" width="192" height="256"/>
  <object id="364" type="Tree1" gid="10" x="2778" y="2412" width="192" height="256"/>
  <object id="366" type="Tree1" gid="10" x="3061.33" y="2556" width="192" height="256"/>
  <object id="405" type="Tree3" gid="11" x="2240" y="3200" width="192" height="256"/>
  <object id="406" type="Tree4" gid="12" x="2858.67" y="3038.67" width="192" height="256"/>
  <object id="408" type="Tree1" gid="10" x="3086.67" y="3260" width="192" height="256"/>
  <object id="410" type="Tree1" gid="10" x="2852" y="3268" width="192" height="256"/>
  <object id="411" type="Tree3" gid="11" x="3002.67" y="3032" width="192" height="256"/>
  <object id="420" type="Tree1" gid="10" x="1704" y="169.333" width="192" height="256"/>
  <object id="422" type="Tree4" gid="12" x="2198.67" y="121.333" width="192" height="256"/>
  <object id="433" type="Tree1" gid="10" x="81.3333" y="2605.33" width="192" height="256"/>
  <object id="434" type="Tree1" gid="10" x="-54.6667" y="2532" width="192" height="256"/>
  <object id="437" type="Tree3" gid="11" x="-99" y="2626" width="192" height="256"/>
  <object id="438" type="Tree3" gid="11" x="-64" y="2112" width="192" height="256"/>
  <object id="457" type="Tree2" gid="9" x="512" y="1728" width="192" height="256"/>
  <object id="458" type="Tree1" gid="10" x="704" y="1792" width="192" height="256"/>
  <object id="462" type="Tree1" gid="10" x="516" y="1905.33" width="192" height="256"/>
  <object id="463" type="Tree1" gid="10" x="706.667" y="1949.33" width="192" height="256"/>
  <object id="464" type="Tree3" gid="11" x="576" y="2001.33" width="192" height="256"/>
 </objectgroup>
 <objectgroup id="3" name="Collision">
  <object id="6" x="0" y="2816" width="64" height="384"/>
  <object id="8" x="2816" y="3008" width="384" height="192"/>
  <object id="13" x="2304" y="0" width="896" height="512"/>
  <object id="371" x="2880" y="1827.33" width="64" height="28.6667"/>
  <object id="373" x="2880" y="512" width="320" height="1280"/>
  <object id="374" x="2816" y="1280" width="64" height="512"/>
  <object id="375" x="2752" y="1344" width="64" height="448"/>
  <object id="376" x="2788" y="1106" width="70.5" height="47"/>
  <object id="377" x="2697.5" y="927" width="65" height="34"/>
  <object id="378" x="2552.5" y="826" width="71" height="35"/>
  <object id="379" x="2462.5" y="646.5" width="58.5" height="31.5"/>
  <object id="380" x="2624" y="512" width="256" height="256"/>
  <object id="381" x="1152.33" y="547.667" width="63.6667" height="29.3333"/>
  <object id="384" x="0" y="512" width="576" height="64"/>
  <object id="385" x="0" y="576" width="512" height="64"/>
  <object id="386" x="0" y="640" width="512" height="1344"/>
  <object id="387" x="99.6667" y="2048.67" width="71" height="34"/>
  <object id="388" x="331.333" y="2083" width="68.3333" height="28"/>
  <object id="389" x="464.333" y="1990" width="69" height="36"/>
  <object id="390" x="222.5" y="1976.5" width="67.5" height="13"/>
  <object id="391" x="611.5" y="694.5" width="67" height="36"/>
  <object id="392" x="771" y="613.5" width="63" height="29"/>
  <object id="397" x="0" y="2688" width="320" height="128"/>
  <object id="404" x="64" y="2816" width="2368" height="384"/>
  <object id="412" x="2816" y="2560" width="384" height="448"/>
  <object id="413" x="2880" y="2368" width="320" height="192"/>
  <object id="414" x="2839.75" y="2380.75" width="41.25" height="32.75"/>
  <object id="423" x="1765.67" y="136.333" width="68" height="33.6667"/>
  <object id="425" x="1664" y="0" width="64" height="384"/>
  <object id="426" x="0" y="0" width="1664" height="448"/>
  <object id="427" x="1686.67" y="380" width="63.6667" height="30.6667"/>
  <object id="428" x="1408" y="484.75" width="64" height="27.25"/>
  <object id="429" x="640" y="1472" width="64" height="64"/>
  <object id="430" x="2624" y="1216" width="64" height="64"/>
  <object id="436" name="Warp" type="ScenePrologue" x="0" y="2112" width="12" height="256"/>
  <object id="440" x="-0.333333" y="2084.33" width="64" height="27.6667"/>
  <object id="441" x="0" y="2368" width="256" height="320"/>
  <object id="442" x="320" y="2752" width="320" height="64"/>
  <object id="444" name="Warp" x="1856" y="0" width="384" height="14.6667"/>
  <object id="445" x="1728" y="0" width="128" height="128"/>
  <object id="446" x="2240" y="0" width="64" height="128"/>
  <object id="447" x="0" y="448" width="960" height="64"/>
  <object id="448" name="Warp" x="3192.67" y="1920" width="7.33333" height="384"/>
  <object id="449" x="3072" y="2304" width="128" height="64"/>
  <object id="450" x="3072" y="1792" width="128" height="128"/>
  <object id="451" x="2944" y="1792" width="128" height="64"/>
  <object id="453" x="960" y="576" width="64" height="64"/>
  <object id="454" x="960" y="512" width="64" height="64"/>
  <object id="465" x="512" y="1536" width="384" height="448"/>
  <object id="469" x="704" y="1344" width="1280" height="320"/>
  <object id="470" x="832" y="1664" width="1088" height="64"/>
  <object id="471" x="832" y="1728" width="1024" height="64"/>
  <object id="472" x="896" y="1792" width="960" height="64"/>
  <object id="473" x="896" y="1856" width="832" height="64"/>
  <object id="474" x="1024" y="1920" width="192"/>
  <object id="475" x="960" y="1920" width="640" height="64"/>
  <object id="476" x="704" y="960" width="1152" height="256"/>
  <object id="477" x="1856" y="1024" width="64" height="192"/>
  <object id="478" x="1920" y="1152" width="64" height="64"/>
  <object id="479" x="768" y="832" width="1088" height="128"/>
  <object id="481" x="832" y="768" width="960" height="64"/>
  <object id="483" x="896" y="704" width="896" height="64"/>
  <object id="484" x="960" y="640" width="768" height="64"/>
  <object id="485" x="896" y="2560" width="1088" height="192"/>
  <object id="486" x="960" y="2496" width="960" height="64"/>
  <object id="487" x="1088" y="2432" width="704" height="64"/>
  <object id="488" x="1984" y="2624" width="64" height="192"/>
  <object id="489" x="896" y="2752" width="1088" height="64"/>
 </objectgroup>
 <objectgroup id="4" name="SpawnPoint">
  <object id="455" name="Melee" type="Light" x="1287.33" y="2165.33">
   <point/>
  </object>
  <object id="456" name="Range" type="Dark" x="1728" y="2048">
   <point/>
  </object>
  <object id="490" name="Range" type="Dark" x="2221.33" y="1101.33">
   <point/>
  </object>
 </objectgroup>
</map>
