<?xml version="1.0" encoding="UTF-8"?>
<map version="1.10" tiledversion="1.11.2" orientation="orthogonal" renderorder="right-down" width="70" height="70" tilewidth="64" tileheight="64" infinite="0" nextlayerid="15" nextobjectid="1003">
 <tileset firstgid="1" source="Grass_Tileset_1.tsx"/>
 <tileset firstgid="17" source="Cliff_Tileset.tsx"/>
 <tileset firstgid="59" source="Water_tileset.tsx"/>
 <tileset firstgid="150" source="Waterfall_Tileset2.tsx"/>
 <tileset firstgid="198" source="Bridge.tsx"/>
 <tileset firstgid="254" source="Tree_1.tsx"/>
 <tileset firstgid="258" source="Stair_Tileset.tsx"/>
 <tileset firstgid="278" source="Path_1.tsx"/>
 <tileset firstgid="282" source="Tree_Shadow.tsx"/>
 <tileset firstgid="284" source="Rock&amp;Bush.tsx"/>
 <layer id="1" name="Floor" width="70" height="70">
  <data encoding="csv">
1,1,1,1,1,1,1,1,1,1,1,1,1,1,1,1,1,1,1,1,1,1,1,1,1,1,1,7,8,6,8,6,7,1,1,1,1,1,1,1,1,1,1,1,1,1,1,1,1,1,1,1,1,1,1,1,1,1,1,1,1,1,1,1,1,1,1,1,1,1,
1,1,1,1,4,6,1,7,4,2,1,1,1,1,1,1,1,1,1,1,1,1,1,1,1,1,1,8,8,7,8,5,6,8,7,5,7,6,1,1,1,1,1,1,1,1,1,1,1,1,1,1,1,1,1,6,7,7,9,9,9,9,1,1,1,1,1,1,1,1,
1,1,1,4,11,12,12,16,11,6,2,1,1,1,1,1,1,1,1,1,1,1,1,1,1,7,8,7,8,6,4,2,2,2,4,4,8,5,7,6,6,8,8,6,5,8,5,6,1,1,1,1,1,9,5,8,8,9,9,6,15,9,5,8,7,6,1,1,1,1,
1,1,1,11,12,16,12,11,16,16,8,1,1,1,1,1,1,1,1,1,1,1,1,1,1,5,4,3,5,4,3,3,4,2,4,4,3,3,3,3,3,4,3,4,2,2,3,7,8,6,8,1,15,9,15,7,9,9,12,12,15,9,5,5,8,7,8,1,1,1,
1,1,1,3,11,11,12,12,11,12,11,1,1,1,1,1,1,1,1,1,1,1,1,1,8,8,1,2,5,1,1,2,1,4,2,1,1,6,3,1,1,3,2,5,1,1,6,2,3,1,4,4,9,3,12,12,9,15,4,4,1,15,12,12,9,8,1,1,1,1,
1,1,1,7,7,1,1,12,12,11,12,1,1,1,1,1,1,1,1,1,1,1,1,1,3,3,1,4,1,1,1,1,2,1,6,2,4,6,2,1,1,1,6,5,5,1,2,4,4,3,1,2,2,1,1,4,1,1,1,1,1,1,9,12,1,8,8,1,1,1,
1,3,8,6,1,1,1,1,12,16,11,1,1,1,1,1,1,1,1,1,1,1,1,1,4,3,1,4,4,1,2,2,2,2,1,2,2,2,1,1,2,1,1,5,2,4,2,3,1,1,2,4,2,2,1,1,1,1,1,1,1,1,1,15,2,8,6,8,1,1,
1,8,8,2,2,3,2,1,4,8,3,1,1,1,1,1,1,1,1,1,1,1,1,1,1,1,3,3,2,3,5,1,4,3,2,1,2,6,2,4,2,3,2,2,3,1,1,6,7,1,4,3,1,3,1,1,1,5,3,1,1,1,1,1,1,3,7,5,1,1,
2,8,6,4,2,3,1,1,6,1,4,2,1,1,1,1,1,1,1,1,1,1,1,1,1,1,1,1,1,1,1,6,6,7,7,7,6,7,3,3,2,3,1,1,1,1,1,1,6,7,1,1,7,2,1,5,7,3,1,1,4,2,4,3,4,2,6,6,7,1,
3,8,6,2,1,1,1,6,1,1,2,4,1,1,1,1,1,1,1,1,1,1,1,1,1,1,1,1,3,3,5,5,8,7,8,5,7,5,1,1,1,1,5,6,5,1,1,1,7,6,1,1,6,1,1,6,1,1,1,1,4,1,1,7,8,7,8,5,5,1,
3,3,3,2,1,1,2,4,1,1,4,2,1,1,1,1,1,1,1,1,1,1,1,1,1,1,1,1,1,1,1,1,1,1,1,1,1,1,1,1,6,5,6,1,1,1,1,1,7,6,7,4,2,1,1,8,1,1,1,3,1,1,7,7,6,8,1,5,8,1,
1,1,1,1,1,1,2,1,1,1,7,1,1,1,1,1,1,1,1,1,1,1,1,1,1,1,1,1,1,1,1,1,1,1,1,1,1,1,1,8,5,1,1,1,1,1,1,6,6,8,6,3,2,1,6,7,1,1,4,4,1,8,5,8,7,1,1,5,6,1,
1,1,7,6,1,1,1,1,1,1,5,4,1,1,1,1,1,1,1,1,1,1,1,1,1,1,1,1,1,1,1,1,1,1,1,1,1,1,8,7,1,1,1,1,5,5,5,5,6,2,4,2,4,1,1,1,1,1,2,1,1,8,7,1,1,1,1,7,1,1,
1,1,1,8,6,1,1,1,1,4,4,7,1,1,1,1,1,1,1,1,1,1,1,1,1,1,1,1,1,1,1,1,1,7,10,12,12,12,10,10,8,5,6,5,8,7,8,1,3,2,2,2,1,1,1,1,1,1,2,11,16,11,8,1,1,1,1,1,1,1,
3,2,3,1,4,1,1,1,1,7,1,1,1,1,1,1,1,1,1,1,1,1,1,1,1,1,1,1,1,1,1,1,5,12,12,10,10,12,12,7,7,8,5,7,5,6,2,4,4,3,2,1,1,1,1,7,3,1,4,14,11,14,14,6,6,1,1,1,1,1,
1,2,3,2,2,1,1,1,7,6,1,1,1,1,1,1,1,1,1,1,1,1,1,1,1,1,1,1,1,1,1,1,7,12,10,10,12,12,2,1,1,1,1,1,1,1,3,1,1,8,3,5,4,2,1,1,1,1,1,1,3,14,11,14,6,1,1,5,6,1,
1,1,1,1,2,3,1,1,1,7,1,1,1,1,1,1,1,1,1,1,1,1,1,1,1,1,1,1,1,1,8,5,12,10,12,10,12,1,1,1,1,1,1,1,4,4,3,8,1,1,1,1,3,6,4,4,2,1,1,1,1,16,11,11,6,5,1,6,5,1,
1,1,1,1,1,4,1,1,2,2,16,14,1,1,1,1,1,1,1,1,1,1,1,1,1,1,1,1,1,8,8,5,12,12,12,1,1,1,1,3,3,4,3,4,1,1,1,6,3,2,7,2,1,4,6,1,3,4,3,1,1,1,11,11,16,6,6,8,5,1,
1,1,1,1,1,3,1,1,6,1,1,16,1,1,1,1,1,1,1,1,1,1,1,1,1,1,1,1,8,5,7,5,3,1,1,1,1,1,3,2,2,1,1,3,3,2,2,3,1,1,1,7,4,3,6,2,2,4,4,4,1,1,2,16,16,11,7,6,1,1,
1,1,1,6,5,3,1,1,6,6,3,2,1,1,1,1,1,1,1,1,1,1,1,1,1,1,1,8,5,5,8,2,1,3,6,5,1,2,3,3,1,1,1,3,3,3,4,3,4,2,1,1,1,1,1,8,3,8,3,2,1,1,3,3,11,11,6,8,1,1,
1,1,1,5,6,2,4,4,7,7,3,2,1,1,1,1,1,1,1,1,1,1,1,1,1,7,8,5,8,5,1,5,1,7,1,1,1,4,3,1,1,1,1,1,1,1,1,2,2,4,2,1,1,1,1,1,8,2,4,3,1,1,1,4,11,11,6,1,1,1,
1,1,16,6,13,14,2,1,1,6,2,3,1,1,1,1,1,1,1,1,1,1,1,1,8,8,5,5,7,1,7,8,2,8,1,1,12,12,1,1,4,2,3,2,1,1,1,1,1,1,3,2,3,1,1,7,8,1,1,1,1,1,1,1,4,1,7,1,1,1,
1,1,5,7,8,16,4,1,4,4,4,14,1,1,1,1,1,1,1,1,1,1,1,1,1,6,2,2,1,1,3,8,7,1,1,2,12,9,12,7,5,6,6,7,2,1,1,1,1,1,1,3,3,1,1,1,3,1,1,4,1,1,1,4,4,1,1,1,1,1,
1,1,1,1,6,7,4,1,8,1,1,4,1,1,1,1,1,1,1,1,1,1,1,1,1,1,2,4,3,7,6,6,8,7,1,12,9,9,6,5,5,5,8,5,3,4,1,1,1,1,1,2,3,3,1,1,1,1,1,1,2,1,1,3,5,8,1,1,1,1,
1,1,1,1,2,5,4,1,1,1,1,13,1,1,1,1,1,1,1,1,1,1,1,1,1,1,3,1,2,1,4,4,4,9,12,12,9,1,2,1,1,1,1,8,8,7,4,1,1,1,7,6,1,2,2,2,1,7,6,1,4,1,1,4,8,1,1,1,1,1,
1,1,1,1,1,5,4,1,1,3,3,3,4,1,1,1,1,1,1,1,1,1,1,1,1,1,2,1,3,1,1,1,4,12,9,1,1,1,1,1,1,1,1,1,7,5,5,2,1,8,7,6,2,3,4,1,3,1,1,1,2,1,1,4,5,1,1,1,1,1,
1,1,1,1,1,5,4,1,7,1,3,3,16,1,1,1,1,1,1,1,1,1,1,1,1,1,4,3,4,1,1,4,4,2,1,1,1,1,1,1,1,1,1,1,1,1,8,7,3,7,4,2,3,4,2,1,3,1,5,3,3,1,1,3,8,1,1,1,1,1,
1,1,1,1,1,7,2,1,4,1,2,4,14,1,1,1,1,1,1,1,1,1,1,1,1,1,3,2,3,1,1,2,2,1,1,1,1,1,1,1,1,1,1,1,1,1,1,6,8,8,3,2,1,3,1,1,2,1,3,4,1,1,2,6,8,1,1,1,1,1,
1,1,1,6,1,14,3,1,2,1,3,4,2,1,1,1,1,1,1,1,1,1,1,1,1,1,3,2,4,8,4,4,1,1,1,1,1,1,1,1,1,1,1,1,1,1,1,1,1,8,1,6,1,1,2,1,1,1,4,2,1,1,6,4,5,6,6,1,1,1,
1,1,1,6,3,6,4,1,4,1,1,2,16,1,1,1,1,1,1,1,1,1,1,1,1,1,4,2,1,1,1,3,1,1,1,1,1,1,1,1,1,1,1,1,1,1,1,1,1,1,1,8,1,1,2,7,1,3,4,1,1,1,7,4,5,5,5,1,1,1,
1,1,1,8,6,5,1,1,2,1,1,3,1,1,1,1,1,1,1,1,1,1,1,1,1,1,4,2,1,1,1,2,6,1,1,1,1,1,1,1,1,1,1,1,1,1,1,1,1,1,1,1,7,2,2,2,1,1,5,1,1,1,1,2,4,8,5,1,1,1,
1,1,5,7,8,2,1,1,7,1,1,4,2,1,1,1,1,1,1,1,1,1,1,1,1,1,3,3,1,4,7,1,2,1,1,1,1,1,1,1,1,1,1,1,1,1,1,1,1,1,1,6,6,3,1,8,1,3,7,3,3,1,1,1,2,4,6,1,1,8,
1,1,6,1,12,5,4,1,5,1,1,4,2,3,1,1,1,1,1,1,1,1,1,1,1,1,2,1,1,1,7,1,7,1,1,1,1,1,1,1,1,1,1,1,1,1,1,1,1,1,7,5,3,1,1,1,2,8,1,2,4,1,1,1,3,7,8,3,1,6,
1,1,1,2,13,12,1,1,1,6,1,3,1,1,1,1,1,1,1,1,1,1,1,1,1,1,1,1,1,1,7,7,5,4,1,1,1,1,1,1,1,1,1,1,1,1,1,1,1,10,7,5,3,1,1,1,1,1,4,3,1,1,1,1,1,5,6,6,7,8,
1,1,1,4,12,12,6,1,1,1,1,6,1,1,1,1,1,1,1,1,1,1,1,1,1,1,1,1,1,1,1,3,6,3,6,1,1,1,1,1,1,1,1,1,1,1,1,1,12,13,2,4,1,1,2,4,3,4,4,2,1,1,1,1,1,8,5,7,8,8,
1,1,1,3,12,12,4,1,1,1,1,1,1,1,1,1,1,1,1,1,1,1,1,1,1,1,3,4,4,1,1,1,1,1,4,2,1,1,1,1,1,13,10,10,13,10,13,12,13,7,1,1,1,1,1,1,1,1,1,1,1,1,1,1,1,1,1,1,1,1,
1,1,1,3,8,13,12,1,1,1,1,1,12,1,1,1,1,1,1,1,1,1,1,1,1,1,1,4,4,7,3,3,1,1,1,2,7,7,5,2,13,12,13,10,12,10,12,13,8,2,1,1,1,1,1,1,1,1,1,1,1,1,1,1,1,1,1,1,1,1,
1,1,3,4,5,12,10,12,1,1,1,12,12,1,1,1,1,1,1,1,1,1,1,1,1,1,1,3,2,7,8,8,7,2,1,1,8,7,6,6,1,10,12,13,13,13,13,1,3,1,1,1,1,1,1,1,1,1,1,1,1,1,1,1,1,1,1,1,1,1,
1,1,3,4,12,12,10,10,12,12,12,10,12,1,1,1,1,1,1,1,1,1,1,1,1,1,5,5,5,7,8,6,6,7,1,1,6,1,1,3,4,7,1,1,13,10,1,2,2,1,1,1,1,1,1,1,1,1,1,1,1,1,1,1,1,1,1,1,1,1,
1,5,10,13,10,12,12,12,10,12,12,10,12,1,1,1,1,1,1,1,1,1,1,1,1,1,1,7,8,7,4,6,6,5,7,6,4,1,1,1,1,1,1,1,1,4,3,3,1,1,1,1,1,12,12,12,3,12,6,6,12,12,1,1,1,1,1,1,1,1,
1,6,12,10,13,13,12,10,12,10,10,12,13,1,1,1,1,1,1,1,1,1,1,1,1,1,3,7,7,8,6,6,8,2,3,6,5,7,7,7,3,3,2,4,4,4,4,4,1,1,12,12,12,12,2,8,2,4,4,7,6,12,1,1,1,6,1,1,1,1,
1,1,1,1,1,1,1,1,1,1,1,1,1,1,1,1,1,1,1,1,1,1,1,1,1,1,1,1,1,1,1,1,1,1,1,1,1,1,1,1,1,1,1,1,1,1,1,1,1,1,12,12,12,12,12,5,6,2,6,6,4,1,1,1,2,7,2,1,1,1,
1,1,1,1,1,1,1,1,1,1,1,1,1,1,1,1,1,1,1,1,1,1,1,1,1,1,1,1,1,1,1,1,1,1,1,1,1,1,1,1,1,1,1,1,1,1,1,1,12,12,12,12,12,7,12,12,12,12,12,4,3,1,1,1,4,7,1,1,1,1,
1,1,1,1,1,1,1,1,1,1,1,1,1,1,1,1,1,1,1,1,1,1,1,1,1,1,1,1,1,1,1,1,1,1,1,1,1,1,1,1,1,1,1,1,1,1,1,1,1,12,12,2,5,5,12,3,1,1,1,2,4,3,1,2,3,6,1,1,1,1,
1,1,1,1,1,1,1,1,1,1,1,1,1,1,1,1,1,1,1,1,1,1,1,1,1,1,1,1,1,1,1,1,1,1,1,1,1,1,1,1,1,1,1,1,1,1,1,6,6,12,6,6,3,8,1,4,4,2,1,2,1,4,1,4,3,8,1,1,1,1,
1,1,1,1,1,1,6,5,1,10,2,1,1,1,1,1,1,1,1,1,1,1,1,1,1,1,1,1,11,12,11,12,12,12,8,11,12,6,8,6,5,8,5,5,6,8,1,6,2,2,2,6,2,1,1,4,3,2,1,1,1,3,1,3,3,8,1,1,1,1,
1,1,1,1,6,7,5,10,13,13,3,1,1,1,1,1,1,1,1,1,1,1,1,1,1,1,1,1,12,11,11,12,11,11,12,12,11,11,8,6,6,11,1,1,1,1,1,3,3,1,1,2,2,1,1,2,3,3,1,1,1,4,1,3,3,8,8,5,5,8,
1,1,1,1,10,13,10,13,10,10,1,1,1,1,1,1,1,1,1,1,1,1,1,1,1,1,1,1,1,1,1,1,1,12,11,11,11,11,12,1,1,1,1,1,1,1,3,3,3,1,1,2,1,1,4,3,4,3,1,1,1,1,1,3,2,8,5,8,1,6,
1,1,1,5,10,13,10,13,10,4,1,1,1,1,1,1,1,1,1,1,1,1,1,1,1,1,1,1,1,1,1,1,1,1,1,1,8,5,8,6,8,1,1,1,8,6,5,3,4,2,3,1,1,1,4,3,4,4,1,1,1,1,3,3,3,7,1,6,8,8,
1,1,1,5,10,10,10,13,4,1,1,1,1,1,1,1,1,1,1,1,1,1,1,1,1,1,1,1,1,1,1,1,1,1,1,1,1,1,1,1,6,6,6,7,7,8,5,4,4,2,1,1,1,1,2,4,3,1,1,1,1,1,2,4,6,6,1,8,5,7,
1,1,5,7,10,6,10,10,3,1,1,1,1,1,1,1,1,1,1,1,1,1,1,1,1,1,1,1,1,1,1,1,1,1,1,1,1,1,1,1,1,1,1,1,1,6,7,4,3,4,1,1,1,1,4,2,2,1,4,1,1,1,4,2,7,5,8,8,7,1,
1,1,1,6,5,5,3,10,1,1,1,1,1,1,1,1,1,1,1,1,1,1,1,1,1,1,1,1,1,1,1,1,1,1,1,1,1,1,1,1,1,1,1,1,1,7,8,4,4,3,1,1,4,1,4,4,1,1,3,1,1,1,4,2,5,8,8,5,7,1,
1,1,1,5,5,4,3,3,1,1,1,1,1,1,1,1,1,1,1,1,1,1,1,1,1,1,1,1,1,1,1,1,1,1,1,1,7,8,1,1,1,1,1,1,1,1,8,7,3,2,1,1,4,1,4,3,1,1,1,4,1,1,2,2,5,1,8,7,5,1,
1,1,1,5,8,4,3,1,1,1,1,1,1,1,1,1,1,1,1,1,1,1,1,1,1,1,1,1,1,1,1,1,1,1,1,1,8,7,8,1,1,1,1,1,1,1,1,5,7,2,1,1,4,1,4,2,1,1,1,2,1,1,2,4,5,1,7,7,8,1,
1,1,1,5,7,4,4,4,1,1,1,1,1,1,1,1,1,1,1,1,1,1,1,1,1,1,1,1,1,1,1,1,1,1,1,1,6,6,6,8,1,1,1,1,1,1,1,1,6,3,4,1,1,1,1,4,1,1,1,3,1,4,4,8,5,7,8,5,1,1,
1,1,1,8,8,6,1,3,1,1,1,1,1,1,1,1,1,1,1,1,1,1,1,1,1,1,1,1,1,1,1,1,1,1,1,1,1,7,8,8,8,1,1,1,1,1,1,1,8,8,3,1,1,1,1,1,1,1,4,1,1,2,4,5,8,5,1,1,1,1,
1,1,1,7,6,5,1,4,4,1,1,1,1,1,1,1,1,1,1,1,1,1,1,1,1,1,1,1,1,1,1,1,1,1,1,1,1,1,1,5,6,6,6,1,1,1,1,1,1,8,3,3,1,1,1,2,4,1,1,1,1,2,4,6,8,5,1,1,1,1,
1,1,1,1,7,8,6,1,3,1,1,1,1,1,1,1,1,1,1,1,1,1,1,1,1,1,1,1,1,1,1,1,1,1,1,1,1,1,1,1,8,8,7,6,1,1,1,1,1,7,3,2,1,1,3,3,4,1,1,1,1,4,2,7,5,6,1,1,1,1,
1,1,1,1,1,8,5,1,3,9,1,1,1,1,1,1,1,1,1,1,1,1,1,1,1,1,1,1,1,1,1,1,1,1,1,1,1,1,1,1,8,8,8,8,8,1,1,1,1,7,3,2,1,1,2,2,2,3,1,1,1,1,2,6,1,1,1,1,1,1,
1,1,1,1,1,8,7,6,3,9,15,2,4,3,1,1,1,1,1,1,1,1,1,1,1,1,1,1,1,1,1,1,1,1,1,1,1,1,1,1,1,5,6,8,7,5,4,4,2,6,4,2,1,1,1,4,3,2,2,1,1,1,2,7,1,1,1,1,1,1,
1,1,1,1,1,1,7,8,1,2,4,3,1,3,3,1,1,1,1,1,1,1,1,1,1,1,1,1,1,1,1,1,1,1,1,1,1,1,1,1,1,1,1,5,8,8,6,8,8,8,4,3,1,1,1,1,1,2,4,1,1,1,2,7,5,1,1,1,1,1,
1,1,1,1,1,1,5,8,5,3,1,2,3,9,15,1,1,1,1,1,1,1,1,1,1,1,1,1,1,1,1,6,15,1,1,1,1,1,1,1,1,1,1,1,1,1,1,1,2,4,1,1,1,1,1,1,1,1,1,1,1,1,2,8,1,11,1,1,1,1,
1,1,1,1,1,1,1,6,8,1,1,1,3,2,2,9,1,1,1,1,1,1,1,1,1,1,1,1,1,1,15,9,9,1,1,1,1,1,1,1,1,1,1,1,4,4,3,2,3,1,1,1,1,1,1,1,1,1,1,1,1,1,4,5,12,11,1,1,1,1,
1,1,1,1,1,1,1,7,1,1,1,2,1,1,2,4,1,16,1,1,1,1,1,1,1,1,1,1,1,8,9,15,4,1,1,1,1,1,1,1,1,1,1,1,1,4,2,4,2,2,4,3,3,2,4,3,2,4,3,4,1,1,2,11,11,12,6,1,1,1,
1,7,5,7,1,1,1,6,1,1,1,4,1,1,1,1,3,3,1,1,1,1,1,1,1,1,1,1,1,6,15,3,2,3,1,1,1,1,1,1,1,1,1,1,1,1,1,1,1,1,1,1,1,3,4,3,4,4,4,2,3,3,11,11,11,5,11,11,8,1,
1,5,7,8,1,1,1,7,1,1,1,4,1,1,1,1,1,4,4,1,1,1,1,1,1,1,1,1,1,3,1,1,4,1,1,1,1,1,1,1,1,1,1,1,1,1,1,1,1,1,1,1,1,1,1,1,1,1,3,4,12,3,12,11,12,12,11,12,8,1,
1,6,7,5,7,1,7,7,1,1,1,2,1,8,8,7,6,8,7,1,1,1,1,1,1,1,1,1,1,4,3,3,2,2,1,1,1,1,1,1,1,1,1,1,1,1,1,1,1,1,1,1,1,1,1,1,1,1,1,1,1,1,1,1,12,12,12,6,8,6,
1,8,8,1,5,6,7,4,1,1,1,2,1,1,6,1,6,7,5,1,1,1,1,1,1,1,1,1,1,1,2,1,4,3,1,1,1,1,1,1,1,1,1,1,1,1,1,1,1,1,1,1,1,1,1,1,1,1,1,1,1,1,1,1,1,1,1,1,1,1,
1,1,1,1,1,1,8,4,1,3,4,3,2,2,1,1,1,1,1,1,1,1,1,1,1,1,1,1,1,1,5,7,6,5,6,5,5,1,8,4,15,4,1,1,1,1,1,1,1,1,1,1,1,1,1,1,1,1,1,1,1,1,1,1,1,1,1,1,1,1,
1,1,1,1,1,1,5,2,1,1,1,6,8,8,1,1,1,1,1,1,1,1,1,1,1,1,1,1,1,7,8,8,6,6,5,8,7,6,5,7,5,7,5,3,1,1,1,1,1,1,1,1,1,1,1,1,1,1,1,1,1,1,1,1,1,1,1,1,1,1
</data>
 </layer>
 <layer id="12" name="Path" width="70" height="70">
  <data encoding="csv">
0,0,0,0,0,0,0,0,0,0,0,0,0,0,0,0,0,0,0,0,0,0,0,0,0,0,0,0,0,0,0,0,0,0,0,0,0,0,0,0,0,0,0,0,0,0,0,0,0,0,0,0,0,0,0,0,0,0,0,0,0,0,0,0,0,0,0,0,0,0,
0,0,0,0,0,0,0,0,0,0,0,0,0,0,0,0,0,0,0,0,0,0,0,0,0,0,0,0,0,0,0,0,0,0,0,0,0,0,0,0,0,0,0,0,0,0,0,0,0,0,0,0,0,0,0,0,0,0,0,0,0,0,0,0,0,0,0,0,0,0,
0,0,0,0,0,0,0,0,0,0,0,0,0,0,0,0,0,0,0,0,0,0,0,0,0,0,0,0,0,0,0,0,0,0,0,0,0,0,0,0,0,0,0,0,0,0,0,0,0,0,0,0,0,0,0,0,0,0,0,0,0,0,0,0,0,0,0,0,0,0,
0,0,0,0,0,0,0,0,0,0,0,0,0,0,0,0,0,0,0,0,0,0,0,0,0,0,0,0,0,0,0,0,0,0,0,0,0,0,0,0,0,0,0,0,0,0,0,0,0,0,0,0,0,0,0,0,0,0,0,0,0,0,0,0,0,0,0,0,0,0,
0,0,0,0,0,0,0,0,0,0,0,0,0,0,0,0,0,0,0,0,0,0,0,0,0,0,0,0,0,0,0,0,0,0,0,0,0,0,0,0,0,0,0,0,0,0,0,0,0,0,0,0,0,0,0,0,0,0,0,0,0,0,0,0,0,0,0,0,0,0,
0,0,0,0,0,0,0,0,0,0,0,0,0,0,0,0,0,0,0,0,0,0,0,0,0,0,0,0,0,0,0,0,0,0,0,0,0,0,0,0,0,0,0,0,0,0,0,0,0,0,0,0,0,0,0,0,0,0,0,0,0,0,0,0,0,0,0,0,0,0,
0,0,0,0,0,0,0,0,0,0,0,0,0,0,0,0,0,0,0,0,0,0,0,0,0,0,0,0,0,0,0,0,0,0,0,0,0,0,0,0,0,0,0,0,0,0,0,0,0,0,0,0,279,0,0,0,0,0,0,0,0,0,0,0,0,0,0,0,0,0,
0,0,0,0,0,0,279,0,0,0,0,0,0,0,0,0,0,0,0,0,0,0,0,0,0,0,0,0,0,0,0,0,0,0,0,0,0,0,0,0,0,0,0,0,0,0,0,0,0,0,0,0,0,0,0,0,0,0,0,0,0,0,0,0,0,0,0,0,0,0,
0,0,0,0,0,0,0,0,0,0,0,0,0,0,0,0,0,0,0,0,0,0,0,0,0,0,0,0,0,0,0,0,0,0,0,0,0,0,0,0,0,0,0,0,0,0,0,0,0,0,0,0,0,0,0,0,0,0,0,0,0,0,0,0,0,0,0,0,0,0,
0,0,0,0,0,0,0,0,0,0,0,0,0,0,0,0,0,0,0,0,0,0,0,0,0,0,0,0,0,0,0,0,0,0,0,0,0,0,0,0,0,0,0,0,0,0,0,0,0,0,0,0,0,0,280,0,0,0,0,0,0,0,0,0,0,0,0,0,0,0,
0,0,0,0,0,0,0,0,0,0,0,0,0,0,0,0,0,0,0,0,0,0,0,0,0,0,0,0,0,0,0,0,0,0,0,0,0,0,0,0,0,0,0,0,0,0,0,0,0,0,0,0,0,0,280,0,0,0,0,0,0,0,0,0,0,0,0,0,0,0,
0,278,281,0,0,0,280,0,0,0,0,0,0,0,0,0,0,0,0,0,0,0,0,0,0,0,0,0,0,0,0,0,0,0,0,0,0,0,0,0,0,0,0,0,0,0,0,0,0,0,0,0,0,0,0,0,0,0,0,0,0,0,0,0,0,0,0,0,0,0,
0,0,0,0,0,0,0,0,0,0,0,0,0,0,0,0,0,0,0,0,0,0,0,0,0,0,0,0,0,0,0,0,0,0,0,0,0,0,0,0,0,0,0,0,0,0,0,0,0,0,0,0,0,0,0,0,0,0,0,0,0,0,0,0,0,0,0,0,0,0,
0,0,281,0,0,0,0,0,0,0,0,0,0,0,0,0,0,0,0,0,0,0,0,0,0,0,0,0,0,0,0,0,0,0,0,0,0,0,0,0,0,0,0,0,0,0,0,0,0,0,0,0,0,279,0,0,0,0,0,0,0,0,0,0,0,0,0,0,0,0,
0,0,281,0,0,0,0,278,0,0,0,0,0,0,0,0,0,0,0,0,0,0,0,0,0,0,0,0,0,0,0,0,0,0,0,0,0,0,0,0,0,0,0,0,0,0,0,0,0,0,0,0,279,280,0,0,0,0,0,0,0,0,0,0,0,0,0,0,0,0,
0,279,278,281,0,0,0,0,0,0,0,0,0,0,0,0,0,0,0,0,0,0,0,0,0,0,0,0,0,0,0,0,0,0,0,0,0,0,0,279,281,0,0,0,0,0,0,280,0,0,0,0,0,0,0,0,0,0,0,0,0,0,0,0,0,0,0,0,0,0,
0,0,0,0,0,0,0,0,0,0,0,0,0,0,0,0,0,0,0,0,0,0,0,0,0,0,0,0,0,0,0,0,0,0,0,0,0,0,0,278,0,0,0,0,0,0,0,0,0,0,0,0,0,0,281,0,0,0,0,0,0,0,0,0,0,0,0,0,0,0,
0,0,0,0,0,0,0,278,0,0,0,0,0,0,0,0,0,0,0,0,0,0,0,0,0,0,0,0,0,0,0,0,0,0,0,0,0,0,0,0,0,0,0,0,0,0,0,0,0,0,0,0,0,0,280,280,0,0,0,0,0,0,0,0,0,0,0,0,0,0,
0,0,0,0,0,0,0,278,0,0,0,0,0,0,0,0,0,0,0,0,0,0,0,0,0,0,0,0,0,0,0,0,0,0,0,0,0,0,0,0,0,0,0,0,0,0,0,0,0,0,0,0,0,0,0,0,0,0,0,0,0,0,0,0,0,0,0,0,0,0,
0,0,0,0,0,0,0,0,0,0,0,0,0,0,0,0,0,0,0,0,0,0,0,0,0,0,0,0,0,0,0,0,0,0,0,280,0,0,0,0,0,0,0,0,0,0,0,0,0,0,0,0,0,0,0,0,0,0,0,0,0,0,0,0,0,0,0,0,0,0,
0,0,0,0,0,0,0,0,0,0,0,0,0,0,0,0,0,0,0,0,0,0,0,0,0,0,0,0,0,0,0,0,0,0,0,0,0,0,0,0,0,0,0,0,0,0,0,0,0,0,0,0,0,0,0,0,0,280,0,0,0,0,0,0,0,0,0,0,0,0,
0,0,0,0,0,0,0,0,0,0,0,0,0,0,0,0,0,0,0,0,0,0,0,0,0,0,0,0,0,0,0,0,0,0,0,0,0,0,0,0,0,0,0,0,0,0,0,0,0,0,0,0,0,0,0,0,0,0,0,0,0,0,0,0,0,0,0,0,0,0,
0,0,0,0,0,0,0,0,279,280,0,0,0,0,0,0,0,0,0,0,0,0,0,0,0,0,0,0,0,0,0,281,281,0,0,0,0,0,0,0,0,0,0,0,0,0,0,0,0,0,0,0,0,0,0,0,0,0,281,0,0,0,0,0,0,0,0,0,0,0,
0,0,0,0,0,0,0,279,0,0,0,0,0,0,0,0,0,0,0,0,0,0,0,0,0,0,0,0,0,0,0,280,0,0,0,0,0,0,0,0,0,0,0,0,0,0,0,0,0,0,0,0,0,0,0,0,0,0,0,0,0,0,0,0,0,0,0,0,0,0,
0,0,0,0,0,0,0,279,0,0,0,0,0,0,0,0,0,0,0,0,0,0,0,0,0,0,0,0,0,0,0,0,0,0,0,0,0,0,0,0,0,0,0,0,0,0,0,0,0,0,0,0,0,0,0,0,0,0,0,0,0,0,0,0,0,0,0,0,0,0,
0,0,0,0,0,0,0,0,0,0,0,0,0,0,0,0,0,0,0,0,0,0,0,0,0,0,0,0,0,0,0,0,0,0,0,0,0,0,0,0,0,0,0,0,0,0,0,0,0,0,0,0,0,0,0,0,0,0,0,0,0,0,0,0,0,0,0,0,0,0,
0,0,0,0,0,0,0,0,0,0,278,0,0,0,0,0,0,0,0,0,0,0,0,0,0,0,0,0,0,281,0,0,0,0,0,0,0,0,0,0,0,0,0,0,0,0,0,0,0,0,0,0,0,0,0,0,280,0,0,0,0,0,0,0,0,0,0,0,0,0,
0,0,0,0,0,0,0,0,0,0,0,0,0,0,0,0,0,0,0,0,0,0,0,0,0,0,0,0,0,0,0,0,0,0,0,0,0,0,0,0,0,0,0,0,0,0,0,0,0,0,0,0,0,0,0,0,0,0,0,0,279,0,0,0,0,0,0,0,0,0,
0,0,0,0,0,0,0,0,0,0,0,0,0,0,0,0,0,0,0,0,0,0,0,0,0,0,0,0,0,0,0,0,0,0,0,0,0,0,0,0,0,0,0,0,0,0,0,0,0,0,0,0,0,0,0,0,0,0,0,0,279,0,0,0,0,0,0,0,0,0,
0,0,0,0,0,0,0,0,0,0,0,0,0,0,0,0,0,0,0,0,0,0,0,0,0,0,0,0,0,0,0,0,0,0,0,0,0,0,0,0,0,0,0,0,0,0,0,0,0,0,0,0,0,0,0,0,281,0,0,0,0,278,0,0,0,0,0,0,0,0,
0,0,0,0,0,0,0,0,279,0,0,0,0,0,0,0,0,0,0,0,0,0,0,0,0,0,0,0,0,278,0,0,0,0,0,0,0,0,0,0,0,0,0,0,0,0,0,0,0,0,0,0,0,0,0,0,0,0,0,0,0,0,0,0,0,0,0,0,0,0,
0,0,0,0,0,0,0,0,278,0,0,0,0,0,0,0,0,0,0,0,0,0,0,0,0,0,0,0,278,0,0,0,0,0,0,0,0,0,0,0,0,0,0,0,0,0,0,0,0,0,0,0,0,0,0,0,0,0,0,0,0,0,0,278,0,0,0,0,0,0,
0,0,0,0,0,0,0,0,0,0,0,0,0,0,0,0,0,0,0,0,0,0,0,0,0,0,0,0,0,0,0,0,0,0,0,0,0,0,0,0,0,0,0,0,0,0,0,0,0,0,0,0,0,0,0,0,0,0,0,278,0,0,0,0,0,0,0,0,0,0,
0,0,0,0,0,0,0,0,0,0,0,279,0,0,0,0,0,0,0,0,0,0,0,0,0,0,0,281,0,0,0,0,0,0,0,0,0,0,0,0,0,0,0,0,0,0,0,0,0,0,0,0,0,0,280,0,0,0,0,0,0,0,0,0,0,0,0,0,0,0,
0,0,0,0,0,0,0,0,0,0,0,0,0,0,0,0,0,0,0,0,0,0,0,0,0,0,0,0,0,0,0,281,0,0,0,0,0,0,0,0,0,0,0,0,0,0,0,0,0,0,0,0,0,0,0,0,0,0,0,0,0,0,0,0,0,0,0,0,0,0,
0,0,0,0,0,0,0,0,0,0,0,0,0,0,0,0,0,0,0,0,0,0,0,0,0,0,0,0,0,0,0,0,0,0,0,0,0,0,0,0,0,0,0,0,0,0,0,0,0,0,0,278,0,0,0,0,0,0,0,0,0,0,0,0,0,0,0,0,0,0,
0,0,0,0,0,0,0,0,0,0,0,0,0,0,0,0,0,0,0,0,0,0,0,0,0,0,0,0,0,0,0,0,0,280,0,0,0,0,0,0,0,0,0,0,0,0,0,0,0,0,0,0,0,0,0,0,0,0,0,0,0,0,0,0,0,0,0,0,0,0,
0,0,0,0,0,0,0,0,278,0,0,0,0,0,0,0,0,0,0,0,0,0,0,0,0,0,0,0,0,0,0,0,0,0,280,279,0,0,0,0,0,0,0,0,0,0,0,0,278,0,0,0,0,0,0,0,0,0,0,0,0,0,0,0,0,0,0,0,0,0,
0,0,0,0,0,0,0,0,0,0,0,0,0,0,0,0,0,0,0,0,0,0,0,0,0,0,0,0,0,0,0,0,0,0,0,0,0,279,280,0,0,0,0,0,0,0,0,0,0,0,0,0,0,0,0,0,0,0,0,0,0,0,0,0,0,0,0,0,0,0,
0,0,0,0,0,0,0,0,0,0,0,0,0,0,0,0,0,0,0,0,0,0,0,0,0,0,0,0,0,0,0,0,0,0,0,0,0,0,0,0,279,0,0,0,0,279,0,0,0,0,0,0,0,0,0,0,0,0,0,0,0,0,0,0,0,0,0,0,0,0,
0,0,0,0,0,0,0,0,0,0,0,0,0,0,0,0,0,0,0,0,0,0,0,0,0,0,0,0,0,0,0,0,0,0,0,0,0,0,0,0,0,0,0,0,0,0,0,0,0,0,0,0,0,0,0,0,0,0,0,0,0,0,0,0,0,0,0,0,0,0,
0,0,0,0,0,0,0,0,0,0,0,0,0,0,0,0,0,0,0,0,0,0,0,0,0,0,0,0,0,0,0,0,0,0,0,0,0,0,0,0,0,0,0,0,0,0,0,0,0,0,0,0,0,0,0,0,0,0,0,0,0,279,0,0,0,0,0,0,0,0,
0,0,0,0,0,0,0,0,0,0,0,0,0,0,0,0,0,0,0,0,0,0,0,0,0,0,0,0,0,0,0,0,0,0,0,0,0,0,0,0,0,0,0,0,0,0,0,0,0,0,0,0,0,0,0,0,0,0,0,0,0,278,0,0,0,0,0,0,0,0,
0,0,0,0,0,0,0,0,0,0,0,0,0,0,0,0,0,0,0,0,0,0,0,0,0,0,0,0,0,0,0,0,0,0,0,0,0,0,0,0,0,0,0,0,0,0,0,0,0,0,0,0,0,0,0,0,0,0,0,0,0,0,0,0,0,0,0,0,0,0,
0,0,0,0,0,0,0,0,0,0,0,0,0,0,0,0,0,0,0,0,0,0,0,0,0,0,0,0,0,0,0,0,0,0,0,0,0,0,0,0,0,0,0,0,0,0,0,0,0,0,0,0,0,0,0,0,0,0,0,0,0,0,0,0,0,0,0,0,0,0,
0,0,0,0,0,0,0,0,0,0,0,0,0,0,0,0,0,0,0,0,0,0,0,0,0,0,0,0,0,0,0,0,0,0,0,0,0,0,0,0,0,0,0,0,0,0,0,0,0,0,0,0,0,0,0,0,0,0,0,279,0,0,0,0,0,0,0,0,0,0,
0,0,0,0,0,0,0,0,0,0,0,0,0,0,0,0,0,0,0,0,0,0,0,0,0,0,0,0,0,0,0,0,278,0,0,0,279,0,281,279,0,0,0,0,0,0,0,0,0,0,0,0,0,281,281,278,0,0,0,0,0,0,0,0,0,0,0,0,0,0,
0,0,0,0,0,0,0,0,0,0,0,0,0,0,0,0,0,0,0,0,0,0,0,0,0,0,0,0,0,0,0,0,0,0,0,0,0,0,0,0,0,0,0,0,0,281,281,0,0,0,0,0,0,0,0,0,0,0,0,0,0,0,0,0,0,0,0,0,0,0,
0,0,0,0,0,0,0,0,0,0,0,0,0,0,0,0,0,0,0,0,0,0,0,0,0,0,0,0,0,0,0,0,0,0,0,0,0,0,0,0,0,0,0,0,0,0,0,0,0,0,0,0,0,0,0,0,0,0,0,281,0,0,0,0,0,0,0,0,0,0,
0,0,0,0,0,0,0,0,0,0,0,0,0,0,0,0,0,0,0,0,0,0,0,0,0,0,0,0,0,0,0,0,0,0,0,0,0,0,0,0,0,0,0,0,0,0,0,0,0,0,0,0,0,0,0,0,0,0,0,0,0,0,278,0,0,0,0,0,0,0,
0,0,0,0,0,0,0,0,0,0,0,0,0,0,0,0,0,0,0,0,0,0,0,0,0,0,0,0,0,0,0,0,0,0,0,0,0,0,0,0,0,0,0,0,0,0,0,0,0,0,0,0,0,0,0,0,0,0,0,279,0,0,0,0,0,0,0,0,0,0,
0,0,0,0,0,0,280,0,0,0,0,0,0,0,0,0,0,0,0,0,0,0,0,0,0,0,0,0,0,0,0,0,0,0,0,0,0,0,0,0,0,0,0,0,0,0,0,0,0,0,0,0,0,0,0,0,0,0,0,0,0,280,0,0,0,0,0,0,0,0,
0,0,0,0,0,0,0,0,0,0,0,0,0,0,0,0,0,0,0,0,0,0,0,0,0,0,0,0,0,0,0,0,0,0,0,0,0,0,0,0,0,0,0,0,0,0,0,0,0,0,0,0,0,0,0,0,0,0,0,0,0,0,0,0,0,0,0,0,0,0,
0,0,0,0,0,0,0,0,0,0,0,0,0,0,0,0,0,0,0,0,0,0,0,0,0,0,0,0,0,0,0,0,0,0,0,0,0,0,0,0,0,0,0,0,0,0,0,0,0,0,0,0,0,0,0,0,0,0,0,0,0,0,0,0,0,0,0,0,0,0,
0,0,0,0,0,0,0,0,0,0,0,0,0,0,0,0,0,0,0,0,0,0,0,0,0,0,0,0,0,0,0,0,0,0,0,0,0,0,0,0,0,0,0,0,0,0,0,0,0,0,0,0,0,0,0,0,0,0,0,0,0,0,0,0,0,0,0,0,0,0,
0,0,0,0,0,0,281,0,0,0,0,0,0,0,0,0,0,0,0,0,0,0,0,0,0,0,0,0,0,0,0,0,0,0,0,0,0,0,0,0,0,0,0,0,0,0,0,0,0,0,0,0,0,0,0,0,0,0,0,0,278,0,278,0,0,0,0,0,0,0,
0,0,0,0,0,0,0,0,0,0,0,0,0,0,0,0,0,0,0,0,0,0,0,0,0,0,0,0,0,0,0,0,0,0,0,0,0,0,0,0,0,0,0,0,0,0,0,0,0,0,0,0,0,0,0,0,0,0,0,0,0,0,0,0,0,0,0,0,0,0,
0,0,0,0,0,0,0,0,0,0,0,0,0,0,0,0,0,0,0,0,0,0,0,0,0,0,0,0,0,0,0,0,0,0,0,0,0,0,0,0,0,0,0,0,0,0,0,0,0,0,0,0,0,0,0,0,0,0,0,0,0,278,0,0,0,0,0,0,0,0,
0,0,0,0,0,0,0,278,0,0,0,0,0,0,0,0,0,0,0,0,0,0,0,0,0,0,0,0,0,0,0,0,0,0,0,0,0,0,0,0,0,0,0,0,0,0,0,0,0,0,0,0,0,0,0,0,0,0,0,0,279,0,0,0,0,0,0,0,0,0,
0,0,0,0,0,0,0,0,0,0,0,0,0,0,0,0,0,0,0,0,0,0,0,0,0,0,0,0,0,0,0,0,0,0,0,0,0,0,0,0,0,0,0,0,0,0,0,0,0,0,0,0,0,0,0,0,0,0,0,0,280,0,0,0,0,0,0,0,0,0,
0,0,0,0,0,0,0,0,280,0,0,0,0,0,0,0,0,0,0,0,0,0,0,0,0,0,0,0,0,0,0,0,0,0,0,0,0,0,0,0,0,0,0,0,0,0,0,0,0,0,0,0,0,0,0,0,0,0,0,0,0,0,0,0,0,0,0,0,0,0,
0,0,0,0,0,0,0,0,0,0,0,0,0,0,0,0,0,0,0,0,0,0,0,0,0,0,0,0,0,0,0,0,0,0,0,0,0,0,0,0,0,0,0,0,0,0,0,0,0,0,0,0,281,0,278,0,0,280,0,0,0,0,0,0,0,0,0,0,0,0,
0,0,0,0,0,0,0,0,0,0,0,0,0,0,0,0,0,0,0,0,0,0,0,0,0,0,0,0,0,0,0,0,0,0,0,0,0,0,0,0,0,0,0,0,0,0,0,0,280,0,0,0,0,0,279,0,0,281,0,0,0,0,0,0,0,0,0,0,0,0,
0,0,0,0,0,0,0,0,0,280,0,0,0,281,0,0,0,0,0,0,0,0,0,0,0,0,0,0,0,0,0,0,0,0,0,0,0,0,0,0,0,0,0,0,0,280,0,0,0,0,0,0,279,0,0,0,0,0,0,0,0,0,0,0,0,0,0,0,0,0,
0,0,0,0,0,0,0,0,0,0,0,0,280,0,0,0,0,0,0,0,0,0,0,0,0,0,0,0,0,0,0,0,0,0,0,0,0,0,0,0,0,0,0,0,0,0,0,0,0,0,0,0,0,0,0,0,0,0,0,0,0,0,0,0,0,0,0,0,0,0,
0,0,0,0,0,0,0,0,0,281,0,0,0,0,0,0,0,0,0,0,0,0,0,0,0,0,0,0,0,0,0,0,0,0,0,0,0,0,0,0,0,0,0,0,0,0,0,0,0,0,0,0,0,0,0,0,0,0,0,0,0,0,0,0,0,0,0,0,0,0,
0,0,0,0,0,0,0,0,278,280,0,0,0,0,0,0,0,0,0,0,0,0,0,0,0,0,0,0,0,0,0,0,0,0,0,0,0,0,0,0,0,0,0,0,0,0,0,0,0,0,0,0,0,0,0,0,0,0,0,0,0,0,0,0,0,0,0,0,0,0,
0,0,0,0,0,0,0,0,0,0,0,0,0,0,0,0,0,0,0,0,0,0,0,0,0,0,0,0,0,0,0,0,0,0,0,0,0,0,0,0,0,0,0,0,0,0,0,0,0,0,0,0,0,0,0,0,0,0,0,0,0,0,0,0,0,0,0,0,0,0,
0,0,0,0,0,0,0,0,0,279,0,0,0,0,0,0,0,0,0,0,0,0,0,0,0,0,0,0,0,0,0,0,0,0,0,0,0,0,0,0,0,0,0,0,0,0,0,0,0,0,0,0,0,0,0,0,0,0,0,0,0,0,0,0,0,0,0,0,0,0,
0,0,0,0,0,0,0,0,0,0,0,0,0,0,0,0,0,0,0,0,0,0,0,0,0,0,0,0,0,0,0,0,0,0,0,0,0,0,0,0,0,0,0,0,0,0,0,0,0,0,0,0,0,0,0,0,0,0,0,0,0,0,0,0,0,0,0,0,0,0
</data>
 </layer>
 <layer id="5" name="Water" width="70" height="70">
  <data encoding="csv">
0,0,0,0,0,0,0,0,0,0,0,1610612810,3758096484,3758096484,87,87,87,87,87,3758096484,87,3758096484,3758096484,2684354634,0,0,0,0,0,0,0,0,0,0,0,0,0,0,0,0,0,0,0,0,0,0,0,0,0,0,0,0,0,0,0,0,0,0,0,0,0,0,0,0,0,0,0,0,0,0,
0,0,0,0,0,0,0,0,0,0,0,1610612810,3758096484,3758096484,87,87,87,3758096484,87,87,3758096484,3758096484,3758096484,2684354634,0,0,0,0,0,0,0,0,0,0,0,0,0,0,0,0,0,0,0,0,0,0,0,0,0,0,0,0,0,0,0,0,0,0,0,0,0,0,0,0,0,0,0,0,0,0,
0,0,0,0,0,0,0,0,0,0,0,1610612810,3758096484,87,3758096484,87,87,87,87,87,3758096484,3758096484,3758096484,2684354634,0,0,0,0,0,0,0,0,0,0,0,0,0,0,0,0,0,0,0,0,0,0,0,0,0,0,0,0,0,0,0,0,0,0,0,0,0,0,0,0,0,0,0,0,0,0,
0,0,0,0,0,0,0,0,0,0,0,1610612810,3758096484,87,87,87,87,87,87,87,3758096484,3758096484,3758096484,2684354634,0,0,0,0,0,0,0,0,0,0,0,0,0,0,0,0,0,0,0,0,0,0,0,0,0,0,0,0,0,0,0,0,0,0,0,0,0,0,0,0,0,0,0,0,0,0,
0,0,0,0,0,0,0,0,0,0,0,1610612810,3758096484,87,87,87,87,87,3758096484,87,87,87,3758096484,2684354634,0,0,0,0,0,0,0,0,0,0,0,0,0,0,0,0,0,0,0,0,0,0,0,0,0,0,0,0,0,0,0,0,0,0,0,0,0,0,0,0,0,0,0,0,0,0,
0,0,0,0,0,0,0,0,0,0,0,1610612810,3758096484,87,87,87,87,87,87,87,87,87,3758096484,2684354634,0,0,0,0,0,0,0,0,0,0,0,0,0,0,0,0,0,0,0,0,0,0,0,0,0,0,0,0,0,0,0,0,0,0,0,0,0,0,0,0,0,0,0,0,0,0,
0,0,0,0,0,0,0,0,0,0,0,1610612810,3758096484,87,87,87,87,87,87,87,87,87,3758096484,2684354634,0,0,0,0,0,0,0,0,0,0,0,0,0,0,0,0,0,0,0,0,0,0,0,0,0,0,0,0,0,0,0,0,0,0,0,0,0,0,0,0,0,0,0,0,0,0,
0,0,0,0,0,0,0,0,0,0,0,1610612810,3758096484,87,87,87,87,87,3758096484,87,87,87,3758096484,2684354634,0,0,0,0,0,0,0,0,0,0,0,0,0,0,0,0,0,0,0,0,0,0,0,0,0,0,0,0,0,0,0,0,0,0,0,0,0,0,0,0,0,0,0,0,0,0,
0,0,0,0,0,0,0,0,0,0,0,1610612810,3758096484,3758096484,87,87,87,87,3758096484,87,87,87,3758096484,2684354634,0,0,0,0,0,0,0,0,0,0,0,0,0,0,0,0,0,0,0,0,0,0,0,0,0,0,0,0,0,0,0,0,0,0,0,0,0,0,0,0,0,0,0,0,0,0,
0,0,0,0,0,0,0,0,0,0,0,1610612809,1610612835,3758096484,87,87,87,87,87,87,87,87,3758096484,2684354659,2684354633,0,0,0,0,0,0,0,0,0,0,0,0,0,0,0,0,0,0,0,0,0,0,0,0,0,0,0,0,0,0,0,0,0,0,0,0,0,0,0,0,0,0,0,0,0,
0,0,0,0,0,0,0,0,0,0,0,0,1610612810,3758096484,87,87,87,3758096484,87,87,87,3758096484,3758096484,3758096484,2684354634,0,0,0,0,0,0,0,0,0,0,0,0,0,0,0,0,0,0,0,0,0,0,0,0,0,0,0,0,0,0,0,0,0,0,0,0,0,0,0,0,0,0,0,0,0,
0,0,0,0,0,0,0,0,0,0,0,0,1610612810,3758096484,3758096484,87,87,87,87,87,87,3758096484,3758096484,3758096484,2684354634,0,0,0,0,0,0,0,0,0,0,0,0,0,0,0,0,0,0,0,0,0,0,0,0,0,0,0,0,0,0,0,0,0,0,0,0,0,0,0,0,0,0,0,0,0,
0,0,0,0,0,0,0,0,0,0,0,0,1610612810,3758096484,3758096484,87,87,87,87,87,87,3758096484,3758096484,3758096484,2684354634,0,0,0,0,0,0,0,0,0,0,0,0,0,0,0,0,0,0,0,0,0,0,0,0,0,0,0,0,0,0,0,0,0,0,0,0,0,0,0,0,0,0,0,0,0,
0,0,0,0,0,0,0,0,0,0,0,0,1610612810,3758096484,3758096484,3758096484,87,87,87,87,87,87,3758096484,3758096484,2684354634,0,0,0,0,0,0,0,0,0,0,0,0,0,0,0,0,0,0,0,0,0,0,0,0,0,0,0,0,0,0,0,0,0,0,0,0,0,0,0,0,0,0,0,0,0,
0,0,0,0,0,0,0,0,0,0,0,0,1610612810,3758096484,3758096484,87,87,87,87,3758096484,87,87,3758096484,3758096484,2684354634,0,0,0,0,0,0,0,0,0,0,0,0,0,0,0,0,0,0,0,0,0,0,0,0,0,0,0,0,0,0,0,0,0,0,0,0,0,0,0,0,0,0,0,0,0,
0,0,0,0,0,0,0,0,0,0,0,0,1610612810,3758096484,87,87,87,87,87,3758096484,87,87,3758096484,3758096484,2684354634,0,0,0,0,0,0,0,0,0,0,0,0,0,0,0,0,0,0,0,0,0,0,0,0,0,0,0,0,0,0,0,0,0,0,0,0,0,0,0,0,0,0,0,0,0,
0,0,0,0,0,0,0,0,0,0,0,0,1610612810,3758096484,87,87,87,87,3758096484,3758096484,87,3758096484,87,3758096484,2684354634,0,0,0,0,0,0,0,0,0,0,0,0,0,0,0,0,0,0,0,0,0,0,0,0,0,0,0,0,0,0,0,0,0,0,0,0,0,0,0,0,0,0,0,0,0,
0,0,0,0,0,0,0,0,0,0,0,0,1610612810,3758096484,87,87,87,87,3758096484,3758096484,3758096484,87,87,3758096484,2684354634,0,0,0,0,0,0,0,0,0,0,0,0,0,0,0,0,0,0,0,0,0,0,0,0,0,0,0,0,0,0,0,0,0,0,0,0,0,0,0,0,0,0,0,0,0,
0,0,0,0,0,0,0,0,0,0,0,0,1610612810,3758096484,87,3758096484,87,87,87,3758096484,87,87,87,3758096484,2684354634,0,0,0,0,0,0,0,0,0,0,0,0,0,0,0,0,0,0,0,0,0,0,0,0,0,0,0,0,0,0,0,0,0,0,0,0,0,0,0,0,0,0,0,0,0,
0,0,0,0,0,0,0,0,0,0,0,0,1610612810,3758096484,87,87,87,3758096484,87,87,87,87,87,3758096484,2684354634,0,0,0,0,0,0,0,0,0,0,0,0,0,0,0,0,0,0,0,0,0,0,0,0,0,0,0,0,0,0,0,0,0,0,0,0,0,0,0,0,0,0,0,0,0,
0,0,0,0,0,0,0,0,0,0,0,0,1610612810,3758096484,3758096484,87,87,87,87,87,87,87,3758096484,3758096484,2684354634,0,0,0,0,0,0,0,0,0,0,0,0,0,0,0,0,0,0,0,0,0,0,0,0,0,0,0,0,0,0,0,0,0,0,0,0,0,0,0,0,0,0,0,0,0,
0,0,0,0,0,0,0,0,0,0,0,0,1610612810,3758096484,3758096484,87,3758096484,87,87,87,87,3758096484,3758096484,3758096484,2684354634,0,0,0,0,0,0,0,0,0,0,0,0,0,0,0,0,0,0,0,0,0,0,0,0,0,0,0,0,0,0,0,0,0,0,0,0,0,0,0,0,0,0,0,0,0,
0,0,0,0,0,0,0,0,0,0,0,0,1610612810,3758096484,3758096484,87,3758096484,87,87,87,87,87,87,3758096484,2684354634,0,0,0,0,0,0,0,0,0,0,0,0,0,0,0,0,0,0,0,0,0,0,0,0,0,0,0,0,0,0,0,0,0,0,0,0,0,0,0,0,0,0,0,0,0,
0,0,0,0,0,0,0,0,0,0,0,0,1610612810,3758096484,87,87,87,87,3758096484,87,87,3758096484,3758096484,3758096484,2684354659,2684354633,0,0,0,0,0,0,0,0,0,0,0,0,0,0,0,0,0,0,0,0,0,0,0,0,0,0,0,0,0,0,0,0,0,0,0,0,0,0,0,0,0,0,0,0,
0,0,0,0,0,0,0,0,0,0,0,0,1610612809,1610612835,3758096484,87,87,87,3758096484,87,87,3758096484,3758096484,3758096484,3758096484,2684354634,0,0,0,0,0,0,0,0,0,0,0,73,74,74,74,74,75,0,0,0,0,0,0,0,0,0,0,0,0,0,0,0,0,0,0,0,0,0,0,0,0,0,0,0,
0,0,0,0,0,0,0,0,0,0,0,0,0,1610612810,3758096484,87,87,87,87,87,87,87,87,87,3758096484,2684354634,0,0,0,0,0,0,0,0,0,73,74,99,113,113,113,100,101,75,0,0,0,0,0,0,0,0,0,0,0,0,0,0,0,0,0,0,0,0,0,0,0,0,0,0,
0,0,0,0,0,0,0,0,0,0,0,0,0,1610612810,3758096484,87,87,3758096484,87,3758096484,87,87,87,87,3758096484,2684354634,0,0,0,0,0,0,0,73,74,99,100,87,113,100,87,100,113,101,74,75,0,0,0,0,0,0,0,0,0,0,0,0,0,0,0,0,0,0,0,0,0,0,0,0,
0,0,0,0,0,0,0,0,0,0,0,0,0,1610612810,3758096484,87,87,3758096484,87,3758096484,87,87,87,87,3758096484,2684354634,0,0,0,0,0,0,73,99,100,113,87,87,87,87,87,100,87,100,113,101,74,75,0,0,0,0,0,0,0,0,0,0,0,0,0,0,0,0,0,0,0,0,0,0,
0,0,0,0,0,0,0,0,0,0,0,0,0,1610612810,3758096484,87,87,3758096484,87,87,3758096484,87,87,87,3758096484,2684354634,0,0,0,0,0,0,86,113,100,87,87,113,87,87,87,87,87,87,87,113,113,88,0,0,0,0,0,0,0,0,0,0,0,0,0,0,0,0,0,0,0,0,0,0,
0,0,0,0,0,0,0,0,0,0,0,0,0,1610612810,3758096484,87,87,87,87,87,87,87,3758096484,87,3758096484,2684354634,0,0,0,0,0,0,125,112,100,100,113,87,87,87,87,87,87,87,87,100,113,88,0,0,0,0,0,0,0,0,0,0,0,0,0,0,0,0,0,0,0,0,0,0,
0,0,0,0,0,0,0,0,0,0,0,0,0,1610612810,3758096484,87,87,87,87,87,87,87,87,87,3758096484,2684354634,0,0,0,0,0,0,0,86,113,113,87,87,87,87,87,87,87,87,113,100,100,88,0,0,0,0,0,0,0,0,0,0,0,0,0,0,0,0,0,0,0,0,0,0,
0,0,0,0,0,0,0,0,0,0,0,0,0,1610612810,3758096484,87,87,87,87,3758096484,3758096484,87,87,87,3758096484,2684354634,0,0,0,0,0,0,0,86,113,113,87,87,87,87,87,87,113,113,113,113,113,127,0,0,0,0,0,0,0,0,0,0,0,0,0,0,0,0,0,0,0,0,0,0,
0,0,0,0,0,0,0,0,0,0,0,0,0,1610612810,3758096484,3758096484,3758096484,3758096484,87,87,87,87,87,87,3758096484,2684354634,0,0,0,0,0,0,0,125,112,113,87,87,100,113,100,113,100,100,113,114,127,0,0,0,0,0,0,0,0,0,0,0,0,0,0,0,0,0,0,0,0,0,0,0,
0,0,0,0,0,0,0,0,0,0,0,0,0,1610612810,3758096484,3758096484,3758096484,3758096484,3758096484,87,87,87,87,3758096484,3758096484,2684354634,0,0,0,0,0,0,0,0,86,100,87,87,100,113,113,100,114,126,126,127,0,0,0,0,0,0,0,0,0,0,0,0,0,0,0,0,0,0,0,0,0,0,0,0,
0,0,0,0,0,0,0,0,0,0,0,0,0,1610612810,3758096484,3758096484,87,3758096484,3758096484,87,3758096484,3758096484,3758096484,3758096484,3758096484,2684354634,0,0,0,0,0,0,0,0,125,126,112,113,100,113,114,126,127,0,0,0,0,0,0,0,0,0,0,0,0,0,0,0,0,0,0,0,0,0,0,0,0,0,0,0,
0,0,0,0,0,0,0,0,0,0,0,0,0,1610612810,3758096484,3758096484,87,3758096484,3758096484,3758096484,3758096484,3758096484,3758096484,87,3758096484,2684354634,0,0,0,0,0,0,0,0,0,0,125,126,126,126,127,0,0,0,0,0,0,0,0,0,0,0,0,0,0,0,0,0,0,0,0,0,0,0,0,0,0,0,0,0,
0,0,0,0,0,0,0,0,0,0,0,0,0,1610612810,3758096484,3758096484,87,3758096484,87,3758096484,3758096484,87,3758096484,87,3758096484,2684354634,0,0,0,0,0,0,0,0,0,0,0,0,0,0,0,0,0,0,0,0,0,0,0,0,0,0,0,0,0,0,0,0,0,0,0,0,0,0,0,0,0,0,0,0,
0,0,0,0,0,0,0,0,0,0,0,0,0,1610612810,3758096484,3758096484,87,87,87,87,87,87,87,87,3758096484,2684354634,0,0,0,0,0,0,0,0,0,0,0,0,0,0,0,0,0,0,0,0,0,0,0,0,0,0,0,0,0,0,0,0,0,0,0,0,0,0,0,0,0,0,0,0,
0,0,0,0,0,0,0,0,0,0,0,0,0,1610612810,3758096484,87,87,87,87,3758096484,3758096484,87,87,3758096484,3758096484,2684354634,0,0,0,0,0,0,0,0,0,0,0,0,0,0,0,0,0,0,0,0,0,0,0,0,0,0,0,0,0,0,0,0,0,0,0,0,0,0,0,0,0,0,0,0,
0,0,0,0,0,0,0,0,0,0,0,0,0,1610612810,3758096484,87,87,87,87,3758096484,3758096484,87,87,3758096484,3758096484,2684354634,0,0,0,0,0,0,0,0,0,0,0,0,0,0,0,0,0,0,0,0,0,0,0,0,0,0,0,0,0,0,0,0,0,0,0,0,0,0,0,0,0,0,0,0,
0,0,0,0,0,0,0,0,0,0,0,0,0,1610612810,3758096484,3758096484,3758096484,3758096484,3758096484,3758096484,3758096484,3758096484,3758096484,3758096484,3758096484,2684354634,0,0,0,0,0,0,0,0,0,0,0,0,0,0,0,0,0,0,0,0,0,0,0,0,0,0,0,0,0,0,0,0,0,0,0,0,0,0,0,0,0,0,0,0,
0,0,0,0,0,0,0,0,0,0,0,0,0,0,0,0,0,0,0,0,0,0,0,0,0,0,0,0,0,0,0,0,0,0,0,0,0,0,0,0,0,0,0,0,0,0,0,0,0,0,0,0,0,0,0,0,0,0,0,0,0,0,0,0,0,0,0,0,0,0,
0,0,0,0,0,0,0,0,0,0,0,0,0,0,0,0,0,0,0,0,0,0,0,0,0,0,0,0,0,0,0,0,0,0,0,0,0,0,0,0,0,0,0,0,0,0,0,0,0,0,0,0,0,0,0,0,0,0,0,0,0,0,0,0,0,0,0,0,0,0,
0,0,0,0,0,0,0,0,0,0,0,0,0,167,167,167,167,167,167,167,167,167,167,0,0,0,0,0,0,0,0,0,0,0,0,0,0,0,0,0,0,0,0,0,0,0,0,0,0,0,0,0,0,0,0,0,0,0,0,0,0,0,0,0,0,0,0,0,0,0,
0,0,0,0,0,0,0,0,0,0,0,100,100,100,100,100,100,0,0,0,0,0,0,0,0,0,0,0,0,0,0,0,0,0,0,0,0,0,0,0,0,0,0,0,0,0,0,0,0,0,0,0,0,0,0,0,0,0,0,0,0,0,0,0,0,0,0,0,0,0,
0,0,0,0,0,0,0,0,0,0,0,73,100,100,0,0,100,100,100,0,0,0,0,0,0,100,100,75,0,0,0,0,0,0,0,0,0,0,0,0,0,0,0,0,0,0,0,0,0,0,0,0,0,0,0,0,0,0,0,0,0,0,0,0,0,0,0,0,0,0,
0,0,0,0,0,0,0,0,0,0,73,99,100,100,100,100,100,100,100,100,100,100,100,87,100,100,100,88,0,0,0,0,0,0,0,0,0,0,0,0,0,0,0,0,0,0,0,0,0,0,0,0,0,0,0,0,0,0,0,0,0,0,0,0,0,0,0,0,0,0,
0,0,0,0,0,0,0,0,0,0,86,100,100,100,100,87,87,100,87,87,100,100,100,87,87,87,100,101,74,74,74,74,75,0,0,0,0,0,0,0,0,0,0,0,0,0,0,0,0,0,0,0,0,0,0,0,0,0,0,0,0,0,0,0,0,0,0,0,0,0,
0,0,0,0,0,0,0,0,0,73,99,100,100,87,100,87,87,87,100,87,87,87,100,87,87,100,87,100,100,100,100,100,101,75,0,0,0,0,0,0,0,0,0,0,0,0,0,0,0,0,0,0,0,0,0,0,0,0,0,0,0,0,0,0,0,0,0,0,0,0,
0,0,0,0,0,0,0,0,73,99,100,100,87,87,87,87,87,87,87,87,100,100,87,87,87,87,100,87,87,100,100,100,100,101,75,0,0,0,0,0,0,0,0,0,0,0,0,0,0,0,0,0,0,0,0,0,0,0,0,0,0,0,0,0,0,0,0,0,0,0,
0,0,0,0,0,0,0,0,86,100,100,100,87,87,100,100,87,100,87,87,87,87,87,87,87,100,100,100,87,87,100,100,100,100,88,0,0,0,0,0,0,0,0,0,0,0,0,0,0,0,0,0,0,0,0,0,0,0,0,0,0,0,0,0,0,0,0,0,0,0,
0,0,0,0,0,0,0,0,86,100,100,100,87,87,87,100,87,87,87,87,87,87,87,87,87,87,87,87,87,87,87,87,100,100,101,75,0,0,0,0,0,0,0,0,0,0,0,0,0,0,0,0,0,0,0,0,0,0,0,0,0,0,0,0,0,0,0,0,0,0,
0,0,0,0,0,0,0,0,86,100,100,100,100,87,87,87,87,87,87,87,87,87,87,87,87,87,87,87,87,87,87,100,100,100,100,88,0,0,0,0,0,0,0,0,0,0,0,0,0,0,0,0,0,0,0,0,0,0,0,0,0,0,0,0,0,0,0,0,0,0,
0,0,0,0,0,0,0,73,99,100,100,100,87,87,100,100,100,87,87,87,87,87,87,100,87,87,87,87,87,87,87,87,100,100,100,88,0,0,0,0,0,0,0,0,0,0,0,0,0,0,0,0,0,0,0,0,0,0,0,0,0,0,0,0,0,0,0,0,0,0,
0,0,0,0,0,0,0,125,112,100,100,100,87,87,87,100,87,87,87,87,87,87,87,87,87,87,87,100,100,87,87,87,87,100,100,101,75,0,0,0,0,0,0,0,0,0,0,0,0,0,0,0,0,0,0,0,0,0,0,0,0,0,0,0,0,0,0,0,0,0,
0,0,0,0,0,0,0,0,86,100,100,87,100,87,87,87,87,87,87,87,87,87,87,87,87,87,87,87,87,87,87,87,87,100,100,100,101,75,0,0,0,0,0,0,0,0,0,0,0,0,0,0,0,0,0,0,0,0,0,0,0,0,0,0,0,0,0,0,0,0,
0,0,0,0,0,0,0,0,125,112,100,87,87,100,87,100,87,87,87,87,87,87,87,87,87,87,87,87,87,87,100,87,87,87,100,100,100,101,75,0,0,0,0,0,0,0,0,0,0,0,0,0,0,0,0,0,0,0,0,0,0,0,0,0,0,0,0,0,0,0,
0,0,0,0,0,0,0,0,0,125,112,100,100,87,87,87,87,87,87,87,87,87,87,87,87,87,87,87,87,87,87,87,100,87,87,87,100,100,101,75,0,0,0,0,0,0,0,0,0,0,0,0,0,0,0,0,0,0,0,0,0,0,0,0,0,0,0,0,0,0,
0,0,0,0,0,0,0,0,0,0,125,112,100,100,100,87,100,100,87,100,87,87,87,87,87,87,100,87,87,87,100,100,100,87,87,87,100,100,100,101,75,0,0,0,0,0,0,0,0,0,0,0,0,0,0,0,0,0,0,0,0,0,0,0,0,0,0,0,0,0,
0,0,0,0,0,0,0,0,0,0,0,125,112,100,100,100,87,87,87,87,100,87,100,100,87,87,87,87,87,87,100,87,87,87,100,87,87,100,100,100,101,75,0,0,0,0,0,0,0,0,0,0,0,0,0,0,0,0,0,0,0,0,0,0,0,0,0,0,0,0,
0,0,0,0,0,0,0,0,0,0,0,0,125,126,126,112,100,100,87,87,100,87,87,87,87,87,87,100,114,126,126,126,126,112,87,100,87,87,100,100,100,101,75,0,0,0,0,0,0,0,0,0,0,0,0,0,0,0,0,0,0,0,0,0,0,0,0,0,0,0,
0,0,0,0,0,0,0,0,0,0,0,0,0,0,0,125,112,100,100,100,87,87,87,87,87,87,100,100,88,0,0,0,0,86,87,87,87,87,87,100,100,100,101,75,0,0,0,0,0,0,0,0,0,0,0,0,0,0,0,0,0,0,0,0,0,0,0,0,0,0,
0,0,0,0,0,0,0,0,0,0,0,0,0,0,0,0,125,126,112,100,87,87,100,100,87,87,100,100,88,0,0,0,0,112,100,100,87,100,87,87,100,100,100,101,0,0,0,0,0,0,0,0,0,0,0,0,0,0,0,0,0,0,0,0,0,0,0,0,0,0,
0,0,0,0,0,0,0,0,0,0,0,0,0,0,0,0,0,0,125,112,100,100,87,87,87,87,87,100,88,0,0,0,0,0,112,100,100,100,100,100,100,100,100,100,0,0,0,0,0,0,0,0,0,0,0,0,0,0,0,0,0,0,0,0,0,0,0,0,0,0,
0,0,0,0,0,0,0,0,0,0,0,0,0,0,0,0,0,0,0,86,100,100,87,87,87,87,87,100,88,0,0,0,0,125,126,112,100,100,100,100,100,87,100,88,0,0,0,0,0,0,0,0,0,0,0,0,0,0,0,0,0,0,0,0,0,0,0,0,0,0,
0,0,0,0,0,0,0,0,0,0,0,0,0,0,0,0,0,0,0,86,100,100,87,87,87,87,100,100,88,0,0,0,0,0,0,125,126,112,100,100,100,87,87,101,74,74,74,74,74,74,74,74,74,74,74,74,75,0,0,0,0,0,0,0,0,0,0,0,0,0,
0,0,0,0,0,0,0,0,0,0,0,0,0,0,0,0,0,0,0,86,100,100,87,87,87,87,100,100,88,0,0,0,0,0,0,0,0,125,112,100,100,100,100,100,100,100,87,87,87,100,100,100,100,100,100,100,101,74,74,74,74,74,74,75,0,0,0,0,0,0,
0,0,0,0,0,0,0,0,0,0,0,0,0,0,0,0,0,0,0,86,100,100,87,87,87,100,100,100,88,0,0,0,0,0,0,0,0,0,125,126,126,112,100,100,100,100,87,87,87,87,87,87,87,87,100,100,100,100,100,100,100,100,100,101,74,74,74,74,74,74,
0,0,0,0,0,0,0,0,0,0,0,0,0,0,0,0,0,0,0,86,100,100,87,87,87,100,100,100,88,0,0,0,0,0,0,0,0,0,0,0,0,125,126,112,100,100,100,87,87,87,87,87,87,87,87,87,87,87,87,100,100,100,100,100,100,100,100,100,100,100,
0,0,0,0,0,0,0,0,0,0,0,0,0,0,0,0,0,0,0,86,100,100,100,100,100,100,100,100,88,0,0,0,0,0,0,0,0,0,0,0,0,0,0,86,100,100,100,100,100,87,87,87,87,87,100,87,87,87,87,87,87,87,87,100,87,100,100,100,100,100
</data>
 </layer>
 <layer id="8" name="Cliff Shadow" width="70" height="70">
  <data encoding="csv">
0,0,0,0,0,0,0,0,0,0,0,0,0,0,0,0,0,0,0,0,0,0,0,0,0,0,0,0,0,0,0,0,0,0,0,0,0,0,0,0,0,0,0,0,0,0,0,0,0,0,0,0,0,0,0,0,0,0,0,0,0,0,0,0,0,0,0,0,0,0,
0,0,0,0,0,0,0,0,0,0,0,0,0,0,0,0,0,0,0,0,0,0,0,0,0,0,0,0,0,0,0,0,0,0,0,0,0,0,0,0,0,0,0,0,0,0,0,0,0,0,0,0,0,0,0,0,0,0,0,0,0,0,0,0,0,0,0,0,0,0,
0,0,0,0,0,0,0,0,0,0,0,0,0,0,0,0,0,0,0,0,0,0,0,0,0,0,0,0,0,0,0,0,0,0,0,0,0,0,0,0,0,0,0,0,0,0,0,0,0,0,0,0,0,0,0,0,0,0,0,0,0,0,0,0,0,0,0,0,0,0,
0,0,0,0,0,0,0,0,0,0,0,0,0,0,0,0,0,0,0,0,0,0,0,0,0,0,0,0,0,0,0,0,0,0,0,0,0,0,0,0,0,0,0,0,0,0,0,0,0,0,0,0,0,0,0,0,0,0,0,0,0,0,0,0,0,0,0,0,0,0,
0,0,0,0,0,0,0,0,0,0,0,0,0,0,0,0,0,0,0,0,0,0,0,0,0,0,0,0,0,0,0,0,0,0,0,0,0,0,0,0,0,0,0,0,0,0,0,0,0,0,0,0,0,0,0,0,0,0,0,0,0,0,0,0,0,0,0,0,0,0,
0,0,0,0,0,0,0,0,0,0,0,0,0,0,0,0,0,0,0,0,0,0,0,0,0,0,0,0,0,0,0,0,0,0,0,0,0,0,0,0,0,0,0,0,0,0,0,0,0,0,0,0,0,0,0,0,0,0,0,0,0,0,0,0,0,0,0,0,0,0,
0,0,0,0,0,0,0,0,0,0,0,0,0,0,0,0,0,0,0,0,0,0,0,0,0,0,0,0,0,0,0,0,0,0,0,0,0,0,0,0,0,0,0,0,0,0,0,0,0,0,0,0,0,0,0,0,0,0,0,0,0,0,0,0,0,0,0,0,0,0,
0,0,0,0,0,0,0,0,0,0,0,0,0,0,0,0,0,0,0,0,0,0,0,0,0,0,0,0,0,0,0,0,0,0,0,0,0,0,0,0,0,0,0,0,0,0,0,0,0,0,0,0,0,0,0,0,0,0,0,0,0,0,0,0,0,0,0,0,0,0,
0,0,0,0,0,0,0,0,0,0,0,0,0,0,0,0,0,0,0,0,0,0,0,0,0,0,0,0,0,0,0,0,0,0,0,0,0,0,0,0,0,0,0,0,0,0,0,0,0,0,0,0,0,0,0,0,0,0,0,0,0,0,0,0,0,0,0,0,0,0,
0,0,0,0,0,0,0,0,0,0,0,0,0,0,0,0,0,0,0,0,0,0,0,0,0,0,0,0,0,0,0,0,0,0,0,0,0,0,0,0,0,0,0,0,0,0,0,0,0,0,0,0,0,0,0,0,0,0,0,0,0,0,0,0,0,0,0,0,0,0,
0,0,0,0,0,0,0,0,0,0,0,0,0,0,0,0,0,0,0,0,0,0,0,0,0,0,0,0,0,0,0,0,0,0,0,0,0,0,0,0,0,0,0,0,0,0,0,0,0,0,0,0,0,0,0,0,0,0,0,0,0,0,0,0,0,0,0,0,0,0,
0,0,0,0,0,0,0,0,0,0,0,0,0,0,0,0,0,0,0,0,0,0,0,0,0,0,0,0,0,0,0,0,0,0,0,0,0,0,0,0,0,0,0,0,0,0,0,0,0,0,0,0,0,0,0,0,0,0,0,0,0,0,0,0,0,0,0,0,0,0,
0,0,0,0,0,0,0,0,0,0,0,0,0,0,0,0,0,0,0,0,0,0,0,0,0,0,0,0,0,0,0,0,0,0,0,0,0,0,0,0,0,0,0,0,0,0,0,0,0,0,0,0,0,0,0,0,0,0,0,0,0,0,0,0,0,0,0,0,0,0,
0,0,0,0,0,0,0,0,0,0,0,0,0,0,0,0,0,0,0,0,0,0,0,0,0,0,0,0,0,0,0,0,0,0,0,0,0,0,0,0,0,0,0,0,0,0,0,0,0,0,0,0,0,0,0,0,0,0,0,0,0,0,0,0,0,0,0,0,0,0,
0,0,0,0,0,0,0,0,0,0,0,0,0,0,0,0,0,0,0,0,0,0,0,0,0,0,0,0,0,0,0,0,0,0,0,0,0,0,0,0,0,0,0,0,0,0,0,0,0,0,0,0,0,0,0,0,0,0,0,0,0,0,0,0,0,0,0,0,0,0,
0,0,0,0,0,0,0,0,0,0,0,0,0,0,0,0,0,0,0,0,0,0,0,0,0,0,0,0,0,0,0,0,0,0,0,0,0,0,0,0,0,0,0,0,0,0,0,0,0,0,0,0,0,0,0,0,0,0,0,0,0,0,0,0,0,0,0,0,0,0,
0,0,0,0,0,0,0,0,0,0,0,0,0,0,0,0,0,0,0,0,0,0,0,0,0,0,0,0,0,0,0,0,0,0,0,0,0,0,0,0,0,0,0,0,0,0,0,0,0,0,0,0,0,0,0,0,0,0,0,0,0,0,0,0,0,0,0,0,0,0,
0,0,0,0,0,0,0,0,0,0,0,0,0,0,0,0,0,0,0,0,0,0,0,0,0,0,0,0,0,0,0,0,0,0,0,0,0,0,0,0,0,0,0,0,0,0,0,0,0,0,0,0,0,0,0,0,0,0,0,0,0,0,0,0,0,0,0,0,0,0,
0,0,0,0,0,0,0,0,0,0,0,0,0,0,0,0,0,0,0,0,0,0,0,0,0,0,0,0,0,0,0,0,0,0,0,0,0,0,0,0,0,0,0,0,0,0,0,0,0,0,0,0,0,0,0,0,0,0,0,0,0,0,0,0,0,0,0,0,0,0,
0,0,0,0,0,0,0,0,0,0,0,0,0,0,0,0,0,0,0,0,0,0,0,0,0,0,0,0,0,0,0,0,0,0,0,0,0,0,0,0,0,0,0,0,0,0,0,0,0,0,0,0,0,0,0,0,0,0,0,0,0,0,0,0,0,0,0,0,0,0,
0,0,0,0,0,0,0,0,0,0,0,0,0,0,0,0,0,0,0,0,0,0,0,0,0,0,0,0,0,0,0,0,0,0,0,0,0,0,0,0,0,0,0,0,0,0,0,0,0,0,0,0,0,0,0,0,0,0,0,0,0,0,0,0,0,0,0,0,0,0,
0,0,0,0,0,0,0,0,0,0,0,0,0,0,0,0,0,0,0,0,0,0,0,0,0,0,0,0,0,0,0,0,0,0,0,0,0,0,0,0,0,0,0,0,0,0,0,0,0,0,0,0,0,0,0,0,0,0,0,0,0,0,0,0,0,0,0,0,0,0,
0,0,0,0,0,0,0,0,0,0,0,0,0,0,0,0,0,0,0,0,0,0,0,0,0,0,0,0,0,0,0,0,0,0,0,0,0,0,0,0,0,0,0,0,0,0,0,0,0,0,0,0,0,0,0,0,0,0,0,0,0,0,0,0,0,0,0,0,0,0,
0,0,0,0,0,0,0,0,0,0,0,0,0,0,0,0,0,0,0,0,0,0,0,0,0,0,0,0,0,0,0,0,0,0,0,0,0,0,0,0,0,0,0,0,0,0,0,0,0,0,0,0,0,0,0,0,0,0,0,0,0,0,0,0,0,0,0,0,0,0,
0,0,0,0,0,0,0,0,0,0,0,0,0,0,0,0,0,0,0,0,0,0,0,0,0,0,0,0,0,0,0,0,0,0,0,0,0,0,0,0,0,0,0,0,0,0,0,0,0,0,0,0,0,0,0,0,0,0,0,0,0,0,0,0,0,0,0,0,0,0,
0,0,0,0,0,0,0,0,0,0,0,0,0,0,0,0,0,0,0,0,0,0,0,0,0,0,0,0,0,0,0,0,0,0,0,0,0,0,0,0,0,0,0,0,0,0,0,0,0,0,0,0,0,0,0,0,0,0,0,0,0,0,0,0,0,0,0,0,0,0,
0,0,0,0,0,0,0,0,0,0,0,0,0,0,0,0,0,0,0,0,0,0,0,0,0,0,0,0,0,0,0,0,0,0,0,0,0,0,0,0,0,0,0,0,0,0,0,0,0,0,0,0,0,0,0,0,0,0,0,0,0,0,0,0,0,0,0,0,0,0,
0,0,0,0,0,0,0,0,0,0,0,0,0,0,0,0,0,0,0,0,0,0,0,0,0,0,0,0,0,0,0,0,0,0,0,0,0,0,0,0,0,0,0,0,0,0,0,0,0,0,0,0,0,0,0,0,0,0,0,0,0,0,0,0,0,0,0,0,0,0,
0,0,0,0,0,0,0,0,0,0,0,0,0,0,0,0,0,0,0,0,0,0,0,0,0,0,0,0,0,0,0,0,0,0,0,0,0,0,0,0,0,0,0,0,0,0,0,0,0,0,0,0,0,0,0,0,0,0,0,0,0,0,0,0,0,0,0,0,0,0,
0,0,0,0,0,0,0,0,0,0,0,0,0,0,0,0,0,0,0,0,0,0,0,0,0,0,0,0,0,0,0,0,0,0,0,0,0,0,0,0,0,0,0,0,0,0,0,0,0,0,0,0,0,0,0,0,0,0,0,0,0,0,0,0,0,0,0,0,0,0,
0,0,0,0,0,0,0,0,0,0,0,0,0,0,0,0,0,0,0,0,0,0,0,0,0,0,0,0,0,0,0,0,0,0,0,0,0,0,0,0,0,0,0,0,0,0,0,0,0,0,0,0,0,0,0,0,0,0,0,0,0,0,0,0,0,0,0,0,0,0,
0,0,0,0,0,0,0,0,0,0,0,0,0,0,0,0,0,0,0,0,0,0,0,0,0,0,0,0,0,0,0,0,0,0,0,0,0,0,0,0,0,0,0,0,0,0,0,0,0,0,0,0,0,0,0,0,0,0,0,0,0,0,0,0,0,0,0,0,0,0,
0,0,0,0,0,0,0,0,0,0,0,0,0,0,0,0,0,0,0,0,0,0,0,0,0,0,0,0,0,0,0,0,0,0,0,0,0,0,0,0,0,0,0,0,0,0,0,0,0,0,0,0,0,0,0,0,0,0,0,0,0,0,0,0,0,0,0,0,0,0,
0,0,0,0,0,0,0,0,0,0,0,0,0,0,0,0,0,0,0,0,0,0,0,0,0,0,0,0,0,0,0,0,0,0,0,0,0,0,0,0,0,0,0,0,0,0,0,0,0,0,0,0,0,0,0,0,0,0,0,0,0,0,0,0,0,0,0,0,0,0,
0,0,0,0,0,0,0,0,0,0,0,0,0,0,0,0,0,0,0,0,0,0,0,0,0,0,0,0,0,0,0,0,0,0,0,0,0,0,0,0,0,0,0,0,0,0,0,0,0,0,0,0,0,0,0,0,0,0,0,0,0,0,0,0,0,0,0,0,0,0,
0,0,0,0,0,0,0,0,0,0,0,0,0,0,0,0,0,0,0,0,0,0,0,0,0,0,0,0,0,0,0,0,0,0,0,0,0,0,0,0,0,0,0,0,0,0,0,0,0,0,0,0,0,0,0,0,0,0,0,0,0,0,0,0,0,0,0,0,0,0,
0,0,0,0,0,0,0,0,0,0,0,0,0,0,0,0,0,0,0,0,0,0,0,0,0,0,0,0,0,0,0,0,0,0,0,0,0,0,0,0,0,0,0,0,0,0,0,0,0,0,0,0,0,0,0,0,0,0,0,0,0,0,0,0,0,0,0,0,0,0,
0,0,0,0,0,0,0,0,0,0,0,0,0,0,0,0,0,0,0,0,0,0,0,0,0,0,0,0,0,0,0,0,0,0,0,0,0,0,0,0,0,0,0,0,0,0,0,0,0,0,0,0,0,0,0,0,0,0,0,0,0,0,0,0,0,0,0,0,0,0,
0,0,0,0,0,0,0,0,0,0,0,0,0,0,0,0,0,0,0,0,0,0,0,0,0,0,0,0,0,0,0,0,0,0,0,0,0,0,0,0,0,0,0,0,0,0,0,0,0,0,0,0,0,0,0,0,0,0,0,0,0,0,0,0,0,0,0,0,0,0,
0,0,0,0,0,0,0,0,0,0,0,0,0,0,0,0,0,0,0,0,0,0,0,0,0,0,0,0,0,0,0,0,0,0,0,0,0,0,0,0,0,0,0,0,0,0,0,0,0,0,0,0,0,46,57,57,57,57,57,57,57,57,57,57,57,57,57,57,57,57,
0,0,0,0,0,0,0,0,0,0,0,0,0,0,0,0,0,0,0,0,0,0,0,0,0,0,0,0,0,0,0,0,0,0,0,0,0,0,0,0,0,0,0,0,0,0,0,0,0,0,0,0,46,58,0,0,0,0,0,0,0,0,0,0,0,0,0,0,0,0,
0,0,0,0,0,0,0,0,0,0,0,0,0,0,0,0,0,0,0,0,0,0,0,0,0,0,0,0,0,0,0,0,0,0,0,0,0,0,0,0,0,0,0,0,0,0,0,0,0,0,0,46,58,0,0,0,0,0,0,0,0,0,0,0,0,0,0,0,0,0,
0,0,0,0,0,0,0,0,0,0,0,0,0,0,0,0,0,0,0,0,0,0,0,0,0,0,0,0,0,0,0,0,0,0,0,0,0,0,0,0,0,0,0,0,0,0,0,0,0,0,46,58,0,0,0,0,0,0,0,0,0,0,0,0,0,0,0,0,0,0,
0,0,0,0,0,0,0,0,0,0,0,0,0,0,0,0,0,0,0,0,0,0,0,0,0,0,0,0,0,0,0,0,0,0,0,0,0,0,0,0,0,0,0,0,0,0,0,0,0,46,58,0,0,0,0,0,0,0,0,0,0,0,0,0,0,0,0,0,0,0,
0,0,0,0,0,0,0,0,0,0,0,0,0,0,0,0,0,0,0,0,0,0,0,0,0,0,0,0,0,0,0,0,0,0,0,0,0,0,0,0,0,0,0,0,0,0,0,0,46,58,0,0,0,0,0,0,0,0,0,0,0,0,0,0,0,0,0,0,0,0,
57,57,57,57,57,57,57,57,57,57,57,57,57,57,57,57,57,57,57,57,57,57,57,57,57,57,57,57,57,57,57,57,57,57,57,57,57,57,57,57,57,57,57,57,57,57,57,57,58,0,0,0,0,0,0,0,0,0,0,0,0,0,0,0,0,0,0,0,0,0,
0,0,0,0,0,0,0,0,0,0,0,0,0,0,0,0,0,0,0,0,0,0,0,0,0,0,0,0,0,0,0,0,0,0,0,0,0,0,0,0,0,0,0,0,0,0,0,0,0,0,0,0,0,0,0,0,0,0,0,0,0,0,0,0,0,0,0,0,0,0,
0,0,0,0,0,0,0,0,0,0,0,0,0,0,0,0,0,0,0,0,0,0,0,0,0,0,0,0,0,0,0,0,0,0,0,0,0,0,0,0,0,0,0,0,0,0,0,0,0,0,0,0,0,0,0,0,0,0,0,0,0,0,0,0,0,0,0,0,0,0,
0,0,0,0,0,0,0,0,0,0,0,0,0,0,0,0,0,0,0,0,0,0,0,0,0,0,0,0,0,0,0,0,0,0,0,0,0,0,0,0,0,0,0,0,0,0,0,0,0,0,0,0,0,0,0,0,0,0,0,0,0,0,0,0,0,0,0,0,0,0,
0,0,0,0,0,0,0,0,0,0,0,0,0,0,0,0,0,0,0,0,0,0,0,0,0,0,0,0,0,0,0,0,0,0,0,0,0,0,0,0,0,0,0,0,0,0,0,0,0,0,0,0,0,0,0,0,0,0,0,0,0,0,0,0,0,0,0,0,0,0,
0,0,0,0,0,0,0,0,0,0,0,0,0,0,0,0,0,0,0,0,0,0,0,0,0,0,0,0,0,0,0,0,0,0,0,0,0,0,0,0,0,0,0,0,0,0,0,0,0,0,0,0,0,0,0,0,0,0,0,0,0,0,0,0,0,0,0,0,0,0,
0,0,0,0,0,0,0,0,0,0,0,0,0,0,0,0,0,0,0,0,0,0,0,0,0,0,0,0,0,0,0,0,0,0,0,0,0,0,0,0,0,0,0,0,0,0,0,0,0,0,0,0,0,0,0,0,0,0,0,0,0,0,0,0,0,0,0,0,0,0,
0,0,0,0,0,0,0,0,0,0,0,0,0,0,0,0,0,0,0,0,0,0,0,0,0,0,0,0,0,0,0,0,0,0,0,0,0,0,0,0,0,0,0,0,0,0,0,0,0,0,0,0,0,0,0,0,0,0,0,0,0,0,0,0,0,0,0,0,0,0,
0,0,0,0,0,0,0,0,0,0,0,0,0,0,0,0,0,0,0,0,0,0,0,0,0,0,0,0,0,0,0,0,0,0,0,0,0,0,0,0,0,0,0,0,0,0,0,0,0,0,0,0,0,0,0,0,0,0,0,0,0,0,0,0,0,0,0,0,0,0,
0,0,0,0,0,0,0,0,0,0,0,0,0,0,0,0,0,0,0,0,0,0,0,0,0,0,0,0,0,0,0,0,0,0,0,0,0,0,0,0,0,0,0,0,0,0,0,0,0,0,0,0,0,0,0,0,0,0,0,0,0,0,0,0,0,0,0,0,0,0,
0,0,0,0,0,0,0,0,0,0,0,0,0,0,0,0,0,0,0,0,0,0,0,0,0,0,0,0,0,0,0,0,0,0,0,0,0,0,0,0,0,0,0,0,0,0,0,0,0,0,0,0,0,0,0,0,0,0,0,0,0,0,0,0,0,0,0,0,0,0,
0,0,0,0,0,0,0,0,0,0,0,0,0,0,0,0,0,0,0,0,0,0,0,0,0,0,0,0,0,0,0,0,0,0,0,0,0,0,0,0,0,0,0,0,0,0,0,0,0,0,0,0,0,0,0,0,0,0,0,0,0,0,0,0,0,0,0,0,0,0,
0,0,0,0,0,0,0,0,0,0,0,0,0,0,0,0,0,0,0,0,0,0,0,0,0,0,0,0,0,0,0,0,0,0,0,0,0,0,0,0,0,0,0,0,0,0,0,0,0,0,0,0,0,0,0,0,0,0,0,0,0,0,0,0,0,0,0,0,0,0,
0,0,0,0,0,0,0,0,0,0,0,0,0,0,0,0,0,0,0,0,0,0,0,0,0,0,0,0,0,0,0,0,0,0,0,0,0,0,0,0,0,0,0,0,0,0,0,0,0,0,0,0,0,0,0,0,0,0,0,0,0,0,0,0,0,0,0,0,0,0,
0,0,0,0,0,0,0,0,0,0,0,0,0,0,0,0,0,0,0,0,0,0,0,0,0,0,0,0,0,0,0,0,0,0,0,0,0,0,0,0,0,0,0,0,0,0,0,0,0,0,0,0,0,0,0,0,0,0,0,0,0,0,0,0,0,0,0,0,0,0,
0,0,0,0,0,0,0,0,0,0,0,0,0,0,0,0,0,0,0,0,0,0,0,0,0,0,0,0,0,0,0,0,0,0,0,0,0,0,0,0,0,0,0,0,0,0,0,0,0,0,0,0,0,0,0,0,0,0,0,0,0,0,0,0,0,0,0,0,0,0,
0,0,0,0,0,0,0,0,0,0,0,0,0,0,0,0,0,0,0,0,0,0,0,0,0,0,0,0,0,0,0,0,0,0,0,0,0,0,0,0,0,0,0,0,0,0,0,0,0,0,0,0,0,0,0,0,0,0,0,0,0,0,0,0,0,0,0,0,0,0,
0,0,0,0,0,0,0,0,0,0,0,0,0,0,0,0,0,0,0,0,0,0,0,0,0,0,0,0,0,0,0,0,0,0,0,0,0,0,0,0,0,0,0,0,0,0,0,0,0,0,0,0,0,0,0,0,0,0,0,0,0,0,0,0,0,0,0,0,0,0,
0,0,0,0,0,0,0,0,0,0,0,0,0,0,0,0,0,0,0,0,0,0,0,0,0,0,0,0,0,0,0,0,0,0,0,0,0,0,0,0,0,0,0,0,0,0,0,0,0,0,0,0,0,0,0,0,0,0,0,0,0,0,0,0,0,0,0,0,0,0,
0,0,0,0,0,0,0,0,0,0,0,0,0,0,0,0,0,0,0,0,0,0,0,0,0,0,0,0,0,0,0,0,0,0,0,0,0,0,0,0,0,0,0,0,0,0,0,0,0,0,0,0,0,0,0,0,0,0,0,0,0,0,0,0,0,0,0,0,0,0,
0,0,0,0,0,0,0,0,0,0,0,0,0,0,0,0,0,0,0,0,0,0,0,0,0,0,0,0,0,0,0,0,0,0,0,0,0,0,0,0,0,0,0,0,0,0,0,0,0,0,0,0,0,0,0,0,0,0,0,0,0,0,0,0,0,0,0,0,0,0,
0,0,0,0,0,0,0,0,0,0,0,0,0,0,0,0,0,0,0,0,0,0,0,0,0,0,0,0,0,0,0,0,0,0,0,0,0,0,0,0,0,0,0,0,0,0,0,0,0,0,0,0,0,0,0,0,0,0,0,0,0,0,0,0,0,0,0,0,0,0,
0,0,0,0,0,0,0,0,0,0,0,0,0,0,0,0,0,0,0,0,0,0,0,0,0,0,0,0,0,0,0,0,0,0,0,0,0,0,0,0,0,0,0,0,0,0,0,0,0,0,0,0,0,0,0,0,0,0,0,0,0,0,0,0,0,0,0,0,0,0,
0,0,0,0,0,0,0,0,0,0,0,0,0,0,0,0,0,0,0,0,0,0,0,0,0,0,0,0,0,0,0,0,0,0,0,0,0,0,0,0,0,0,0,0,0,0,0,0,0,0,0,0,0,0,0,0,0,0,0,0,0,0,0,0,0,0,0,0,0,0,
0,0,0,0,0,0,0,0,0,0,0,0,0,0,0,0,0,0,0,0,0,0,0,0,0,0,0,0,0,0,0,0,0,0,0,0,0,0,0,0,0,0,0,0,0,0,0,0,0,0,0,0,0,0,0,0,0,0,0,0,0,0,0,0,0,0,0,0,0,0
</data>
 </layer>
 <layer id="3" name="Cliff" width="70" height="70">
  <data encoding="csv">
0,0,0,0,0,0,0,0,0,0,0,0,0,0,0,0,0,0,0,0,0,0,0,0,0,0,0,0,0,0,0,0,0,0,0,0,0,0,0,0,0,0,0,0,0,0,0,0,0,0,0,0,0,0,0,0,0,0,0,0,0,0,0,0,0,0,0,0,0,0,
0,0,0,0,0,0,0,0,0,0,0,0,0,0,0,0,0,0,0,0,0,0,0,0,0,0,0,0,0,0,0,0,0,0,0,0,0,0,0,0,0,0,0,0,0,0,0,0,0,0,0,0,0,0,0,0,0,0,0,0,0,0,0,0,0,0,0,0,0,0,
0,0,0,0,0,0,0,0,0,0,0,0,0,0,0,0,0,0,0,0,0,0,0,0,0,0,0,0,0,0,0,0,0,0,0,0,0,0,0,0,0,0,0,0,0,0,0,0,0,0,0,0,0,0,0,0,0,0,0,0,0,0,0,0,0,0,0,0,0,0,
0,0,0,0,0,0,0,0,0,0,0,0,0,0,0,0,0,0,0,0,0,0,0,0,0,0,0,0,0,0,0,0,0,0,0,0,0,0,0,0,0,0,0,0,0,0,0,0,0,0,0,0,0,0,0,0,0,0,0,0,0,0,0,0,0,0,0,0,0,0,
0,0,0,0,0,0,0,0,0,0,0,0,0,0,0,0,0,0,0,0,0,0,0,0,0,0,0,0,0,0,0,0,0,0,0,0,0,0,0,0,0,0,0,0,0,0,0,0,0,0,0,0,0,0,0,0,0,0,0,0,0,0,0,0,0,0,0,0,0,0,
0,0,0,0,0,0,0,0,0,0,0,0,0,0,0,0,0,0,0,0,0,0,0,0,0,0,0,0,0,0,0,0,0,0,0,0,0,0,0,0,0,0,0,0,0,0,0,0,0,0,0,0,0,0,0,0,0,0,0,0,0,0,0,0,0,0,0,0,0,0,
0,0,0,0,0,0,0,0,0,0,0,0,0,0,0,0,0,0,0,0,0,0,0,0,0,0,0,0,0,0,0,0,0,0,0,0,0,0,0,0,0,0,0,0,0,0,0,0,0,0,0,0,0,0,0,0,0,0,0,0,0,0,0,0,0,0,0,0,0,0,
0,0,0,0,0,0,0,0,0,0,0,0,0,0,0,0,0,0,0,0,0,0,0,0,0,0,0,0,0,0,0,0,0,0,0,0,0,0,0,0,0,0,0,0,0,0,0,0,0,0,0,0,0,0,0,0,0,0,0,0,0,0,0,0,0,0,0,0,0,0,
0,0,0,0,0,0,0,0,0,0,0,0,0,0,0,0,0,0,0,0,0,0,0,0,0,0,0,0,0,0,0,0,0,0,0,0,0,0,0,0,0,0,0,0,0,0,0,0,0,0,0,0,0,0,0,0,0,0,0,0,0,0,0,0,0,0,0,0,0,0,
0,0,0,0,0,0,0,0,0,0,0,0,0,0,0,0,0,0,0,0,0,0,0,0,0,0,0,0,0,0,0,0,0,0,0,0,0,0,0,0,0,0,0,0,0,0,0,0,0,0,0,0,0,0,0,0,0,0,0,0,0,0,0,0,0,0,0,0,0,0,
0,0,0,0,0,0,0,0,0,0,0,0,0,0,0,0,0,0,0,0,0,0,0,0,0,0,0,0,0,0,0,0,0,0,0,0,0,0,0,0,0,0,0,0,0,0,0,0,0,0,0,0,0,0,0,0,0,0,0,0,0,0,0,0,0,0,0,0,0,0,
0,0,0,0,0,0,0,0,0,0,0,0,0,0,0,0,0,0,0,0,0,0,0,0,0,0,0,0,0,0,0,0,0,0,0,0,0,0,0,0,0,0,0,0,0,0,0,0,0,0,0,0,0,0,0,0,0,0,0,0,0,0,0,0,0,0,0,0,0,0,
0,0,0,0,0,0,0,0,0,0,0,0,0,0,0,0,0,0,0,0,0,0,0,0,0,0,0,0,0,0,0,0,0,0,0,0,0,0,0,0,0,0,0,0,0,0,0,0,0,0,0,0,0,0,0,0,0,0,0,0,0,0,0,0,0,0,0,0,0,0,
0,0,0,0,0,0,0,0,0,0,0,0,0,0,0,0,0,0,0,0,0,0,0,0,0,0,0,0,0,0,0,0,0,0,0,0,0,0,0,0,0,0,0,0,0,0,0,0,0,0,0,0,0,0,0,0,0,0,0,0,0,0,0,0,0,0,0,0,0,0,
0,0,0,0,0,0,0,0,0,0,0,0,0,0,0,0,0,0,0,0,0,0,0,0,0,0,0,0,0,0,0,0,0,0,0,0,0,0,0,0,0,0,0,0,0,0,0,0,0,0,0,0,0,0,0,0,0,0,0,0,0,0,0,0,0,0,0,0,0,0,
0,0,0,0,0,0,0,0,0,0,0,0,0,0,0,0,0,0,0,0,0,0,0,0,0,0,0,0,0,0,0,0,0,0,0,0,0,0,0,0,0,0,0,0,0,0,0,0,0,0,0,0,0,0,0,0,0,0,0,0,0,0,0,0,0,0,0,0,0,0,
0,0,0,0,0,0,0,0,0,0,0,0,0,0,0,0,0,0,0,0,0,0,0,0,0,0,0,0,0,0,0,0,0,0,0,0,0,0,0,0,0,0,0,0,0,0,0,0,0,0,0,0,0,0,0,0,0,0,0,0,0,0,0,0,0,0,0,0,0,0,
0,0,0,0,0,0,0,0,0,0,0,0,0,0,0,0,0,0,0,0,0,0,0,0,0,0,0,0,0,0,0,0,0,0,0,0,0,0,0,0,0,0,0,0,0,0,0,0,0,0,0,0,0,0,0,0,0,0,0,0,0,0,0,0,0,0,0,0,0,0,
0,0,0,0,0,0,0,0,0,0,0,0,0,0,0,0,0,0,0,0,0,0,0,0,0,0,0,0,0,0,0,0,0,0,0,0,0,0,0,0,0,0,0,0,0,0,0,0,0,0,0,0,0,0,0,0,0,0,0,0,0,0,0,0,0,0,0,0,0,0,
0,0,0,0,0,0,0,0,0,0,0,0,0,0,0,0,0,0,0,0,0,0,0,0,0,0,0,0,0,0,0,0,0,0,0,0,0,0,0,0,0,0,0,0,0,0,0,0,0,0,0,0,0,0,0,0,0,0,0,0,0,0,0,0,0,0,0,0,0,0,
0,0,0,0,0,0,0,0,0,0,0,0,0,0,0,0,0,0,0,0,0,0,0,0,0,0,0,0,0,0,0,0,0,0,0,0,0,0,0,0,0,0,0,0,0,0,0,0,0,0,0,0,0,0,0,0,0,0,0,0,0,0,0,0,0,0,0,0,0,0,
0,0,0,0,0,0,0,0,0,0,0,0,0,0,0,0,0,0,0,0,0,0,0,0,0,0,0,0,0,0,0,0,0,0,0,0,0,0,0,0,0,0,0,0,0,0,0,0,0,0,0,0,0,0,0,0,0,0,0,0,0,0,0,0,0,0,0,0,0,0,
0,0,0,0,0,0,0,0,0,0,0,0,0,0,0,0,0,0,0,0,0,0,0,0,0,0,0,0,0,0,0,0,0,0,0,0,0,0,0,0,0,0,0,0,0,0,0,0,0,0,0,0,0,0,0,0,0,0,0,0,0,0,0,0,0,0,0,0,0,0,
0,0,0,0,0,0,0,0,0,0,0,0,0,0,0,0,0,0,0,0,0,0,0,0,0,0,0,0,0,0,0,0,0,0,0,0,0,0,0,0,0,0,0,0,0,0,0,0,0,0,0,0,0,0,0,0,0,0,0,0,0,0,0,0,0,0,0,0,0,0,
0,0,0,0,0,0,0,0,0,0,0,0,0,0,0,0,0,0,0,0,0,0,0,0,0,0,0,0,0,0,0,0,0,0,0,0,0,0,0,0,0,0,0,0,0,0,0,0,0,0,0,0,0,0,0,0,0,0,0,0,0,0,0,0,0,0,0,0,0,0,
0,0,0,0,0,0,0,0,0,0,0,0,0,0,0,0,0,0,0,0,0,0,0,0,0,0,0,0,0,0,0,0,0,0,0,0,0,0,0,0,0,0,0,0,0,0,0,0,0,0,0,0,0,0,0,0,0,0,0,0,0,0,0,0,0,0,0,0,0,0,
0,0,0,0,0,0,0,0,0,0,0,0,0,0,0,0,0,0,0,0,0,0,0,0,0,0,0,0,0,0,0,0,0,0,0,0,0,0,0,0,0,0,0,0,0,0,0,0,0,0,0,0,0,0,0,0,0,0,0,0,0,0,0,0,0,0,0,0,0,0,
0,0,0,0,0,0,0,0,0,0,0,0,0,0,0,0,0,0,0,0,0,0,0,0,0,0,0,0,0,0,0,0,0,0,0,0,0,0,0,0,0,0,0,0,0,0,0,0,0,0,0,0,0,0,0,0,0,0,0,0,0,0,0,0,0,0,0,0,0,0,
0,0,0,0,0,0,0,0,0,0,0,0,0,0,0,0,0,0,0,0,0,0,0,0,0,0,0,0,0,0,0,0,0,0,0,0,0,0,0,0,0,0,0,0,0,0,0,0,0,0,0,0,0,0,0,0,0,0,0,0,0,0,0,0,0,0,0,0,0,0,
0,0,0,0,0,0,0,0,0,0,0,0,0,0,0,0,0,0,0,0,0,0,0,0,0,0,0,0,0,0,0,0,0,0,0,0,0,0,0,0,0,0,0,0,0,0,0,0,0,0,0,0,0,0,0,0,0,0,0,0,0,0,0,0,0,0,0,0,0,0,
0,0,0,0,0,0,0,0,0,0,0,0,0,0,0,0,0,0,0,0,0,0,0,0,0,0,0,0,0,0,0,0,0,0,0,0,0,0,0,0,0,0,0,0,0,0,0,0,0,0,0,0,0,0,0,0,0,0,0,0,0,0,0,0,0,0,0,0,0,0,
0,0,0,0,0,0,0,0,0,0,0,0,0,0,0,0,0,0,0,0,0,0,0,0,0,0,0,0,0,0,0,0,0,0,0,0,0,0,0,0,0,0,0,0,0,0,0,0,0,0,0,0,0,0,0,0,0,0,0,0,0,0,0,0,0,0,0,0,0,0,
0,0,0,0,0,0,0,0,0,0,0,0,0,0,0,0,0,0,0,0,0,0,0,0,0,0,0,0,0,0,0,0,0,0,0,0,0,0,0,0,0,0,0,0,0,0,0,0,0,0,0,0,0,0,0,0,0,0,0,0,0,0,0,0,0,0,0,0,0,0,
0,0,0,0,0,0,0,0,0,0,0,0,0,0,0,0,0,0,0,0,0,0,0,0,0,0,0,0,0,0,0,0,0,0,0,0,0,0,0,0,0,0,0,0,0,0,0,0,0,0,0,0,0,0,0,0,0,0,0,0,0,0,0,0,0,0,0,0,0,0,
0,0,0,0,0,0,0,0,0,0,0,0,0,0,0,0,0,0,0,0,0,0,0,0,0,0,0,0,0,0,0,0,0,0,0,0,0,0,0,0,0,0,0,0,0,0,0,0,0,0,0,0,0,0,0,0,0,0,0,0,0,0,0,0,0,0,0,0,0,0,
0,0,0,0,0,0,0,0,0,0,0,0,0,0,0,0,0,0,0,0,0,0,0,0,0,0,0,0,0,0,0,0,0,0,0,0,0,0,0,0,0,0,0,0,0,0,0,0,0,0,0,0,31,42,42,42,42,42,42,42,42,42,42,42,42,42,42,42,42,42,
0,0,0,0,0,0,0,0,0,0,0,0,0,0,0,0,0,0,0,0,0,0,0,0,0,0,0,0,0,0,0,0,0,0,0,0,0,0,0,0,0,0,0,0,0,0,0,0,0,0,0,31,43,48,48,48,48,48,48,48,48,48,48,48,48,48,48,48,48,48,
0,0,0,0,0,0,0,0,0,0,0,0,0,0,0,0,0,0,0,0,0,0,0,0,0,0,0,0,0,0,0,0,0,0,0,0,0,0,0,0,0,0,0,0,0,0,0,0,0,0,31,43,49,48,48,48,48,48,48,48,48,48,48,48,48,48,48,48,48,48,
0,0,0,0,0,0,0,0,0,0,0,0,0,0,0,0,0,0,0,0,0,0,0,0,0,0,0,0,0,0,0,0,0,0,0,0,0,0,0,0,0,0,0,0,0,0,0,0,0,31,43,49,49,48,48,48,48,48,48,48,48,48,48,48,48,48,48,48,48,48,
0,0,0,0,0,0,0,0,0,0,0,0,0,0,0,0,0,0,0,0,0,0,0,0,0,0,0,0,0,0,0,0,0,0,0,0,0,0,0,0,0,0,0,0,0,0,0,0,31,43,49,49,49,54,54,54,54,54,54,54,54,54,54,54,54,54,54,54,54,54,
0,0,0,0,0,0,0,0,0,0,0,0,0,0,0,0,0,0,0,0,0,0,0,0,0,0,0,0,0,0,0,0,0,0,0,0,0,0,0,0,0,0,0,0,0,0,0,31,43,49,49,49,55,0,0,0,0,0,0,0,0,0,0,0,0,0,0,0,0,0,
42,42,42,42,42,42,42,42,42,42,42,42,42,42,42,42,42,42,42,42,42,42,42,42,42,42,42,42,42,42,42,42,42,42,42,42,42,42,42,42,42,42,42,42,42,42,42,43,49,49,49,55,0,0,0,0,0,0,0,0,0,0,0,0,0,0,0,0,0,0,
48,48,48,48,48,48,48,48,48,48,48,48,48,48,48,48,48,48,48,48,48,48,48,48,48,48,48,48,48,48,48,48,48,48,48,48,48,48,48,48,48,48,48,48,48,48,48,49,49,49,55,0,0,0,0,0,0,0,0,0,0,0,0,0,0,0,0,0,0,0,
48,48,48,48,48,48,48,48,48,48,48,48,48,48,48,48,48,48,48,48,48,48,48,48,48,48,48,48,48,48,48,48,48,48,48,48,48,48,48,48,48,48,48,48,48,48,48,49,49,55,0,0,0,0,0,0,0,0,0,0,0,0,0,0,0,0,0,0,0,0,
48,48,48,48,48,48,48,48,48,48,48,48,48,48,48,48,48,48,48,48,48,48,48,48,48,48,48,48,48,48,48,48,48,48,48,48,48,48,48,48,48,48,48,48,48,48,48,49,55,0,0,0,0,0,0,0,0,0,0,0,0,0,0,0,0,0,0,0,0,0,
54,54,54,54,54,54,54,54,54,54,54,54,54,54,54,54,54,54,54,54,54,54,54,54,54,54,54,54,54,54,54,54,54,54,54,54,54,54,54,54,54,54,54,54,54,54,54,55,0,0,0,0,0,0,0,0,0,0,0,0,0,0,0,0,0,0,0,0,0,0,
0,0,0,0,0,0,0,0,0,0,0,0,0,0,0,0,0,0,0,0,0,0,0,0,0,0,0,0,0,0,0,0,0,0,0,0,0,0,0,0,0,0,0,0,0,0,0,0,0,0,0,0,0,0,0,0,0,0,0,0,0,0,0,0,0,0,0,0,0,0,
0,0,0,0,0,0,0,0,0,0,0,0,0,0,0,0,0,0,0,0,0,0,0,0,0,0,0,0,0,0,0,0,0,0,0,0,0,0,0,0,0,0,0,0,0,0,0,0,0,0,0,0,0,0,0,0,0,0,0,0,0,0,0,0,0,0,0,0,0,0,
0,0,0,0,0,0,0,0,0,0,0,0,0,0,0,0,0,0,0,0,0,0,0,0,0,0,0,0,0,0,0,0,0,0,0,0,0,0,0,0,0,0,0,0,0,0,0,0,0,0,0,0,0,0,0,0,0,0,0,0,0,0,0,0,0,0,0,0,0,0,
0,0,0,0,0,0,0,0,0,0,0,0,0,0,0,0,0,0,0,0,0,0,0,0,0,0,0,0,0,0,0,0,0,0,0,0,0,0,0,0,0,0,0,0,0,0,0,0,0,0,0,0,0,0,0,0,0,0,0,0,0,0,0,0,0,0,0,0,0,0,
0,0,0,0,0,0,0,0,0,0,0,0,0,0,0,0,0,0,0,0,0,0,0,0,0,0,0,0,0,0,0,0,0,0,0,0,0,0,0,0,0,0,0,0,0,0,0,0,0,0,0,0,0,0,0,0,0,0,0,0,0,0,0,0,0,0,0,0,0,0,
0,0,0,0,0,0,0,0,0,0,0,0,0,0,0,0,0,0,0,0,0,0,0,0,0,0,0,0,0,0,0,0,0,0,0,0,0,0,0,0,0,0,0,0,0,0,0,0,0,0,0,0,0,0,0,0,0,0,0,0,0,0,0,0,0,0,0,0,0,0,
0,0,0,0,0,0,0,0,0,0,0,0,0,0,0,0,0,0,0,0,0,0,0,0,0,0,0,0,0,0,0,0,0,0,0,0,0,0,0,0,0,0,0,0,0,0,0,0,0,0,0,0,0,0,0,0,0,0,0,0,0,0,0,0,0,0,0,0,0,0,
0,0,0,0,0,0,0,0,0,0,0,0,0,0,0,0,0,0,0,0,0,0,0,0,0,0,0,0,0,0,0,0,0,0,0,0,0,0,0,0,0,0,0,0,0,0,0,0,0,0,0,0,0,0,0,0,0,0,0,0,0,0,0,0,0,0,0,0,0,0,
0,0,0,0,0,0,0,0,0,0,0,0,0,0,0,0,0,0,0,0,0,0,0,0,0,0,0,0,0,0,0,0,0,0,0,0,0,0,0,0,0,0,0,0,0,0,0,0,0,0,0,0,0,0,0,0,0,0,0,0,0,0,0,0,0,0,0,0,0,0,
0,0,0,0,0,0,0,0,0,0,0,0,0,0,0,0,0,0,0,0,0,0,0,0,0,0,0,0,0,0,0,0,0,0,0,0,0,0,0,0,0,0,0,0,0,0,0,0,0,0,0,0,0,0,0,0,0,0,0,0,0,0,0,0,0,0,0,0,0,0,
0,0,0,0,0,0,0,0,0,0,0,0,0,0,0,0,0,0,0,0,0,0,0,0,0,0,0,0,0,0,0,0,0,0,0,0,0,0,0,0,0,0,0,0,0,0,0,0,0,0,0,0,0,0,0,0,0,0,0,0,0,0,0,0,0,0,0,0,0,0,
0,0,0,0,0,0,0,0,0,0,0,0,0,0,0,0,0,0,0,0,0,0,0,0,0,0,0,0,0,0,0,0,0,0,0,0,0,0,0,0,0,0,0,0,0,0,0,0,0,0,0,0,0,0,0,0,0,0,0,0,0,0,0,0,0,0,0,0,0,0,
0,0,0,0,0,0,0,0,0,0,0,0,0,0,0,0,0,0,0,0,0,0,0,0,0,0,0,0,0,0,0,0,0,0,0,0,0,0,0,0,0,0,0,0,0,0,0,0,0,0,0,0,0,0,0,0,0,0,0,0,0,0,0,0,0,0,0,0,0,0,
0,0,0,0,0,0,0,0,0,0,0,0,0,0,0,0,0,0,0,0,0,0,0,0,0,0,0,0,0,0,0,0,0,0,0,0,0,0,0,0,0,0,0,0,0,0,0,0,0,0,0,0,0,0,0,0,0,0,0,0,0,0,0,0,0,0,0,0,0,0,
0,0,0,0,0,0,0,0,0,0,0,0,0,0,0,0,0,0,0,0,0,0,0,0,0,0,0,0,0,0,0,0,0,0,0,0,0,0,0,0,0,0,0,0,0,0,0,0,0,0,0,0,0,0,0,0,0,0,0,0,0,0,0,0,0,0,0,0,0,0,
0,0,0,0,0,0,0,0,0,0,0,0,0,0,0,0,0,0,0,0,0,0,0,0,0,0,0,0,0,0,0,0,0,0,0,0,0,0,0,0,0,0,0,0,0,0,0,0,0,0,0,0,0,0,0,0,0,0,0,0,0,0,0,0,0,0,0,0,0,0,
0,0,0,0,0,0,0,0,0,0,0,0,0,0,0,0,0,0,0,0,0,0,0,0,0,0,0,0,0,0,0,0,0,0,0,0,0,0,0,0,0,0,0,0,0,0,0,0,0,0,0,0,0,0,0,0,0,0,0,0,0,0,0,0,0,0,0,0,0,0,
0,0,0,0,0,0,0,0,0,0,0,0,0,0,0,0,0,0,0,0,0,0,0,0,0,0,0,0,0,0,0,0,0,0,0,0,0,0,0,0,0,0,0,0,0,0,0,0,0,0,0,0,0,0,0,0,0,0,0,0,0,0,0,0,0,0,0,0,0,0,
0,0,0,0,0,0,0,0,0,0,0,0,0,0,0,0,0,0,0,0,0,0,0,0,0,0,0,0,0,0,0,0,0,0,0,0,0,0,0,0,0,0,0,0,0,0,0,0,0,0,0,0,0,0,0,0,0,0,0,0,0,0,0,0,0,0,0,0,0,0,
0,0,0,0,0,0,0,0,0,0,0,0,0,0,0,0,0,0,0,0,0,0,0,0,0,0,0,0,0,0,0,0,0,0,0,0,0,0,0,0,0,0,0,0,0,0,0,0,0,0,0,0,0,0,0,0,0,0,0,0,0,0,0,0,0,0,0,0,0,0,
0,0,0,0,0,0,0,0,0,0,0,0,0,0,0,0,0,0,0,0,0,0,0,0,0,0,0,0,0,0,0,0,0,0,0,0,0,0,0,0,0,0,0,0,0,0,0,0,0,0,0,0,0,0,0,0,0,0,0,0,0,0,0,0,0,0,0,0,0,0,
0,0,0,0,0,0,0,0,0,0,0,0,0,0,0,0,0,0,0,0,0,0,0,0,0,0,0,0,0,0,0,0,0,0,0,0,0,0,0,0,0,0,0,0,0,0,0,0,0,0,0,0,0,0,0,0,0,0,0,0,0,0,0,0,0,0,0,0,0,0,
0,0,0,0,0,0,0,0,0,0,0,0,0,0,0,0,0,0,0,0,0,0,0,0,0,0,0,0,0,0,0,0,0,0,0,0,0,0,0,0,0,0,0,0,0,0,0,0,0,0,0,0,0,0,0,0,0,0,0,0,0,0,0,0,0,0,0,0,0,0,
0,0,0,0,0,0,0,0,0,0,0,0,0,0,0,0,0,0,0,0,0,0,0,0,0,0,0,0,0,0,0,0,0,0,0,0,0,0,0,0,0,0,0,0,0,0,0,0,0,0,0,0,0,0,0,0,0,0,0,0,0,0,0,0,0,0,0,0,0,0
</data>
 </layer>
 <layer id="10" name="Stair" width="70" height="70">
  <data encoding="csv">
0,0,0,0,0,0,0,0,0,0,0,0,0,0,0,0,0,0,0,0,0,0,0,0,0,0,0,0,0,0,0,0,0,0,0,0,0,0,0,0,0,0,0,0,0,0,0,0,0,0,0,0,0,0,0,0,0,0,0,0,0,0,0,0,0,0,0,0,0,0,
0,0,0,0,0,0,0,0,0,0,0,0,0,0,0,0,0,0,0,0,0,0,0,0,0,0,0,0,0,0,0,0,0,0,0,0,0,0,0,0,0,0,0,0,0,0,0,0,0,0,0,0,0,0,0,0,0,0,0,0,0,0,0,0,0,0,0,0,0,0,
0,0,0,0,0,0,0,0,0,0,0,0,0,0,0,0,0,0,0,0,0,0,0,0,0,0,0,0,0,0,0,0,0,0,0,0,0,0,0,0,0,0,0,0,0,0,0,0,0,0,0,0,0,0,0,0,0,0,0,0,0,0,0,0,0,0,0,0,0,0,
0,0,0,0,0,0,0,0,0,0,0,0,0,0,0,0,0,0,0,0,0,0,0,0,0,0,0,0,0,0,0,0,0,0,0,0,0,0,0,0,0,0,0,0,0,0,0,0,0,0,0,0,0,0,0,0,0,0,0,0,0,0,0,0,0,0,0,0,0,0,
0,0,0,0,0,0,0,0,0,0,0,0,0,0,0,0,0,0,0,0,0,0,0,0,0,0,0,0,0,0,0,0,0,0,0,0,0,0,0,0,0,0,0,0,0,0,0,0,0,0,0,0,0,0,0,0,0,0,0,0,0,0,0,0,0,0,0,0,0,0,
0,0,0,0,0,0,0,0,0,0,0,0,0,0,0,0,0,0,0,0,0,0,0,0,0,0,0,0,0,0,0,0,0,0,0,0,0,0,0,0,0,0,0,0,0,0,0,0,0,0,0,0,0,0,0,0,0,0,0,0,0,0,0,0,0,0,0,0,0,0,
0,0,0,0,0,0,0,0,0,0,0,0,0,0,0,0,0,0,0,0,0,0,0,0,0,0,0,0,0,0,0,0,0,0,0,0,0,0,0,0,0,0,0,0,0,0,0,0,0,0,0,0,0,0,0,0,0,0,0,0,0,0,0,0,0,0,0,0,0,0,
0,0,0,0,0,0,0,0,0,0,0,0,0,0,0,0,0,0,0,0,0,0,0,0,0,0,0,0,0,0,0,0,0,0,0,0,0,0,0,0,0,0,0,0,0,0,0,0,0,0,0,0,0,0,0,0,0,0,0,0,0,0,0,0,0,0,0,0,0,0,
0,0,0,0,0,0,0,0,0,0,0,0,0,0,0,0,0,0,0,0,0,0,0,0,0,0,0,0,0,0,0,0,0,0,0,0,0,0,0,0,0,0,0,0,0,0,0,0,0,0,0,0,0,0,0,0,0,0,0,0,0,0,0,0,0,0,0,0,0,0,
0,0,0,0,0,0,0,0,0,0,0,0,0,0,0,0,0,0,0,0,0,0,0,0,0,0,0,0,0,0,0,0,0,0,0,0,0,0,0,0,0,0,0,0,0,0,0,0,0,0,0,0,0,0,0,0,0,0,0,0,0,0,0,0,0,0,0,0,0,0,
0,0,0,0,0,0,0,0,0,0,0,0,0,0,0,0,0,0,0,0,0,0,0,0,0,0,0,0,0,0,0,0,0,0,0,0,0,0,0,0,0,0,0,0,0,0,0,0,0,0,0,0,0,0,0,0,0,0,0,0,0,0,0,0,0,0,0,0,0,0,
0,0,0,0,0,0,0,0,0,0,0,0,0,0,0,0,0,0,0,0,0,0,0,0,0,0,0,0,0,0,0,0,0,0,0,0,0,0,0,0,0,0,0,0,0,0,0,0,0,0,0,0,0,0,0,0,0,0,0,0,0,0,0,0,0,0,0,0,0,0,
0,0,0,0,0,0,0,0,0,0,0,0,0,0,0,0,0,0,0,0,0,0,0,0,0,0,0,0,0,0,0,0,0,0,0,0,0,0,0,0,0,0,0,0,0,0,0,0,0,0,0,0,0,0,0,0,0,0,0,0,0,0,0,0,0,0,0,0,0,0,
0,0,0,0,0,0,0,0,0,0,0,0,0,0,0,0,0,0,0,0,0,0,0,0,0,0,0,0,0,0,0,0,0,0,0,0,0,0,0,0,0,0,0,0,0,0,0,0,0,0,0,0,0,0,0,0,0,0,0,0,0,0,0,0,0,0,0,0,0,0,
0,0,0,0,0,0,0,0,0,0,0,0,0,0,0,0,0,0,0,0,0,0,0,0,0,0,0,0,0,0,0,0,0,0,0,0,0,0,0,0,0,0,0,0,0,0,0,0,0,0,0,0,0,0,0,0,0,0,0,0,0,0,0,0,0,0,0,0,0,0,
0,0,0,0,0,0,0,0,0,0,0,0,0,0,0,0,0,0,0,0,0,0,0,0,0,0,0,0,0,0,0,0,0,0,0,0,0,0,0,0,0,0,0,0,0,0,0,0,0,0,0,0,0,0,0,0,0,0,0,0,0,0,0,0,0,0,0,0,0,0,
0,0,0,0,0,0,0,0,0,0,0,0,0,0,0,0,0,0,0,0,0,0,0,0,0,0,0,0,0,0,0,0,0,0,0,0,0,0,0,0,0,0,0,0,0,0,0,0,0,0,0,0,0,0,0,0,0,0,0,0,0,0,0,0,0,0,0,0,0,0,
0,0,0,0,0,0,0,0,0,0,0,0,0,0,0,0,0,0,0,0,0,0,0,0,0,0,0,0,0,0,0,0,0,0,0,0,0,0,0,0,0,0,0,0,0,0,0,0,0,0,0,0,0,0,0,0,0,0,0,0,0,0,0,0,0,0,0,0,0,0,
0,0,0,0,0,0,0,0,0,0,0,0,0,0,0,0,0,0,0,0,0,0,0,0,0,0,0,0,0,0,0,0,0,0,0,0,0,0,0,0,0,0,0,0,0,0,0,0,0,0,0,0,0,0,0,0,0,0,0,0,0,0,0,0,0,0,0,0,0,0,
0,0,0,0,0,0,0,0,0,0,0,0,0,0,0,0,0,0,0,0,0,0,0,0,0,0,0,0,0,0,0,0,0,0,0,0,0,0,0,0,0,0,0,0,0,0,0,0,0,0,0,0,0,0,0,0,0,0,0,0,0,0,0,0,0,0,0,0,0,0,
0,0,0,0,0,0,0,0,0,0,0,0,0,0,0,0,0,0,0,0,0,0,0,0,0,0,0,0,0,0,0,0,0,0,0,0,0,0,0,0,0,0,0,0,0,0,0,0,0,0,0,0,0,0,0,0,0,0,0,0,0,0,0,0,0,0,0,0,0,0,
0,0,0,0,0,0,0,0,0,0,0,0,0,0,0,0,0,0,0,0,0,0,0,0,0,0,0,0,0,0,0,0,0,0,0,0,0,0,0,0,0,0,0,0,0,0,0,0,0,0,0,0,0,0,0,0,0,0,0,0,0,0,0,0,0,0,0,0,0,0,
0,0,0,0,0,0,0,0,0,0,0,0,0,0,0,0,0,0,0,0,0,0,0,0,0,0,0,0,0,0,0,0,0,0,0,0,0,0,0,0,0,0,0,0,0,0,0,0,0,0,0,0,0,0,0,0,0,0,0,0,0,0,0,0,0,0,0,0,0,0,
0,0,0,0,0,0,0,0,0,0,0,0,0,0,0,0,0,0,0,0,0,0,0,0,0,0,0,0,0,0,0,0,0,0,0,0,0,0,0,0,0,0,0,0,0,0,0,0,0,0,0,0,0,0,0,0,0,0,0,0,0,0,0,0,0,0,0,0,0,0,
0,0,0,0,0,0,0,0,0,0,0,0,0,0,0,0,0,0,0,0,0,0,0,0,0,0,0,0,0,0,0,0,0,0,0,0,0,0,0,0,0,0,0,0,0,0,0,0,0,0,0,0,0,0,0,0,0,0,0,0,0,0,0,0,0,0,0,0,0,0,
0,0,0,0,0,0,0,0,0,0,0,0,0,0,0,0,0,0,0,0,0,0,0,0,0,0,0,0,0,0,0,0,0,0,0,0,0,0,0,0,0,0,0,0,0,0,0,0,0,0,0,0,0,0,0,0,0,0,0,0,0,0,0,0,0,0,0,0,0,0,
0,0,0,0,0,0,0,0,0,0,0,0,0,0,0,0,0,0,0,0,0,0,0,0,0,0,0,0,0,0,0,0,0,0,0,0,0,0,0,0,0,0,0,0,0,0,0,0,0,0,0,0,0,0,0,0,0,0,0,0,0,0,0,0,0,0,0,0,0,0,
0,0,0,0,0,0,0,0,0,0,0,0,0,0,0,0,0,0,0,0,0,0,0,0,0,0,0,0,0,0,0,0,0,0,0,0,0,0,0,0,0,0,0,0,0,0,0,0,0,0,0,0,0,0,0,0,0,0,0,0,0,0,0,0,0,0,0,0,0,0,
0,0,0,0,0,0,0,0,0,0,0,0,0,0,0,0,0,0,0,0,0,0,0,0,0,0,0,0,0,0,0,0,0,0,0,0,0,0,0,0,0,0,0,0,0,0,0,0,0,0,0,0,0,0,0,0,0,0,0,0,0,0,0,0,0,0,0,0,0,0,
0,0,0,0,0,0,0,0,0,0,0,0,0,0,0,0,0,0,0,0,0,0,0,0,0,0,0,0,0,0,0,0,0,0,0,0,0,0,0,0,0,0,0,0,0,0,0,0,0,0,0,0,0,0,0,0,0,0,0,0,0,0,0,0,0,0,0,0,0,0,
0,0,0,0,0,0,0,0,0,0,0,0,0,0,0,0,0,0,0,0,0,0,0,0,0,0,0,0,0,0,0,0,0,0,0,0,0,0,0,0,0,0,0,0,0,0,0,0,0,0,0,0,0,0,0,0,0,0,0,0,0,0,0,0,0,0,0,0,0,0,
0,0,0,0,0,0,0,0,0,0,0,0,0,0,0,0,0,0,0,0,0,0,0,0,0,0,0,0,0,0,0,0,0,0,0,0,0,0,0,0,0,0,0,0,0,0,0,0,0,0,0,0,0,0,0,0,0,0,0,0,0,0,0,0,0,0,0,0,0,0,
0,0,0,0,0,0,0,0,0,0,0,0,0,0,0,0,0,0,0,0,0,0,0,0,0,0,0,0,0,0,0,0,0,0,0,0,0,0,0,0,0,0,0,0,0,0,0,0,0,0,0,0,0,0,0,0,0,0,0,0,0,0,0,0,0,0,0,0,0,0,
0,0,0,0,0,0,0,0,0,0,0,0,0,0,0,0,0,0,0,0,0,0,0,0,0,0,0,0,0,0,0,0,0,0,0,0,0,0,0,0,0,0,0,0,0,0,0,0,0,0,0,0,0,0,0,0,0,0,0,0,0,259,259,259,260,0,0,0,0,0,
0,0,0,0,0,0,0,0,0,0,0,0,0,0,0,0,0,0,0,0,0,0,0,0,0,0,0,0,0,0,0,0,0,0,0,0,0,0,0,0,0,0,0,0,0,0,0,0,0,0,0,0,0,0,0,0,0,0,0,0,262,264,263,264,263,265,0,0,0,0,
0,0,0,0,0,0,0,0,0,0,0,0,0,0,0,0,0,0,0,0,0,0,0,0,0,0,0,0,0,0,0,0,0,0,0,0,0,0,0,0,0,0,0,0,0,0,0,0,0,0,0,0,0,0,0,0,0,0,0,0,266,267,268,272,272,269,0,0,0,0,
0,0,0,0,0,0,0,0,0,0,0,0,0,0,0,0,0,0,0,0,0,0,0,0,0,0,0,0,0,0,0,0,0,0,0,0,0,0,0,0,0,0,0,0,0,0,0,0,0,0,0,0,0,0,0,0,0,0,0,0,266,267,272,267,272,273,0,0,0,0,
0,0,0,0,0,0,0,0,0,0,0,0,0,0,0,0,0,0,0,0,0,0,0,0,0,0,0,0,0,0,0,0,0,0,0,0,0,0,0,0,0,0,0,0,0,0,0,0,0,0,0,0,0,0,0,0,0,0,0,0,266,271,267,268,272,273,0,0,0,0,
0,0,0,0,0,0,0,0,0,0,0,0,0,0,0,0,0,0,0,0,0,0,0,0,0,0,0,0,0,0,0,0,0,0,0,0,0,0,0,0,0,0,0,0,0,0,0,0,0,0,0,0,0,0,0,0,0,0,0,0,266,268,271,267,271,273,0,0,0,0,
0,0,0,0,0,0,0,0,0,0,0,0,0,0,0,0,0,0,0,0,0,0,0,0,0,0,0,0,0,0,0,0,0,0,0,0,0,0,0,0,0,0,0,0,0,0,0,0,0,0,0,0,0,0,0,0,0,0,0,0,270,267,272,271,271,273,0,0,0,0,
0,0,0,0,0,0,0,0,0,0,0,0,0,0,0,0,0,0,0,0,0,0,0,0,0,0,0,0,0,0,0,0,0,0,0,0,0,0,0,0,0,0,0,0,0,0,0,0,0,0,0,0,0,0,0,0,0,0,0,0,270,272,272,272,267,273,0,0,0,0,
0,0,0,0,0,0,0,0,0,0,0,0,0,0,0,0,0,0,0,0,0,0,0,0,0,0,0,0,0,0,0,0,0,0,0,0,0,0,0,0,0,0,0,0,0,0,0,0,0,0,0,0,0,0,0,0,0,0,0,0,274,276,275,275,275,277,0,0,0,0,
0,0,0,0,0,0,0,0,0,0,0,0,0,0,0,0,0,0,0,0,0,0,0,0,0,0,0,0,0,0,0,0,0,0,0,0,0,0,0,0,0,0,0,0,0,0,0,0,0,0,0,0,0,0,0,0,0,0,0,0,0,0,0,0,0,0,0,0,0,0,
0,0,0,0,0,0,0,0,0,0,0,0,0,0,0,0,0,0,0,0,0,0,0,0,0,0,0,0,0,0,0,0,0,0,0,0,0,0,0,0,0,0,0,0,0,0,0,0,0,0,0,0,0,0,0,0,0,0,0,0,0,0,0,0,0,0,0,0,0,0,
0,0,0,0,0,0,0,0,0,0,0,0,0,0,0,0,0,0,0,0,0,0,0,0,0,0,0,0,0,0,0,0,0,0,0,0,0,0,0,0,0,0,0,0,0,0,0,0,0,0,0,0,0,0,0,0,0,0,0,0,0,0,0,0,0,0,0,0,0,0,
0,0,0,0,0,0,0,0,0,0,0,0,0,0,0,0,0,0,0,0,0,0,0,0,0,0,0,0,0,0,0,0,0,0,0,0,0,0,0,0,0,0,0,0,0,0,0,0,0,0,0,0,0,0,0,0,0,0,0,0,0,0,0,0,0,0,0,0,0,0,
0,0,0,0,0,0,0,0,0,0,0,0,0,0,0,0,0,0,0,0,0,0,0,0,0,0,0,0,0,0,0,0,0,0,0,0,0,0,0,0,0,0,0,0,0,0,0,0,0,0,0,0,0,0,0,0,0,0,0,0,0,0,0,0,0,0,0,0,0,0,
0,0,0,0,0,0,0,0,0,0,0,0,0,0,0,0,0,0,0,0,0,0,0,0,0,0,0,0,0,0,0,0,0,0,0,0,0,0,0,0,0,0,0,0,0,0,0,0,0,0,0,0,0,0,0,0,0,0,0,0,0,0,0,0,0,0,0,0,0,0,
0,0,0,0,0,0,0,0,0,0,0,0,0,0,0,0,0,0,0,0,0,0,0,0,0,0,0,0,0,0,0,0,0,0,0,0,0,0,0,0,0,0,0,0,0,0,0,0,0,0,0,0,0,0,0,0,0,0,0,0,0,0,0,0,0,0,0,0,0,0,
0,0,0,0,0,0,0,0,0,0,0,0,0,0,0,0,0,0,0,0,0,0,0,0,0,0,0,0,0,0,0,0,0,0,0,0,0,0,0,0,0,0,0,0,0,0,0,0,0,0,0,0,0,0,0,0,0,0,0,0,0,0,0,0,0,0,0,0,0,0,
0,0,0,0,0,0,0,0,0,0,0,0,0,0,0,0,0,0,0,0,0,0,0,0,0,0,0,0,0,0,0,0,0,0,0,0,0,0,0,0,0,0,0,0,0,0,0,0,0,0,0,0,0,0,0,0,0,0,0,0,0,0,0,0,0,0,0,0,0,0,
0,0,0,0,0,0,0,0,0,0,0,0,0,0,0,0,0,0,0,0,0,0,0,0,0,0,0,0,0,0,0,0,0,0,0,0,0,0,0,0,0,0,0,0,0,0,0,0,0,0,0,0,0,0,0,0,0,0,0,0,0,0,0,0,0,0,0,0,0,0,
0,0,0,0,0,0,0,0,0,0,0,0,0,0,0,0,0,0,0,0,0,0,0,0,0,0,0,0,0,0,0,0,0,0,0,0,0,0,0,0,0,0,0,0,0,0,0,0,0,0,0,0,0,0,0,0,0,0,0,0,0,0,0,0,0,0,0,0,0,0,
0,0,0,0,0,0,0,0,0,0,0,0,0,0,0,0,0,0,0,0,0,0,0,0,0,0,0,0,0,0,0,0,0,0,0,0,0,0,0,0,0,0,0,0,0,0,0,0,0,0,0,0,0,0,0,0,0,0,0,0,0,0,0,0,0,0,0,0,0,0,
0,0,0,0,0,0,0,0,0,0,0,0,0,0,0,0,0,0,0,0,0,0,0,0,0,0,0,0,0,0,0,0,0,0,0,0,0,0,0,0,0,0,0,0,0,0,0,0,0,0,0,0,0,0,0,0,0,0,0,0,0,0,0,0,0,0,0,0,0,0,
0,0,0,0,0,0,0,0,0,0,0,0,0,0,0,0,0,0,0,0,0,0,0,0,0,0,0,0,0,0,0,0,0,0,0,0,0,0,0,0,0,0,0,0,0,0,0,0,0,0,0,0,0,0,0,0,0,0,0,0,0,0,0,0,0,0,0,0,0,0,
0,0,0,0,0,0,0,0,0,0,0,0,0,0,0,0,0,0,0,0,0,0,0,0,0,0,0,0,0,0,0,0,0,0,0,0,0,0,0,0,0,0,0,0,0,0,0,0,0,0,0,0,0,0,0,0,0,0,0,0,0,0,0,0,0,0,0,0,0,0,
0,0,0,0,0,0,0,0,0,0,0,0,0,0,0,0,0,0,0,0,0,0,0,0,0,0,0,0,0,0,0,0,0,0,0,0,0,0,0,0,0,0,0,0,0,0,0,0,0,0,0,0,0,0,0,0,0,0,0,0,0,0,0,0,0,0,0,0,0,0,
0,0,0,0,0,0,0,0,0,0,0,0,0,0,0,0,0,0,0,0,0,0,0,0,0,0,0,0,0,0,0,0,0,0,0,0,0,0,0,0,0,0,0,0,0,0,0,0,0,0,0,0,0,0,0,0,0,0,0,0,0,0,0,0,0,0,0,0,0,0,
0,0,0,0,0,0,0,0,0,0,0,0,0,0,0,0,0,0,0,0,0,0,0,0,0,0,0,0,0,0,0,0,0,0,0,0,0,0,0,0,0,0,0,0,0,0,0,0,0,0,0,0,0,0,0,0,0,0,0,0,0,0,0,0,0,0,0,0,0,0,
0,0,0,0,0,0,0,0,0,0,0,0,0,0,0,0,0,0,0,0,0,0,0,0,0,0,0,0,0,0,0,0,0,0,0,0,0,0,0,0,0,0,0,0,0,0,0,0,0,0,0,0,0,0,0,0,0,0,0,0,0,0,0,0,0,0,0,0,0,0,
0,0,0,0,0,0,0,0,0,0,0,0,0,0,0,0,0,0,0,0,0,0,0,0,0,0,0,0,0,0,0,0,0,0,0,0,0,0,0,0,0,0,0,0,0,0,0,0,0,0,0,0,0,0,0,0,0,0,0,0,0,0,0,0,0,0,0,0,0,0,
0,0,0,0,0,0,0,0,0,0,0,0,0,0,0,0,0,0,0,0,0,0,0,0,0,0,0,0,0,0,0,0,0,0,0,0,0,0,0,0,0,0,0,0,0,0,0,0,0,0,0,0,0,0,0,0,0,0,0,0,0,0,0,0,0,0,0,0,0,0,
0,0,0,0,0,0,0,0,0,0,0,0,0,0,0,0,0,0,0,0,0,0,0,0,0,0,0,0,0,0,0,0,0,0,0,0,0,0,0,0,0,0,0,0,0,0,0,0,0,0,0,0,0,0,0,0,0,0,0,0,0,0,0,0,0,0,0,0,0,0,
0,0,0,0,0,0,0,0,0,0,0,0,0,0,0,0,0,0,0,0,0,0,0,0,0,0,0,0,0,0,0,0,0,0,0,0,0,0,0,0,0,0,0,0,0,0,0,0,0,0,0,0,0,0,0,0,0,0,0,0,0,0,0,0,0,0,0,0,0,0,
0,0,0,0,0,0,0,0,0,0,0,0,0,0,0,0,0,0,0,0,0,0,0,0,0,0,0,0,0,0,0,0,0,0,0,0,0,0,0,0,0,0,0,0,0,0,0,0,0,0,0,0,0,0,0,0,0,0,0,0,0,0,0,0,0,0,0,0,0,0,
0,0,0,0,0,0,0,0,0,0,0,0,0,0,0,0,0,0,0,0,0,0,0,0,0,0,0,0,0,0,0,0,0,0,0,0,0,0,0,0,0,0,0,0,0,0,0,0,0,0,0,0,0,0,0,0,0,0,0,0,0,0,0,0,0,0,0,0,0,0,
0,0,0,0,0,0,0,0,0,0,0,0,0,0,0,0,0,0,0,0,0,0,0,0,0,0,0,0,0,0,0,0,0,0,0,0,0,0,0,0,0,0,0,0,0,0,0,0,0,0,0,0,0,0,0,0,0,0,0,0,0,0,0,0,0,0,0,0,0,0,
0,0,0,0,0,0,0,0,0,0,0,0,0,0,0,0,0,0,0,0,0,0,0,0,0,0,0,0,0,0,0,0,0,0,0,0,0,0,0,0,0,0,0,0,0,0,0,0,0,0,0,0,0,0,0,0,0,0,0,0,0,0,0,0,0,0,0,0,0,0,
0,0,0,0,0,0,0,0,0,0,0,0,0,0,0,0,0,0,0,0,0,0,0,0,0,0,0,0,0,0,0,0,0,0,0,0,0,0,0,0,0,0,0,0,0,0,0,0,0,0,0,0,0,0,0,0,0,0,0,0,0,0,0,0,0,0,0,0,0,0
</data>
 </layer>
 <layer id="6" name="Bridge" width="70" height="70">
  <data encoding="csv">
0,0,0,0,0,0,0,0,0,0,0,0,0,0,0,0,0,0,0,0,0,0,0,0,0,0,0,0,0,0,0,0,0,0,0,0,0,0,0,0,0,0,0,0,0,0,0,0,0,0,0,0,0,0,0,0,0,0,0,0,0,0,0,0,0,0,0,0,0,0,
0,0,0,0,0,0,0,0,0,0,0,0,0,0,0,0,0,0,0,0,0,0,0,0,0,0,0,0,0,0,0,0,0,0,0,0,0,0,0,0,0,0,0,0,0,0,0,0,0,0,0,0,0,0,0,0,0,0,0,0,0,0,0,0,0,0,0,0,0,0,
0,0,0,0,0,0,0,0,0,0,0,0,0,0,0,0,0,0,0,0,0,0,0,0,0,0,0,0,0,0,0,0,0,0,0,0,0,0,0,0,0,0,0,0,0,0,0,0,0,0,0,0,0,0,0,0,0,0,0,0,0,0,0,0,0,0,0,0,0,0,
0,0,0,0,0,0,0,0,0,0,0,0,0,0,0,0,0,0,0,0,0,0,0,0,0,0,0,0,0,0,0,0,0,0,0,0,0,0,0,0,0,0,0,0,0,0,0,0,0,0,0,0,0,0,0,0,0,0,0,0,0,0,0,0,0,0,0,0,0,0,
0,0,0,0,0,0,0,0,0,0,0,0,0,0,0,0,0,0,0,0,0,0,0,0,0,0,0,0,0,0,0,0,0,0,0,0,0,0,0,0,0,0,0,0,0,0,0,0,0,0,0,0,0,0,0,0,0,0,0,0,0,0,0,0,0,0,0,0,0,0,
0,0,0,0,0,0,0,0,0,0,0,0,0,0,0,0,0,0,0,0,0,0,0,0,0,0,0,0,0,0,0,0,0,0,0,0,0,0,0,0,0,0,0,0,0,0,0,0,0,0,0,0,0,0,0,0,0,0,0,0,0,0,0,0,0,0,0,0,0,0,
0,0,0,0,0,0,0,0,0,0,0,0,0,0,0,0,0,0,0,0,0,0,0,0,0,0,0,0,0,0,0,0,0,0,0,0,0,0,0,0,0,0,0,0,0,0,0,0,0,0,0,0,0,0,0,0,0,0,0,0,0,0,0,0,0,0,0,0,0,0,
0,0,0,0,0,0,0,0,0,0,0,0,0,0,0,0,0,0,0,0,0,0,0,0,0,0,0,0,0,0,0,0,0,0,0,0,0,0,0,0,0,0,0,0,0,0,0,0,0,0,0,0,0,0,0,0,0,0,0,0,0,0,0,0,0,0,0,0,0,0,
0,0,0,0,0,0,0,0,0,0,0,0,0,0,0,0,0,0,0,0,0,0,0,0,0,0,0,0,0,0,0,0,0,0,0,0,0,0,0,0,0,0,0,0,0,0,0,0,0,0,0,0,0,0,0,0,0,0,0,0,0,0,0,0,0,0,0,0,0,0,
0,0,0,0,0,0,0,0,0,0,0,0,0,0,0,0,0,0,0,0,0,0,0,0,0,0,0,0,0,0,0,0,0,0,0,0,0,0,0,0,0,0,0,0,0,0,0,0,0,0,0,0,0,0,0,0,0,0,0,0,0,0,0,0,0,0,0,0,0,0,
0,0,0,0,0,0,0,0,0,0,0,0,0,0,0,0,0,0,0,0,0,0,0,0,0,0,0,0,0,0,0,0,0,0,0,0,0,0,0,0,0,0,0,0,0,0,0,0,0,0,0,0,0,0,0,0,0,0,0,0,0,0,0,0,0,0,0,0,0,0,
0,0,0,0,0,0,0,0,0,0,0,0,0,0,0,0,0,0,0,0,0,0,0,0,0,0,0,0,0,0,0,0,0,0,0,0,0,0,0,0,0,0,0,0,0,0,0,0,0,0,0,0,0,0,0,0,0,0,0,0,0,0,0,0,0,0,0,0,0,0,
0,0,0,0,0,0,0,0,0,0,0,0,0,0,0,0,0,0,0,0,0,0,0,0,0,0,0,0,0,0,0,0,0,0,0,0,0,0,0,0,0,0,0,0,0,0,0,0,0,0,0,0,0,0,0,0,0,0,0,0,0,0,0,0,0,0,0,0,0,0,
0,0,0,0,0,0,0,0,0,0,0,0,0,0,0,0,0,0,0,0,0,0,0,0,0,0,0,0,0,0,0,0,0,0,0,0,0,0,0,0,0,0,0,0,0,0,0,0,0,0,0,0,0,0,0,0,0,0,0,0,0,0,0,0,0,0,0,0,0,0,
0,0,0,0,0,0,0,0,0,0,0,0,0,0,0,0,0,0,0,0,0,0,0,0,0,0,0,0,0,0,0,0,0,0,0,0,0,0,0,0,0,0,0,0,0,0,0,0,0,0,0,0,0,0,0,0,0,0,0,0,0,0,0,0,0,0,0,0,0,0,
0,0,0,0,0,0,0,0,0,0,0,0,0,0,0,0,0,0,0,0,0,0,0,0,0,0,0,0,0,0,0,0,0,0,0,0,0,0,0,0,0,0,0,0,0,0,0,0,0,0,0,0,0,0,0,0,0,0,0,0,0,0,0,0,0,0,0,0,0,0,
0,0,0,0,0,0,0,0,0,0,0,0,0,0,0,0,0,0,0,0,0,0,0,0,0,0,0,0,0,0,0,0,0,0,0,0,0,0,0,0,0,0,0,0,0,0,0,0,0,0,0,0,0,0,0,0,0,0,0,0,0,0,0,0,0,0,0,0,0,0,
0,0,0,0,0,0,0,0,0,0,0,0,0,0,0,0,0,0,0,0,0,0,0,0,0,0,0,0,0,0,0,0,0,0,0,0,0,0,0,0,0,0,0,0,0,0,0,0,0,0,0,0,0,0,0,0,0,0,0,0,0,0,0,0,0,0,0,0,0,0,
0,0,0,0,0,0,0,0,0,0,0,0,0,0,0,0,0,0,0,0,0,0,0,0,0,0,0,0,0,0,0,0,0,0,0,0,0,0,0,0,0,0,0,0,0,0,0,0,0,0,0,0,0,0,0,0,0,0,0,0,0,0,0,0,0,0,0,0,0,0,
0,0,0,0,0,0,0,0,0,0,0,0,0,0,0,0,0,0,0,0,0,0,0,0,0,0,0,0,0,0,0,0,0,0,0,0,0,0,0,0,0,0,0,0,0,0,0,0,0,0,0,0,0,0,0,0,0,0,0,0,0,0,0,0,0,0,0,0,0,0,
0,0,0,0,0,0,0,0,0,0,0,0,0,0,0,0,0,0,0,0,0,0,0,0,0,0,0,0,0,0,0,0,0,0,0,0,0,0,0,0,0,0,0,0,0,0,0,0,0,0,0,0,0,0,0,0,0,0,0,0,0,0,0,0,0,0,0,0,0,0,
0,0,0,0,0,0,0,0,0,0,0,0,0,0,0,0,0,0,0,0,0,0,0,0,0,0,0,0,0,0,0,0,0,0,0,0,0,0,0,0,0,0,0,0,0,0,0,0,0,0,0,0,0,0,0,0,0,0,0,0,0,0,0,0,0,0,0,0,0,0,
0,0,0,0,0,0,0,0,0,0,0,0,0,0,0,0,0,0,0,0,0,0,0,0,0,0,0,0,0,0,0,0,0,0,0,0,0,0,0,0,0,0,0,0,0,0,0,0,0,0,0,0,0,0,0,0,0,0,0,0,0,0,0,0,0,0,0,0,0,0,
0,0,0,0,0,0,0,0,0,0,0,0,0,0,0,0,0,0,0,0,0,0,0,0,0,0,0,0,0,0,0,0,0,0,0,0,0,0,0,0,0,0,0,0,0,0,0,0,0,0,0,0,0,0,0,0,0,0,0,0,0,0,0,0,0,0,0,0,0,0,
0,0,0,0,0,0,0,0,0,0,0,0,0,0,0,0,0,0,0,0,0,0,0,0,0,0,0,0,0,0,0,0,0,0,0,0,0,0,0,0,0,0,0,0,0,0,0,0,0,0,0,0,0,0,0,0,0,0,0,0,0,0,0,0,0,0,0,0,0,0,
0,0,0,0,0,0,0,0,0,0,0,0,0,0,0,0,0,0,0,0,0,0,0,0,0,0,0,0,0,0,0,0,0,0,0,0,0,0,0,0,0,0,0,0,0,0,0,0,0,0,0,0,0,0,0,0,0,0,0,0,0,0,0,0,0,0,0,0,0,0,
0,0,0,0,0,0,0,0,0,0,0,0,0,0,0,0,0,0,0,0,0,0,0,0,0,0,0,0,0,0,0,0,0,0,0,0,0,0,0,0,0,0,0,0,0,0,0,0,0,0,0,0,0,0,0,0,0,0,0,0,0,0,0,0,0,0,0,0,0,0,
0,0,0,0,0,0,0,1,0,0,0,0,0,0,0,0,0,0,0,0,0,0,0,0,0,0,0,0,0,0,0,0,0,0,0,0,0,0,0,0,0,0,0,0,0,0,0,0,0,0,0,0,0,0,0,0,0,0,0,0,0,0,0,0,0,0,0,0,0,0,
0,0,0,0,0,0,0,0,0,0,0,0,0,0,0,0,0,0,0,0,0,0,0,0,0,0,0,0,0,0,0,0,0,0,0,0,0,0,0,0,0,0,0,0,0,0,0,0,0,0,0,0,0,0,0,0,0,0,0,0,0,0,0,0,0,0,0,0,0,0,
0,0,0,0,0,0,0,0,0,0,0,0,0,0,0,0,0,0,0,0,0,0,0,0,0,0,0,0,0,0,0,0,0,0,0,0,0,0,0,0,0,0,0,0,0,0,0,0,0,0,0,0,0,0,0,0,0,0,0,0,0,0,0,0,0,0,0,0,0,0,
0,0,0,0,0,0,0,0,0,0,0,0,0,0,0,0,0,0,0,0,0,0,0,0,0,0,0,0,0,0,0,0,0,0,0,0,0,0,0,0,0,0,0,0,0,0,0,0,0,0,0,0,0,0,0,0,0,0,0,0,0,0,0,0,0,0,0,0,0,0,
0,0,0,0,0,0,0,0,0,0,0,0,0,0,0,0,0,0,0,0,0,0,0,0,0,0,0,0,0,0,0,0,0,0,0,0,0,0,0,0,0,0,0,0,0,0,0,0,0,0,0,0,0,0,0,0,0,0,0,0,0,0,0,0,0,0,0,0,0,0,
0,0,0,0,0,0,0,0,0,0,0,0,0,234,237,236,236,236,236,237,236,235,236,235,237,233,0,0,0,0,0,0,0,0,0,0,0,0,0,0,0,0,0,0,0,0,0,0,0,0,0,0,0,0,0,0,0,0,0,0,0,0,0,0,0,0,0,0,0,0,
0,0,0,0,0,0,0,0,0,0,0,0,0,241,242,243,244,242,243,244,242,243,244,242,243,240,0,0,0,0,0,0,0,0,0,0,0,0,0,0,0,0,0,0,0,0,0,0,0,0,0,0,0,0,0,0,0,0,0,0,0,0,0,0,0,0,0,0,0,0,
0,0,0,0,0,0,0,0,0,0,0,0,0,241,242,243,244,242,243,244,242,243,244,242,243,240,0,0,0,0,0,0,0,0,0,0,0,0,0,0,0,0,0,0,0,0,0,0,0,0,0,0,0,0,0,0,0,0,0,0,0,0,0,0,0,0,0,0,0,0,
0,0,0,0,0,0,0,0,0,0,0,0,0,241,242,243,244,242,243,244,242,243,244,242,243,240,0,0,0,0,0,0,0,0,0,0,0,0,0,0,0,0,0,0,0,0,0,0,0,0,0,0,0,0,0,0,0,0,0,0,0,0,0,0,0,0,0,0,0,0,
0,0,0,0,0,0,0,0,0,0,0,0,0,248,251,249,249,249,249,251,250,250,249,250,251,247,0,0,0,0,0,0,0,0,0,0,0,0,0,0,0,0,0,0,0,0,0,0,0,0,0,0,0,0,0,0,0,0,0,0,0,0,0,0,0,0,0,0,0,0,
0,0,0,0,0,0,0,0,0,0,0,0,0,0,0,0,0,0,0,0,0,0,0,0,0,0,0,0,0,0,0,0,0,0,0,0,0,0,0,0,0,0,0,0,0,0,0,0,0,0,0,0,0,0,0,0,0,0,0,0,0,0,0,0,0,0,0,0,0,0,
0,0,0,0,0,0,0,0,0,0,0,0,0,0,0,0,0,0,0,0,0,0,0,0,0,0,0,0,0,0,0,0,0,0,0,0,0,0,0,0,0,0,0,0,0,0,0,0,0,0,0,0,0,0,0,0,0,0,0,0,0,0,0,0,0,0,0,0,0,0,
0,0,0,0,0,0,0,0,0,0,0,0,0,0,0,0,0,0,0,0,0,0,0,0,0,0,0,0,0,0,0,0,0,0,0,0,0,0,0,0,0,0,0,0,0,0,0,0,0,0,0,0,0,0,0,0,0,0,0,0,0,0,0,0,0,0,0,0,0,0,
0,0,0,0,0,0,0,0,0,0,0,0,0,0,0,0,0,0,0,0,0,0,0,0,0,0,0,0,0,0,0,0,0,0,0,0,0,0,0,0,0,0,0,0,0,0,0,0,0,0,0,0,0,0,0,0,0,0,0,0,0,0,0,0,0,0,0,0,0,0,
0,0,0,0,0,0,0,0,0,0,0,0,0,0,0,0,0,0,0,0,0,0,0,0,0,0,0,0,0,0,0,0,0,0,0,0,0,0,0,0,0,0,0,0,0,0,0,0,0,0,0,0,0,0,0,0,0,0,0,0,0,0,0,0,0,0,0,0,0,0,
0,0,0,0,0,0,0,0,0,0,0,0,0,0,0,0,0,0,0,0,0,0,0,0,0,0,0,0,0,0,0,0,0,0,0,0,0,0,0,0,0,0,0,0,0,0,0,0,0,0,0,0,0,0,0,0,0,0,0,0,0,0,0,0,0,0,0,0,0,0,
0,0,0,0,0,0,0,0,0,0,0,0,0,0,0,0,0,0,0,0,0,0,0,0,0,0,0,0,0,0,0,0,0,0,0,0,0,0,0,0,0,0,0,0,0,0,0,0,0,0,0,0,0,0,0,0,0,0,0,0,0,0,0,0,0,0,0,0,0,0,
0,0,0,0,0,0,0,0,0,0,0,0,0,0,0,0,0,0,0,0,0,0,0,0,0,0,0,0,0,0,0,0,0,0,0,0,0,0,0,0,0,0,0,0,0,0,0,0,0,0,0,0,0,0,0,0,0,0,0,0,0,0,0,0,0,0,0,0,0,0,
0,0,0,0,0,0,0,0,0,0,0,0,0,0,0,0,0,0,0,0,0,0,0,0,0,0,0,0,0,0,0,0,0,0,0,0,0,0,0,0,0,0,0,0,0,0,0,0,0,0,0,0,0,0,0,0,0,0,0,0,0,0,0,0,0,0,0,0,0,0,
0,0,0,0,0,0,0,0,0,0,0,0,0,0,0,0,0,0,0,0,0,0,0,0,0,0,0,0,0,0,0,0,0,0,0,0,0,0,0,0,0,0,0,0,0,0,0,0,0,0,0,0,0,0,0,0,0,0,0,0,0,0,0,0,0,0,0,0,0,0,
0,0,0,0,0,0,0,0,0,0,0,0,0,0,0,0,0,0,0,0,0,0,0,0,0,0,0,0,0,0,0,0,0,0,0,0,0,0,0,0,0,0,0,0,0,0,0,0,0,0,0,0,0,0,0,0,0,0,0,0,0,0,0,0,0,0,0,0,0,0,
0,0,0,0,0,0,0,0,0,0,0,0,0,0,0,0,0,0,0,0,0,0,0,0,0,0,0,0,0,0,0,0,0,0,0,0,0,0,0,0,0,0,0,0,0,0,0,0,0,0,0,0,0,0,0,0,0,0,0,0,0,0,0,0,0,0,0,0,0,0,
0,0,0,0,0,0,0,0,234,237,235,235,237,238,0,0,0,0,0,0,0,0,0,0,0,0,0,0,0,0,0,0,0,0,0,0,0,0,0,0,0,0,0,0,0,0,0,0,0,0,0,0,0,0,0,0,0,0,0,0,0,0,0,0,0,0,0,0,0,0,
0,0,0,0,0,0,0,0,241,242,242,242,242,245,0,0,0,0,0,0,0,0,0,0,0,0,0,0,0,0,0,0,0,0,0,0,0,0,0,0,0,0,0,0,0,0,0,0,0,0,0,0,0,0,0,0,0,0,0,0,0,0,0,0,0,0,0,0,0,0,
0,0,0,0,0,0,0,0,241,243,242,243,242,245,0,0,0,0,0,0,0,0,0,0,0,0,0,0,0,0,0,0,0,0,0,0,0,0,0,0,0,0,0,0,0,0,0,0,0,0,0,0,0,0,0,0,0,0,0,0,0,0,0,0,0,0,0,0,0,0,
0,0,0,0,0,0,0,0,248,251,250,249,251,252,0,0,0,0,0,0,0,0,0,0,0,0,0,0,0,0,0,0,0,0,0,0,0,0,0,0,0,0,0,0,0,0,0,0,0,0,0,0,0,0,0,0,0,0,0,0,0,0,0,0,0,0,0,0,0,0,
0,0,0,0,0,0,0,0,0,0,0,0,0,0,0,0,0,0,0,0,0,0,0,0,0,0,0,0,0,0,0,0,0,0,0,0,0,0,0,0,0,0,0,0,0,0,0,0,0,0,0,0,0,0,0,0,0,0,0,0,0,0,0,0,0,0,0,0,0,0,
0,0,0,0,0,0,0,0,0,0,0,0,0,0,0,0,0,0,0,0,0,0,0,0,0,0,0,0,0,0,0,0,0,0,0,0,0,0,0,0,0,0,0,0,0,0,0,0,0,0,0,0,0,0,0,0,0,0,0,0,0,0,0,0,0,0,0,0,0,0,
0,0,0,0,0,0,0,0,0,0,0,0,0,0,0,0,0,0,0,0,0,0,0,0,0,0,0,0,0,0,0,0,0,0,0,0,0,0,0,0,0,0,0,0,0,0,0,0,0,0,0,0,0,0,0,0,0,0,0,0,0,0,0,0,0,0,0,0,0,0,
0,0,0,0,0,0,0,0,0,0,0,0,0,0,0,0,0,0,0,0,0,0,0,0,0,0,0,0,0,0,0,0,0,0,0,0,0,0,0,0,0,0,0,0,0,0,0,0,0,0,0,0,0,0,0,0,0,0,0,0,0,0,0,0,0,0,0,0,0,0,
0,0,0,0,0,0,0,0,0,0,0,0,0,0,0,0,0,0,0,0,0,0,0,0,0,0,0,0,0,0,0,0,0,0,0,0,0,0,0,0,0,0,0,0,0,0,0,0,0,0,0,0,0,0,0,0,0,0,0,0,0,0,0,0,0,0,0,0,0,0,
0,0,0,0,0,0,0,0,0,0,0,0,0,0,0,0,0,0,0,0,0,0,0,0,0,0,0,0,0,0,0,0,0,0,0,0,0,0,0,0,0,0,0,0,0,0,0,0,0,0,0,0,0,0,0,0,0,0,0,0,0,0,0,0,0,0,0,0,0,0,
0,0,0,0,0,0,0,0,0,0,0,0,0,0,0,0,0,0,0,0,0,0,0,0,0,0,0,0,0,0,0,0,0,0,0,0,0,0,0,0,0,0,0,0,0,0,0,0,0,0,0,0,0,0,0,0,0,0,0,0,0,0,0,0,0,0,0,0,0,0,
0,0,0,0,0,0,0,0,0,0,0,0,0,0,0,0,0,0,0,0,0,0,0,0,0,0,0,0,0,0,0,0,0,0,0,0,0,0,0,0,0,0,0,0,0,0,0,0,0,0,0,0,0,0,0,0,0,0,0,0,0,0,0,0,0,0,0,0,0,0,
0,0,0,0,0,0,0,0,0,0,0,0,0,0,0,0,0,0,0,0,0,0,0,0,0,0,0,0,0,0,0,0,0,234,235,237,236,236,235,236,235,237,236,233,0,0,0,0,0,0,0,0,0,0,0,0,0,0,0,0,0,0,0,0,0,0,0,0,0,0,
0,0,0,0,0,0,0,0,0,0,0,0,0,0,0,0,0,0,0,0,0,0,0,0,0,0,0,0,0,0,0,0,0,241,243,243,243,243,242,244,243,242,242,240,0,0,0,0,0,0,0,0,0,0,0,0,0,0,0,0,0,0,0,0,0,0,0,0,0,0,
0,0,0,0,0,0,0,0,0,0,0,0,0,0,0,0,0,0,0,0,0,0,0,0,0,0,0,0,0,0,0,0,0,241,243,244,244,243,243,242,242,243,242,240,0,0,0,0,0,0,0,0,0,0,0,0,0,0,0,0,0,0,0,0,0,0,0,0,0,0,
0,0,0,0,0,0,0,0,0,0,0,0,0,0,0,0,0,0,0,234,235,237,235,235,235,236,237,235,233,0,0,0,0,248,251,251,250,250,250,249,249,251,249,247,0,0,0,0,0,0,0,0,0,0,0,0,0,0,0,0,0,0,0,0,0,0,0,0,0,0,
0,0,0,0,0,0,0,0,0,0,0,0,0,0,0,0,0,0,0,241,242,243,243,244,242,243,242,243,240,0,0,0,0,0,0,0,0,0,0,0,0,0,0,0,0,0,0,0,0,0,0,0,0,0,0,0,0,0,0,0,0,0,0,0,0,0,0,0,0,0,
0,0,0,0,0,0,0,0,0,0,0,0,0,0,0,0,0,0,0,241,242,244,244,242,243,243,242,244,240,0,0,0,0,0,0,0,0,0,0,0,0,0,0,0,0,0,0,0,0,0,0,0,0,0,0,0,0,0,0,0,0,0,0,0,0,0,0,0,0,0,
0,0,0,0,0,0,0,0,0,0,0,0,0,0,0,0,0,0,0,248,249,251,250,250,250,249,251,250,247,0,0,0,0,0,0,0,0,0,0,0,0,0,0,0,0,0,0,0,0,0,0,0,0,0,0,0,0,0,0,0,0,0,0,0,0,0,0,0,0,0,
0,0,0,0,0,0,0,0,0,0,0,0,0,0,0,0,0,0,0,0,0,0,0,0,0,0,0,0,0,0,0,0,0,0,0,0,0,0,0,0,0,0,0,0,0,0,0,0,0,0,0,0,0,0,0,0,0,0,0,0,0,0,0,0,0,0,0,0,0,0,
0,0,0,0,0,0,0,0,0,0,0,0,0,0,0,0,0,0,0,0,0,0,0,0,0,0,0,0,0,0,0,0,0,0,0,0,0,0,0,0,0,0,0,0,0,0,0,0,0,0,0,0,0,0,0,0,0,0,0,0,0,0,0,0,0,0,0,0,0,0
</data>
 </layer>
 <layer id="4" name="Waterfall" width="70" height="70">
  <data encoding="csv">
0,0,0,0,0,0,0,0,0,0,0,0,0,0,0,0,0,0,0,0,0,0,0,0,0,0,0,0,0,0,0,0,0,0,0,0,0,0,0,0,0,0,0,0,0,0,0,0,0,0,0,0,0,0,0,0,0,0,0,0,0,0,0,0,0,0,0,0,0,0,
0,0,0,0,0,0,0,0,0,0,0,0,0,0,0,0,0,0,0,0,0,0,0,0,0,0,0,0,0,0,0,0,0,0,0,0,0,0,0,0,0,0,0,0,0,0,0,0,0,0,0,0,0,0,0,0,0,0,0,0,0,0,0,0,0,0,0,0,0,0,
0,0,0,0,0,0,0,0,0,0,0,0,0,0,0,0,0,0,0,0,0,0,0,0,0,0,0,0,0,0,0,0,0,0,0,0,0,0,0,0,0,0,0,0,0,0,0,0,0,0,0,0,0,0,0,0,0,0,0,0,0,0,0,0,0,0,0,0,0,0,
0,0,0,0,0,0,0,0,0,0,0,0,0,0,0,0,0,0,0,0,0,0,0,0,0,0,0,0,0,0,0,0,0,0,0,0,0,0,0,0,0,0,0,0,0,0,0,0,0,0,0,0,0,0,0,0,0,0,0,0,0,0,0,0,0,0,0,0,0,0,
0,0,0,0,0,0,0,0,0,0,0,0,0,0,0,0,0,0,0,0,0,0,0,0,0,0,0,0,0,0,0,0,0,0,0,0,0,0,0,0,0,0,0,0,0,0,0,0,0,0,0,0,0,0,0,0,0,0,0,0,0,0,0,0,0,0,0,0,0,0,
0,0,0,0,0,0,0,0,0,0,0,0,0,0,0,0,0,0,0,0,0,0,0,0,0,0,0,0,0,0,0,0,0,0,0,0,0,0,0,0,0,0,0,0,0,0,0,0,0,0,0,0,0,0,0,0,0,0,0,0,0,0,0,0,0,0,0,0,0,0,
0,0,0,0,0,0,0,0,0,0,0,0,0,0,0,0,0,0,0,0,0,0,0,0,0,0,0,0,0,0,0,0,0,0,0,0,0,0,0,0,0,0,0,0,0,0,0,0,0,0,0,0,0,0,0,0,0,0,0,0,0,0,0,0,0,0,0,0,0,0,
0,0,0,0,0,0,0,0,0,0,0,0,0,0,0,0,0,0,0,0,0,0,0,0,0,0,0,0,0,0,0,0,0,0,0,0,0,0,0,0,0,0,0,0,0,0,0,0,0,0,0,0,0,0,0,0,0,0,0,0,0,0,0,0,0,0,0,0,0,0,
0,0,0,0,0,0,0,0,0,0,0,0,0,0,0,0,0,0,0,0,0,0,0,0,0,0,0,0,0,0,0,0,0,0,0,0,0,0,0,0,0,0,0,0,0,0,0,0,0,0,0,0,0,0,0,0,0,0,0,0,0,0,0,0,0,0,0,0,0,0,
0,0,0,0,0,0,0,0,0,0,0,0,0,0,0,0,0,0,0,0,0,0,0,0,0,0,0,0,0,0,0,0,0,0,0,0,0,0,0,0,0,0,0,0,0,0,0,0,0,0,0,0,0,0,0,0,0,0,0,0,0,0,0,0,0,0,0,0,0,0,
0,0,0,0,0,0,0,0,0,0,0,0,0,0,0,0,0,0,0,0,0,0,0,0,0,0,0,0,0,0,0,0,0,0,0,0,0,0,0,0,0,0,0,0,0,0,0,0,0,0,0,0,0,0,0,0,0,0,0,0,0,0,0,0,0,0,0,0,0,0,
0,0,0,0,0,0,0,0,0,0,0,0,0,0,0,0,0,0,0,0,0,0,0,0,0,0,0,0,0,0,0,0,0,0,0,0,0,0,0,0,0,0,0,0,0,0,0,0,0,0,0,0,0,0,0,0,0,0,0,0,0,0,0,0,0,0,0,0,0,0,
0,0,0,0,0,0,0,0,0,0,0,0,0,0,0,0,0,0,0,0,0,0,0,0,0,0,0,0,0,0,0,0,0,0,0,0,0,0,0,0,0,0,0,0,0,0,0,0,0,0,0,0,0,0,0,0,0,0,0,0,0,0,0,0,0,0,0,0,0,0,
0,0,0,0,0,0,0,0,0,0,0,0,0,0,0,0,0,0,0,0,0,0,0,0,0,0,0,0,0,0,0,0,0,0,0,0,0,0,0,0,0,0,0,0,0,0,0,0,0,0,0,0,0,0,0,0,0,0,0,0,0,0,0,0,0,0,0,0,0,0,
0,0,0,0,0,0,0,0,0,0,0,0,0,0,0,0,0,0,0,0,0,0,0,0,0,0,0,0,0,0,0,0,0,0,0,0,0,0,0,0,0,0,0,0,0,0,0,0,0,0,0,0,0,0,0,0,0,0,0,0,0,0,0,0,0,0,0,0,0,0,
0,0,0,0,0,0,0,0,0,0,0,0,0,0,0,0,0,0,0,0,0,0,0,0,0,0,0,0,0,0,0,0,0,0,0,0,0,0,0,0,0,0,0,0,0,0,0,0,0,0,0,0,0,0,0,0,0,0,0,0,0,0,0,0,0,0,0,0,0,0,
0,0,0,0,0,0,0,0,0,0,0,0,0,0,0,0,0,0,0,0,0,0,0,0,0,0,0,0,0,0,0,0,0,0,0,0,0,0,0,0,0,0,0,0,0,0,0,0,0,0,0,0,0,0,0,0,0,0,0,0,0,0,0,0,0,0,0,0,0,0,
0,0,0,0,0,0,0,0,0,0,0,0,0,0,0,0,0,0,0,0,0,0,0,0,0,0,0,0,0,0,0,0,0,0,0,0,0,0,0,0,0,0,0,0,0,0,0,0,0,0,0,0,0,0,0,0,0,0,0,0,0,0,0,0,0,0,0,0,0,0,
0,0,0,0,0,0,0,0,0,0,0,0,0,0,0,0,0,0,0,0,0,0,0,0,0,0,0,0,0,0,0,0,0,0,0,0,0,0,0,0,0,0,0,0,0,0,0,0,0,0,0,0,0,0,0,0,0,0,0,0,0,0,0,0,0,0,0,0,0,0,
0,0,0,0,0,0,0,0,0,0,0,0,0,0,0,0,0,0,0,0,0,0,0,0,0,0,0,0,0,0,0,0,0,0,0,0,0,0,0,0,0,0,0,0,0,0,0,0,0,0,0,0,0,0,0,0,0,0,0,0,0,0,0,0,0,0,0,0,0,0,
0,0,0,0,0,0,0,0,0,0,0,0,0,0,0,0,0,0,0,0,0,0,0,0,0,0,0,0,0,0,0,0,0,0,0,0,0,0,0,0,0,0,0,0,0,0,0,0,0,0,0,0,0,0,0,0,0,0,0,0,0,0,0,0,0,0,0,0,0,0,
0,0,0,0,0,0,0,0,0,0,0,0,0,0,0,0,0,0,0,0,0,0,0,0,0,0,0,0,0,0,0,0,0,0,0,0,0,0,0,0,0,0,0,0,0,0,0,0,0,0,0,0,0,0,0,0,0,0,0,0,0,0,0,0,0,0,0,0,0,0,
0,0,0,0,0,0,0,0,0,0,0,0,0,0,0,0,0,0,0,0,0,0,0,0,0,0,0,0,0,0,0,0,0,0,0,0,0,0,0,0,0,0,0,0,0,0,0,0,0,0,0,0,0,0,0,0,0,0,0,0,0,0,0,0,0,0,0,0,0,0,
0,0,0,0,0,0,0,0,0,0,0,0,0,0,0,0,0,0,0,0,0,0,0,0,0,0,0,0,0,0,0,0,0,0,0,0,0,0,0,0,0,0,0,0,0,0,0,0,0,0,0,0,0,0,0,0,0,0,0,0,0,0,0,0,0,0,0,0,0,0,
0,0,0,0,0,0,0,0,0,0,0,0,0,0,0,0,0,0,0,0,0,0,0,0,0,0,0,0,0,0,0,0,0,0,0,0,0,0,0,0,0,0,0,0,0,0,0,0,0,0,0,0,0,0,0,0,0,0,0,0,0,0,0,0,0,0,0,0,0,0,
0,0,0,0,0,0,0,0,0,0,0,0,0,0,0,0,0,0,0,0,0,0,0,0,0,0,0,0,0,0,0,0,0,0,0,0,0,0,0,0,0,0,0,0,0,0,0,0,0,0,0,0,0,0,0,0,0,0,0,0,0,0,0,0,0,0,0,0,0,0,
0,0,0,0,0,0,0,0,0,0,0,0,0,0,0,0,0,0,0,0,0,0,0,0,0,0,0,0,0,0,0,0,0,0,0,0,0,0,0,0,0,0,0,0,0,0,0,0,0,0,0,0,0,0,0,0,0,0,0,0,0,0,0,0,0,0,0,0,0,0,
0,0,0,0,0,0,0,0,0,0,0,0,0,0,0,0,0,0,0,0,0,0,0,0,0,0,0,0,0,0,0,0,0,0,0,0,0,0,0,0,0,0,0,0,0,0,0,0,0,0,0,0,0,0,0,0,0,0,0,0,0,0,0,0,0,0,0,0,0,0,
0,0,0,0,0,0,0,0,0,0,0,0,0,0,0,0,0,0,0,0,0,0,0,0,0,0,0,0,0,0,0,0,0,0,0,0,0,0,0,0,0,0,0,0,0,0,0,0,0,0,0,0,0,0,0,0,0,0,0,0,0,0,0,0,0,0,0,0,0,0,
0,0,0,0,0,0,0,0,0,0,0,0,0,0,0,0,0,0,0,0,0,0,0,0,0,0,0,0,0,0,0,0,0,0,0,0,0,0,0,0,0,0,0,0,0,0,0,0,0,0,0,0,0,0,0,0,0,0,0,0,0,0,0,0,0,0,0,0,0,0,
0,0,0,0,0,0,0,0,0,0,0,0,0,0,0,0,0,0,0,0,0,0,0,0,0,0,0,0,0,0,0,0,0,0,0,0,0,0,0,0,0,0,0,0,0,0,0,0,0,0,0,0,0,0,0,0,0,0,0,0,0,0,0,0,0,0,0,0,0,0,
0,0,0,0,0,0,0,0,0,0,0,0,0,0,0,0,0,0,0,0,0,0,0,0,0,0,0,0,0,0,0,0,0,0,0,0,0,0,0,0,0,0,0,0,0,0,0,0,0,0,0,0,0,0,0,0,0,0,0,0,0,0,0,0,0,0,0,0,0,0,
0,0,0,0,0,0,0,0,0,0,0,0,0,0,0,0,0,0,0,0,0,0,0,0,0,0,0,0,0,0,0,0,0,0,0,0,0,0,0,0,0,0,0,0,0,0,0,0,0,0,0,0,0,0,0,0,0,0,0,0,0,0,0,0,0,0,0,0,0,0,
0,0,0,0,0,0,0,0,0,0,0,0,0,0,0,0,0,0,0,0,0,0,0,0,0,0,0,0,0,0,0,0,0,0,0,0,0,0,0,0,0,0,0,0,0,0,0,0,0,0,0,0,0,0,0,0,0,0,0,0,0,0,0,0,0,0,0,0,0,0,
0,0,0,0,0,0,0,0,0,0,0,0,0,0,0,0,0,0,0,0,0,0,0,0,0,0,0,0,0,0,0,0,0,0,0,0,0,0,0,0,0,0,0,0,0,0,0,0,0,0,0,0,0,0,0,0,0,0,0,0,0,0,0,0,0,0,0,0,0,0,
0,0,0,0,0,0,0,0,0,0,0,0,0,0,0,0,0,0,0,0,0,0,0,0,0,0,0,0,0,0,0,0,0,0,0,0,0,0,0,0,0,0,0,0,0,0,0,0,0,0,0,0,0,0,0,0,0,0,0,0,0,0,0,0,0,0,0,0,0,0,
0,0,0,0,0,0,0,0,0,0,0,0,0,0,0,0,0,0,0,0,0,0,0,0,0,0,0,0,0,0,0,0,0,0,0,0,0,0,0,0,0,0,0,0,0,0,0,0,0,0,0,0,0,0,0,0,0,0,0,0,0,0,0,0,0,0,0,0,0,0,
0,0,0,0,0,0,0,0,0,0,0,0,0,0,0,0,0,0,0,0,0,0,0,0,0,0,0,0,0,0,0,0,0,0,0,0,0,0,0,0,0,0,0,0,0,0,0,0,0,0,0,0,0,0,0,0,0,0,0,0,0,0,0,0,0,0,0,0,0,0,
0,0,0,0,0,0,0,0,0,0,0,0,0,0,0,0,0,0,0,0,0,0,0,0,0,0,0,0,0,0,0,0,0,0,0,0,0,0,0,0,0,0,0,0,0,0,0,0,0,0,0,0,0,0,0,0,0,0,0,0,0,0,0,0,0,0,0,0,0,0,
0,0,0,0,0,0,0,0,0,0,0,0,0,0,0,0,0,0,0,0,0,0,0,0,0,0,0,0,0,0,0,0,0,0,0,0,0,0,0,0,0,0,0,0,0,0,0,0,0,0,0,0,0,0,0,0,0,0,0,0,0,0,0,0,0,0,0,0,0,0,
0,0,0,0,0,0,0,0,0,0,0,0,0,0,0,0,0,0,0,0,0,0,0,0,0,0,0,0,0,0,0,0,0,0,0,0,0,0,0,0,0,0,0,0,0,0,0,0,0,0,0,0,0,0,0,0,0,0,0,0,0,0,0,0,0,0,0,0,0,0,
0,0,0,0,0,0,0,0,0,0,0,0,0,150,151,151,151,151,151,151,151,151,151,151,151,152,0,0,0,0,0,0,0,0,0,0,0,0,0,0,0,0,0,0,0,0,0,0,0,0,0,0,0,0,0,0,0,0,0,0,0,0,0,0,0,0,0,0,0,0,
0,0,0,0,0,0,0,0,0,0,0,0,0,166,167,167,167,167,167,167,167,167,167,167,167,168,0,0,0,0,0,0,0,0,0,0,0,0,0,0,0,0,0,0,0,0,0,0,0,0,0,0,0,0,0,0,0,0,0,0,0,0,0,0,0,0,0,0,0,0,
0,0,0,0,0,0,0,0,0,0,0,0,0,166,167,167,167,167,167,167,167,167,167,167,167,168,0,0,0,0,0,0,0,0,0,0,0,0,0,0,0,0,0,0,0,0,0,0,0,0,0,0,0,0,0,0,0,0,0,0,0,0,0,0,0,0,0,0,0,0,
0,0,0,0,0,0,0,0,0,0,0,0,0,166,167,167,167,167,167,167,167,167,167,167,167,168,0,0,0,0,0,0,0,0,0,0,0,0,0,0,0,0,0,0,0,0,0,0,0,0,0,0,0,0,0,0,0,0,0,0,0,0,0,0,0,0,0,0,0,0,
0,0,0,0,0,0,0,0,0,0,0,0,0,182,183,183,183,183,183,183,183,183,183,183,183,184,0,0,0,0,0,0,0,0,0,0,0,0,0,0,0,0,0,0,0,0,0,0,0,0,0,0,0,0,0,0,0,0,0,0,0,0,0,0,0,0,0,0,0,0,
0,0,0,0,0,0,0,0,0,0,0,0,0,0,0,0,0,0,0,0,0,0,0,0,0,0,0,0,0,0,0,0,0,0,0,0,0,0,0,0,0,0,0,0,0,0,0,0,0,0,0,0,0,0,0,0,0,0,0,0,0,0,0,0,0,0,0,0,0,0,
0,0,0,0,0,0,0,0,0,0,0,0,0,0,0,0,0,0,0,0,0,0,0,0,0,0,0,0,0,0,0,0,0,0,0,0,0,0,0,0,0,0,0,0,0,0,0,0,0,0,0,0,0,0,0,0,0,0,0,0,0,0,0,0,0,0,0,0,0,0,
0,0,0,0,0,0,0,0,0,0,0,0,0,0,0,0,0,0,0,0,0,0,0,0,0,0,0,0,0,0,0,0,0,0,0,0,0,0,0,0,0,0,0,0,0,0,0,0,0,0,0,0,0,0,0,0,0,0,0,0,0,0,0,0,0,0,0,0,0,0,
0,0,0,0,0,0,0,0,0,0,0,0,0,0,0,0,0,0,0,0,0,0,0,0,0,0,0,0,0,0,0,0,0,0,0,0,0,0,0,0,0,0,0,0,0,0,0,0,0,0,0,0,0,0,0,0,0,0,0,0,0,0,0,0,0,0,0,0,0,0,
0,0,0,0,0,0,0,0,0,0,0,0,0,0,0,0,0,0,0,0,0,0,0,0,0,0,0,0,0,0,0,0,0,0,0,0,0,0,0,0,0,0,0,0,0,0,0,0,0,0,0,0,0,0,0,0,0,0,0,0,0,0,0,0,0,0,0,0,0,0,
0,0,0,0,0,0,0,0,0,0,0,0,0,0,0,0,0,0,0,0,0,0,0,0,0,0,0,0,0,0,0,0,0,0,0,0,0,0,0,0,0,0,0,0,0,0,0,0,0,0,0,0,0,0,0,0,0,0,0,0,0,0,0,0,0,0,0,0,0,0,
0,0,0,0,0,0,0,0,0,0,0,0,0,0,0,0,0,0,0,0,0,0,0,0,0,0,0,0,0,0,0,0,0,0,0,0,0,0,0,0,0,0,0,0,0,0,0,0,0,0,0,0,0,0,0,0,0,0,0,0,0,0,0,0,0,0,0,0,0,0,
0,0,0,0,0,0,0,0,0,0,0,0,0,0,0,0,0,0,0,0,0,0,0,0,0,0,0,0,0,0,0,0,0,0,0,0,0,0,0,0,0,0,0,0,0,0,0,0,0,0,0,0,0,0,0,0,0,0,0,0,0,0,0,0,0,0,0,0,0,0,
0,0,0,0,0,0,0,0,0,0,0,0,0,0,0,0,0,0,0,0,0,0,0,0,0,0,0,0,0,0,0,0,0,0,0,0,0,0,0,0,0,0,0,0,0,0,0,0,0,0,0,0,0,0,0,0,0,0,0,0,0,0,0,0,0,0,0,0,0,0,
0,0,0,0,0,0,0,0,0,0,0,0,0,0,0,0,0,0,0,0,0,0,0,0,0,0,0,0,0,0,0,0,0,0,0,0,0,0,0,0,0,0,0,0,0,0,0,0,0,0,0,0,0,0,0,0,0,0,0,0,0,0,0,0,0,0,0,0,0,0,
0,0,0,0,0,0,0,0,0,0,0,0,0,0,0,0,0,0,0,0,0,0,0,0,0,0,0,0,0,0,0,0,0,0,0,0,0,0,0,0,0,0,0,0,0,0,0,0,0,0,0,0,0,0,0,0,0,0,0,0,0,0,0,0,0,0,0,0,0,0,
0,0,0,0,0,0,0,0,0,0,0,0,0,0,0,0,0,0,0,0,0,0,0,0,0,0,0,0,0,0,0,0,0,0,0,0,0,0,0,0,0,0,0,0,0,0,0,0,0,0,0,0,0,0,0,0,0,0,0,0,0,0,0,0,0,0,0,0,0,0,
0,0,0,0,0,0,0,0,0,0,0,0,0,0,0,0,0,0,0,0,0,0,0,0,0,0,0,0,0,0,0,0,0,0,0,0,0,0,0,0,0,0,0,0,0,0,0,0,0,0,0,0,0,0,0,0,0,0,0,0,0,0,0,0,0,0,0,0,0,0,
0,0,0,0,0,0,0,0,0,0,0,0,0,0,0,0,0,0,0,0,0,0,0,0,0,0,0,0,0,0,0,0,0,0,0,0,0,0,0,0,0,0,0,0,0,0,0,0,0,0,0,0,0,0,0,0,0,0,0,0,0,0,0,0,0,0,0,0,0,0,
0,0,0,0,0,0,0,0,0,0,0,0,0,0,0,0,0,0,0,0,0,0,0,0,0,0,0,0,0,0,0,0,0,0,0,0,0,0,0,0,0,0,0,0,0,0,0,0,0,0,0,0,0,0,0,0,0,0,0,0,0,0,0,0,0,0,0,0,0,0,
0,0,0,0,0,0,0,0,0,0,0,0,0,0,0,0,0,0,0,0,0,0,0,0,0,0,0,0,0,0,0,0,0,0,0,0,0,0,0,0,0,0,0,0,0,0,0,0,0,0,0,0,0,0,0,0,0,0,0,0,0,0,0,0,0,0,0,0,0,0,
0,0,0,0,0,0,0,0,0,0,0,0,0,0,0,0,0,0,0,0,0,0,0,0,0,0,0,0,0,0,0,0,0,0,0,0,0,0,0,0,0,0,0,0,0,0,0,0,0,0,0,0,0,0,0,0,0,0,0,0,0,0,0,0,0,0,0,0,0,0,
0,0,0,0,0,0,0,0,0,0,0,0,0,0,0,0,0,0,0,0,0,0,0,0,0,0,0,0,0,0,0,0,0,0,0,0,0,0,0,0,0,0,0,0,0,0,0,0,0,0,0,0,0,0,0,0,0,0,0,0,0,0,0,0,0,0,0,0,0,0,
0,0,0,0,0,0,0,0,0,0,0,0,0,0,0,0,0,0,0,0,0,0,0,0,0,0,0,0,0,0,0,0,0,0,0,0,0,0,0,0,0,0,0,0,0,0,0,0,0,0,0,0,0,0,0,0,0,0,0,0,0,0,0,0,0,0,0,0,0,0,
0,0,0,0,0,0,0,0,0,0,0,0,0,0,0,0,0,0,0,0,0,0,0,0,0,0,0,0,0,0,0,0,0,0,0,0,0,0,0,0,0,0,0,0,0,0,0,0,0,0,0,0,0,0,0,0,0,0,0,0,0,0,0,0,0,0,0,0,0,0,
0,0,0,0,0,0,0,0,0,0,0,0,0,0,0,0,0,0,0,0,0,0,0,0,0,0,0,0,0,0,0,0,0,0,0,0,0,0,0,0,0,0,0,0,0,0,0,0,0,0,0,0,0,0,0,0,0,0,0,0,0,0,0,0,0,0,0,0,0,0,
0,0,0,0,0,0,0,0,0,0,0,0,0,0,0,0,0,0,0,0,0,0,0,0,0,0,0,0,0,0,0,0,0,0,0,0,0,0,0,0,0,0,0,0,0,0,0,0,0,0,0,0,0,0,0,0,0,0,0,0,0,0,0,0,0,0,0,0,0,0,
0,0,0,0,0,0,0,0,0,0,0,0,0,0,0,0,0,0,0,0,0,0,0,0,0,0,0,0,0,0,0,0,0,0,0,0,0,0,0,0,0,0,0,0,0,0,0,0,0,0,0,0,0,0,0,0,0,0,0,0,0,0,0,0,0,0,0,0,0,0,
0,0,0,0,0,0,0,0,0,0,0,0,0,0,0,0,0,0,0,0,0,0,0,0,0,0,0,0,0,0,0,0,0,0,0,0,0,0,0,0,0,0,0,0,0,0,0,0,0,0,0,0,0,0,0,0,0,0,0,0,0,0,0,0,0,0,0,0,0,0
</data>
 </layer>
 <objectgroup id="13" name="Shadow">
  <object id="732" type="Tree_Shadow1" gid="282" x="326.667" y="188.667" width="192" height="64"/>
  <object id="733" type="Tree_Shadow1" gid="282" x="184" y="242.667" width="192" height="64"/>
  <object id="734" type="Tree_Shadow1" gid="282" x="464" y="209.333" width="192" height="64"/>
  <object id="735" type="Tree_Shadow1" gid="282" x="21.3333" y="648.667" width="192" height="64"/>
  <object id="736" type="Tree_Shadow1" gid="282" x="69.3333" y="412.667" width="192" height="64"/>
  <object id="737" type="Tree_Shadow2" gid="283" x="548" y="265.333" width="192" height="64"/>
  <object id="738" type="Tree_Shadow2" gid="283" x="-64.6667" y="662" width="192" height="64"/>
  <object id="739" type="Tree_Shadow2" gid="283" x="63.3333" y="514.667" width="192" height="64"/>
  <object id="740" type="Tree_Shadow2" gid="283" x="198.667" y="1344.67" width="192" height="64"/>
  <object id="741" type="Tree_Shadow1" gid="282" x="145.333" y="1651.33" width="192" height="64"/>
  <object id="742" type="Tree_Shadow2" gid="283" x="225.333" y="1791.33" width="192" height="64"/>
  <object id="743" type="Tree_Shadow1" gid="282" x="81.3333" y="1983.33" width="192" height="64"/>
  <object id="744" type="Tree_Shadow1" gid="282" x="208" y="2112" width="192" height="64"/>
  <object id="745" type="Tree_Shadow1" gid="282" x="82.6667" y="2561.33" width="192" height="64"/>
  <object id="746" type="Tree_Shadow1" gid="282" x="-2" y="2515.33" width="192" height="64"/>
  <object id="747" type="Tree_Shadow2" gid="283" x="-17.3333" y="2624" width="192" height="64"/>
  <object id="748" type="Tree_Shadow2" gid="283" x="201.333" y="2518" width="192" height="64"/>
  <object id="749" type="Tree_Shadow2" gid="283" x="1492.67" y="307.333" width="192" height="64"/>
  <object id="750" type="Tree_Shadow2" gid="283" x="1894.67" y="218.667" width="192" height="64"/>
  <object id="751" type="Tree_Shadow2" gid="283" x="2018.67" y="194" width="192" height="64"/>
  <object id="752" type="Tree_Shadow2" gid="283" x="2363.33" y="227.333" width="192" height="64"/>
  <object id="753" type="Tree_Shadow2" gid="283" x="2457.33" y="166" width="192" height="64"/>
  <object id="754" type="Tree_Shadow2" gid="283" x="2544.67" y="203.333" width="192" height="64"/>
  <object id="755" type="Tree_Shadow2" gid="283" x="2676" y="196.667" width="192" height="64"/>
  <object id="756" type="Tree_Shadow2" gid="283" x="3019.33" y="294" width="192" height="64"/>
  <object id="757" type="Tree_Shadow2" gid="283" x="2982.67" y="227.333" width="192" height="64"/>
  <object id="758" type="Tree_Shadow2" gid="283" x="3216" y="330.667" width="192" height="64"/>
  <object id="759" type="Tree_Shadow2" gid="283" x="1509.33" y="579.333" width="192" height="64"/>
  <object id="760" type="Tree_Shadow2" gid="283" x="3468" y="293.333" width="192" height="64"/>
  <object id="761" type="Tree_Shadow2" gid="283" x="3606" y="236" width="192" height="64"/>
  <object id="762" type="Tree_Shadow2" gid="283" x="3864.67" y="230.667" width="192" height="64"/>
  <object id="763" type="Tree_Shadow2" gid="283" x="3930" y="334" width="192" height="64"/>
  <object id="764" type="Tree_Shadow2" gid="283" x="4062" y="440" width="192" height="64"/>
  <object id="765" type="Tree_Shadow1" gid="282" x="1588.67" y="286" width="192" height="64"/>
  <object id="766" type="Tree_Shadow1" gid="282" x="1778" y="177.333" width="192" height="64"/>
  <object id="767" type="Tree_Shadow1" gid="282" x="2104" y="164" width="192" height="64"/>
  <object id="768" type="Tree_Shadow1" gid="282" x="2232.67" y="218" width="192" height="64"/>
  <object id="769" type="Tree_Shadow1" gid="282" x="2730.67" y="114.667" width="192" height="64"/>
  <object id="770" type="Tree_Shadow1" gid="282" x="2842" y="208.667" width="192" height="64"/>
  <object id="771" type="Tree_Shadow1" gid="282" x="3098.67" y="331.333" width="192" height="64"/>
  <object id="772" type="Tree_Shadow1" gid="282" x="3382.67" y="234.667" width="192" height="64"/>
  <object id="773" type="Tree_Shadow1" gid="282" x="3707.33" y="216" width="192" height="64"/>
  <object id="774" type="Tree_Shadow1" gid="282" x="4056.67" y="314" width="192" height="64"/>
  <object id="775" type="Tree_Shadow1" gid="282" x="1637.33" y="207.333" width="192" height="64"/>
  <object id="776" type="Tree_Shadow1" gid="282" x="1686.5" y="1388" width="192" height="64"/>
  <object id="777" type="Tree_Shadow1" gid="282" x="1793" y="1294.5" width="192" height="64"/>
  <object id="778" type="Tree_Shadow1" gid="282" x="2366.5" y="933" width="192" height="64"/>
  <object id="779" type="Tree_Shadow1" gid="282" x="2256.5" y="844.5" width="192" height="64"/>
  <object id="780" type="Tree_Shadow1" gid="282" x="2633.5" y="915.5" width="192" height="64"/>
  <object id="781" type="Tree_Shadow1" gid="282" x="3178" y="753.5" width="192" height="64"/>
  <object id="782" type="Tree_Shadow2" gid="283" x="3242.5" y="662.5" width="192" height="64"/>
  <object id="783" type="Tree_Shadow2" gid="283" x="3026" y="794.5" width="192" height="64"/>
  <object id="784" type="Tree_Shadow2" gid="283" x="2929" y="867.5" width="192" height="64"/>
  <object id="785" type="Tree_Shadow1" gid="282" x="2848.5" y="773" width="192" height="64"/>
  <object id="786" type="Tree_Shadow2" gid="283" x="2786" y="877.5" width="192" height="64"/>
  <object id="787" type="Tree_Shadow2" gid="283" x="2516" y="936.5" width="192" height="64"/>
  <object id="788" type="Tree_Shadow2" gid="283" x="2190.5" y="937.5" width="192" height="64"/>
  <object id="789" type="Tree_Shadow2" gid="283" x="2069.5" y="1127" width="192" height="64"/>
  <object id="790" type="Tree_Shadow2" gid="283" x="1953" y="1196" width="192" height="64"/>
  <object id="791" type="Tree_Shadow2" gid="283" x="1584.5" y="1419" width="192" height="64"/>
  <object id="792" type="Tree_Shadow2" gid="283" x="2321.5" y="1431.5" width="192" height="64"/>
  <object id="793" type="Tree_Shadow2" gid="283" x="2580.5" y="1518.5" width="192" height="64"/>
  <object id="794" type="Tree_Shadow2" gid="283" x="2688" y="1348" width="192" height="64"/>
  <object id="795" type="Tree_Shadow2" gid="283" x="2775" y="1641.5" width="192" height="64"/>
  <object id="796" type="Tree_Shadow2" gid="283" x="3001.5" y="1735.5" width="192" height="64"/>
  <object id="797" type="Tree_Shadow2" gid="283" x="3188.5" y="1574" width="192" height="64"/>
  <object id="798" type="Tree_Shadow1" gid="282" x="2461" y="1445" width="192" height="64"/>
  <object id="799" type="Tree_Shadow1" gid="282" x="2362.5" y="1518.5" width="192" height="64"/>
  <object id="800" type="Tree_Shadow1" gid="282" x="2725.5" y="1567.5" width="192" height="64"/>
  <object id="801" type="Tree_Shadow1" gid="282" x="2890" y="1693" width="192" height="64"/>
  <object id="802" type="Tree_Shadow1" gid="282" x="3036.5" y="1649.5" width="192" height="64"/>
  <object id="803" type="Tree_Shadow1" gid="282" x="3130" y="1681.5" width="192" height="64"/>
  <object id="804" type="Tree_Shadow1" gid="282" x="3167.5" y="1497" width="192" height="64"/>
  <object id="805" type="Tree_Shadow1" gid="282" x="4195" y="542.5" width="192" height="64"/>
  <object id="806" type="Tree_Shadow1" gid="282" x="4186.5" y="692" width="192" height="64"/>
  <object id="807" type="Tree_Shadow1" gid="282" x="3868.5" y="951.5" width="192" height="64"/>
  <object id="808" type="Tree_Shadow1" gid="282" x="4053" y="925" width="192" height="64"/>
  <object id="810" type="Tree_Shadow1" gid="282" x="4116.5" y="1316.5" width="192" height="64"/>
  <object id="826" type="Tree_Shadow2" gid="283" x="3722" y="914" width="192" height="64"/>
  <object id="827" type="Tree_Shadow2" gid="283" x="3979" y="1038" width="192" height="64"/>
  <object id="828" type="Tree_Shadow2" gid="283" x="4061" y="1152" width="192" height="64"/>
  <object id="829" type="Tree_Shadow2" gid="283" x="4272" y="1691" width="192" height="64"/>
  <object id="830" type="Tree_Shadow2" gid="283" x="4365" y="1807" width="192" height="64"/>
  <object id="831" type="Tree_Shadow2" gid="283" x="4085" y="1949" width="192" height="64"/>
  <object id="832" type="Tree_Shadow2" gid="283" x="4163" y="2240" width="192" height="64"/>
  <object id="833" type="Tree_Shadow2" gid="283" x="4324" y="2216" width="192" height="64"/>
  <object id="834" type="Tree_Shadow1" gid="282" x="4236" y="2166" width="192" height="64"/>
  <object id="835" type="Tree_Shadow1" gid="282" x="4250" y="1952" width="192" height="64"/>
  <object id="836" type="Tree_Shadow1" gid="282" x="4079" y="1815" width="192" height="64"/>
  <object id="837" type="Tree_Shadow1" gid="282" x="4114" y="1657" width="192" height="64"/>
  <object id="838" type="Tree_Shadow1" gid="282" x="4324" y="1604" width="192" height="64"/>
  <object id="839" type="Tree_Shadow1" gid="282" x="4246" y="1493" width="192" height="64"/>
  <object id="840" type="Tree_Shadow1" gid="282" x="4119" y="1313" width="192" height="64"/>
  <object id="841" type="Tree_Shadow1" gid="282" x="2716.67" y="2366.67" width="192" height="64"/>
  <object id="842" type="Tree_Shadow2" gid="283" x="2882.67" y="2358" width="192" height="64"/>
  <object id="843" type="Tree_Shadow2" gid="283" x="2602" y="2338.67" width="192" height="64"/>
  <object id="844" type="Tree_Shadow2" gid="283" x="3016.33" y="2304.33" width="192" height="64"/>
  <object id="845" type="Tree_Shadow2" gid="283" x="3008.67" y="2252.67" width="192" height="64"/>
  <object id="846" type="Tree_Shadow2" gid="283" x="3115.33" y="2198" width="192" height="64"/>
  <object id="847" type="Tree_Shadow2" gid="283" x="3220" y="2106.67" width="192" height="64"/>
  <object id="848" type="Tree_Shadow2" gid="283" x="3273.33" y="2001.33" width="192" height="64"/>
  <object id="849" type="Tree_Shadow2" gid="283" x="1638.5" y="2597.5" width="192" height="64"/>
  <object id="850" type="Tree_Shadow2" gid="283" x="1760" y="2630.5" width="192" height="64"/>
  <object id="851" type="Tree_Shadow2" gid="283" x="2029.5" y="2634.5" width="192" height="64"/>
  <object id="852" type="Tree_Shadow1" gid="282" x="1888.5" y="2621.5" width="192" height="64"/>
  <object id="853" type="Tree_Shadow1" gid="282" x="1727" y="2568" width="192" height="64"/>
  <object id="854" type="Tree_Shadow1" gid="282" x="1981" y="2555" width="192" height="64"/>
  <object id="856" type="Tree_Shadow1" gid="282" x="2149" y="2977" width="192" height="64"/>
  <object id="857" type="Tree_Shadow1" gid="282" x="2608.67" y="2987.33" width="192" height="64"/>
  <object id="858" type="Tree_Shadow1" gid="282" x="2831" y="3011" width="192" height="64"/>
  <object id="859" type="Tree_Shadow1" gid="282" x="2277" y="3456" width="192" height="64"/>
  <object id="860" type="Tree_Shadow1" gid="282" x="2494" y="3666" width="192" height="64"/>
  <object id="861" type="Tree_Shadow1" gid="282" x="2792" y="3907" width="192" height="64"/>
  <object id="862" type="Tree_Shadow1" gid="282" x="3039" y="3874" width="192" height="64"/>
  <object id="863" type="Tree_Shadow1" gid="282" x="2785" y="3235" width="192" height="64"/>
  <object id="864" type="Tree_Shadow2" gid="283" x="2267" y="2972" width="192" height="64"/>
  <object id="865" type="Tree_Shadow2" gid="283" x="2374" y="2968" width="192" height="64"/>
  <object id="866" type="Tree_Shadow2" gid="283" x="2494" y="2997" width="192" height="64"/>
  <object id="867" type="Tree_Shadow2" gid="283" x="2701" y="3014" width="192" height="64"/>
  <object id="868" type="Tree_Shadow2" gid="283" x="2120" y="3145" width="192" height="64"/>
  <object id="869" type="Tree_Shadow2" gid="283" x="2187" y="3266" width="192" height="64"/>
  <object id="870" type="Tree_Shadow2" gid="283" x="2366" y="3563" width="192" height="64"/>
  <object id="871" type="Tree_Shadow2" gid="283" x="2651" y="3828" width="192" height="64"/>
  <object id="872" type="Tree_Shadow2" gid="283" x="2921" y="3879" width="192" height="64"/>
  <object id="873" type="Tree_Shadow2" gid="283" x="2619" y="3736" width="192" height="64"/>
  <object id="874" type="Tree_Shadow2" gid="283" x="1980" y="3979.33" width="192" height="64"/>
  <object id="875" type="Tree_Shadow2" gid="283" x="1906" y="4028.67" width="192" height="64"/>
  <object id="876" type="Tree_Shadow2" gid="283" x="1794" y="4169.33" width="192" height="64"/>
  <object id="877" type="Tree_Shadow1" gid="282" x="1825.67" y="3988.83" width="192" height="64"/>
  <object id="878" type="Tree_Shadow2" gid="283" x="1808" y="4504" width="192" height="64"/>
  <object id="879" type="Tree_Shadow1" gid="282" x="4215.67" y="4222.33" width="192" height="64"/>
  <object id="880" type="Tree_Shadow2" gid="283" x="4324.33" y="4301.67" width="192" height="64"/>
  <object id="881" type="Tree_Shadow2" gid="283" x="4077.33" y="4218.67" width="192" height="64"/>
  <object id="882" type="Tree_Shadow1" gid="282" x="4074.5" y="3790" width="192" height="64"/>
  <object id="883" type="Tree_Shadow2" gid="283" x="4055" y="3468" width="192" height="64"/>
  <object id="884" type="Tree_Shadow1" gid="282" x="4127" y="3339.5" width="192" height="64"/>
  <object id="885" type="Tree_Shadow1" gid="282" x="4184" y="3116.5" width="192" height="64"/>
  <object id="886" type="Tree_Shadow2" gid="283" x="4084.5" y="3028.5" width="192" height="64"/>
  <object id="887" type="Tree_Shadow1" gid="282" x="4170" y="2800" width="192" height="64"/>
  <object id="888" type="Tree_Shadow1" gid="282" x="4290" y="4198" width="192" height="64"/>
  <object id="889" type="Tree_Shadow1" gid="282" x="367" y="3018" width="192" height="64"/>
  <object id="890" type="Tree_Shadow1" gid="282" x="252" y="3100" width="192" height="64"/>
  <object id="891" type="Tree_Shadow1" gid="282" x="129" y="3601" width="192" height="64"/>
  <object id="892" type="Tree_Shadow1" gid="282" x="249" y="3872" width="192" height="64"/>
  <object id="893" type="Tree_Shadow2" gid="283" x="171.5" y="3474.5" width="192" height="64"/>
  <object id="894" type="Tree_Shadow2" gid="283" x="365.5" y="4076" width="192" height="64"/>
  <object id="895" type="Tree_Shadow2" gid="283" x="305.5" y="4264" width="192" height="64"/>
  <object id="896" type="Tree_Shadow2" gid="283" x="240.5" y="4157.5" width="192" height="64"/>
  <object id="897" type="Tree_Shadow1" gid="282" x="693" y="4510.5" width="192" height="64"/>
  <object id="898" type="Tree_Shadow2" gid="283" x="991" y="4502.5" width="192" height="64"/>
  <object id="899" type="Tree_Shadow1" gid="282" x="255" y="4529" width="192" height="64"/>
  <object id="817" type="Tree_Shadow1" gid="282" x="4241.5" y="2160" width="192" height="64"/>
 </objectgroup>
 <layer id="14" name="Rock" width="70" height="70">
  <data encoding="csv">
0,0,0,0,0,0,0,0,0,0,0,0,0,0,0,0,0,0,0,0,0,0,0,0,0,0,0,0,0,0,0,0,0,0,0,0,0,0,0,0,0,0,0,0,0,0,0,0,0,0,0,0,0,0,0,0,0,0,0,0,0,0,0,0,0,0,0,0,0,0,
0,0,0,0,0,0,0,0,0,0,0,0,0,0,0,0,0,0,0,0,0,0,0,0,0,0,0,0,0,0,0,0,0,0,0,0,0,0,0,0,0,0,0,0,0,0,0,0,0,0,0,0,0,0,0,0,0,0,0,0,0,0,0,0,0,0,0,0,0,0,
0,0,0,0,0,0,0,0,0,0,0,0,0,0,0,0,0,0,0,0,0,0,0,0,0,0,0,0,0,0,0,0,0,0,0,0,0,0,0,0,0,0,0,0,0,0,0,0,0,0,0,0,0,0,0,0,0,0,0,0,0,0,0,0,0,0,0,0,0,0,
0,0,0,0,0,0,0,0,0,0,0,0,0,0,0,0,0,0,0,0,0,0,0,0,0,0,0,0,0,0,0,0,0,0,0,0,0,0,0,0,0,0,0,0,0,0,0,0,0,0,0,0,0,0,0,0,0,0,0,0,0,0,0,0,0,0,0,0,0,0,
0,0,0,0,0,0,0,0,0,0,0,0,0,0,0,0,0,0,0,0,0,0,0,0,0,0,0,0,0,0,0,0,0,0,0,0,0,0,0,0,0,0,0,0,0,0,0,0,0,0,0,0,0,0,0,0,0,0,0,0,0,0,0,0,0,0,0,0,0,0,
0,0,0,0,0,0,0,0,0,0,0,0,0,0,0,0,0,0,0,0,0,0,0,0,0,0,0,0,0,0,0,0,0,0,0,0,0,0,0,0,0,0,0,0,0,0,0,0,0,0,0,0,0,0,0,0,0,0,0,0,0,0,0,0,0,0,0,0,0,0,
0,0,0,0,0,0,0,0,0,0,0,0,0,0,0,0,0,0,0,0,0,0,0,0,0,0,0,0,0,0,0,0,0,0,0,0,0,0,0,0,0,0,0,0,0,0,0,0,0,0,0,0,0,0,0,0,0,0,0,0,0,0,0,0,0,0,0,0,0,0,
0,0,0,0,0,0,0,0,0,0,0,0,0,0,0,0,0,0,0,0,0,0,0,0,0,0,0,0,0,0,0,0,0,0,0,0,0,0,0,0,0,0,0,0,0,0,0,0,0,0,0,0,0,0,0,0,0,0,0,0,0,0,0,0,0,0,0,0,0,0,
0,0,0,0,0,0,0,0,0,0,0,0,0,0,0,0,0,0,0,0,0,0,0,0,0,0,0,0,0,0,0,0,0,0,0,0,0,0,0,0,0,0,0,0,0,0,0,0,0,0,0,0,0,0,0,0,0,0,0,0,0,0,0,0,0,0,0,0,0,0,
0,0,0,0,0,0,0,0,0,0,0,0,0,0,0,0,0,0,0,0,0,0,0,0,0,0,0,0,0,0,0,0,0,0,0,0,0,0,0,0,0,0,0,0,0,0,0,0,0,0,0,0,0,0,0,0,0,0,0,0,0,0,0,0,0,0,0,0,0,0,
0,0,0,0,0,0,0,0,0,0,0,0,0,0,0,0,0,0,0,0,0,0,0,0,0,0,0,0,0,0,0,0,0,0,0,0,0,0,0,0,0,0,0,0,0,0,0,0,0,0,0,0,0,0,0,0,0,0,0,0,0,0,0,0,0,0,0,0,0,0,
0,0,0,0,0,0,0,0,0,0,0,0,0,0,0,0,0,0,0,0,0,0,0,0,0,0,0,0,0,0,0,0,0,0,0,0,0,0,0,0,0,0,0,0,0,0,0,0,0,0,0,0,0,0,0,0,0,0,0,0,0,0,0,0,0,0,0,0,0,0,
0,0,0,0,0,0,0,0,0,0,0,0,0,0,0,0,0,0,0,0,0,0,0,0,0,0,0,0,0,0,0,0,0,0,0,0,0,0,0,0,0,0,0,0,0,0,0,0,0,0,0,0,0,0,0,0,0,0,0,0,0,0,0,0,0,0,0,0,0,0,
0,0,0,0,0,0,0,0,0,0,0,0,0,0,0,0,0,0,0,0,0,0,0,0,0,0,0,0,0,0,0,0,0,0,0,0,0,0,0,0,0,0,0,0,0,0,0,0,0,0,0,0,0,0,0,0,0,0,0,0,0,0,0,0,0,0,0,0,0,0,
0,0,0,0,0,0,0,0,0,0,0,0,0,0,0,0,0,0,0,0,0,0,0,0,0,0,0,0,0,0,0,0,0,0,0,0,0,0,0,0,0,0,0,0,0,0,0,0,0,0,0,0,0,0,0,0,0,0,0,0,0,0,0,0,0,0,0,0,0,0,
0,0,0,0,0,0,0,0,0,0,0,0,0,0,0,0,0,0,0,0,0,0,0,0,0,0,0,0,0,0,0,0,0,0,0,0,0,0,0,0,0,0,0,0,0,0,0,0,0,0,0,0,0,0,0,0,0,0,0,0,0,0,0,0,0,0,0,0,0,0,
0,0,0,0,0,0,0,0,0,0,0,0,0,0,0,0,0,0,0,0,0,0,0,0,0,0,0,0,0,0,0,0,0,0,0,0,0,0,0,0,0,0,0,0,0,0,0,0,0,0,0,0,0,0,0,0,0,0,0,0,0,0,0,0,0,0,0,0,0,0,
0,0,0,0,0,0,0,0,0,0,0,0,0,0,0,0,0,0,0,0,0,0,0,0,0,0,0,0,0,0,0,0,0,0,0,0,0,0,0,0,0,0,0,0,0,0,0,0,0,0,0,0,0,0,0,0,0,0,0,0,0,0,0,0,0,0,0,0,0,0,
0,0,0,0,0,0,0,0,0,0,0,0,0,0,0,0,0,0,0,0,0,0,0,0,0,0,0,0,0,0,0,0,0,0,0,0,0,0,0,0,0,0,0,0,0,0,0,0,0,0,0,0,0,0,0,0,0,0,0,0,0,0,0,0,0,0,0,0,0,0,
0,0,0,0,0,0,0,0,0,0,0,0,0,0,0,0,0,0,0,0,0,0,0,0,0,0,0,0,0,0,0,285,0,0,0,0,0,0,0,0,0,0,0,0,0,0,0,0,0,0,0,0,0,0,0,0,0,0,0,0,0,0,0,0,0,0,0,0,0,0,
0,0,0,0,0,0,0,0,0,0,0,0,0,0,0,0,0,0,0,0,0,0,0,0,0,0,0,0,0,0,0,0,0,0,0,0,0,0,0,0,0,0,0,0,0,0,0,0,0,0,0,0,0,0,0,0,0,0,0,0,0,0,0,0,0,0,0,0,0,0,
0,0,0,0,0,0,0,0,0,0,0,0,0,0,0,0,0,0,0,0,0,0,0,0,0,0,0,0,0,0,0,0,0,0,0,0,0,0,0,0,0,0,0,0,0,0,0,0,0,0,0,0,0,0,0,0,0,0,0,0,0,0,0,0,0,0,0,0,0,0,
0,0,0,0,0,0,0,0,0,0,0,0,0,0,0,0,0,0,0,0,0,0,0,0,0,0,0,0,0,0,0,0,0,0,0,0,0,0,0,0,0,0,0,0,0,0,0,0,0,0,0,0,0,0,0,0,0,0,0,0,0,0,0,0,0,0,0,0,0,0,
0,0,0,0,0,0,0,0,0,0,0,0,0,0,0,0,0,0,0,0,0,0,0,0,0,0,0,0,0,0,0,0,0,0,0,0,0,0,0,0,0,0,0,0,0,0,0,0,0,0,0,0,0,0,0,0,0,0,0,0,0,0,0,0,0,0,0,0,0,0,
0,0,0,0,0,0,0,0,0,0,0,0,0,0,0,0,0,0,0,0,0,0,0,0,0,0,0,0,0,0,0,0,0,0,0,0,0,0,0,0,0,0,0,0,0,0,0,0,0,0,0,0,0,0,0,0,0,0,0,0,0,0,0,0,0,0,0,0,0,0,
0,0,0,0,0,0,0,0,0,0,0,0,0,0,0,0,0,0,0,0,0,0,0,0,0,0,0,0,0,0,0,0,0,0,0,0,0,0,0,0,0,0,0,0,0,0,0,0,0,0,0,0,0,0,0,0,0,0,0,0,0,0,0,0,0,0,0,0,0,0,
0,0,0,0,0,0,0,0,0,0,0,0,0,0,0,0,0,0,0,0,0,0,0,0,0,0,0,0,0,0,0,0,0,0,0,0,0,0,0,0,0,0,0,0,0,0,0,0,0,0,0,0,0,0,0,0,0,0,0,0,0,0,0,0,0,0,0,0,0,0,
0,0,0,0,0,0,0,0,0,0,0,0,0,0,0,0,0,0,0,0,0,0,0,0,0,0,0,0,0,0,0,0,0,0,0,0,0,0,0,0,0,0,0,0,0,0,0,0,0,0,0,0,0,0,0,0,0,0,0,0,0,0,0,0,0,0,0,0,0,0,
0,0,0,0,0,0,0,0,0,0,0,0,0,0,0,0,0,0,0,0,0,0,0,0,0,0,0,0,0,0,0,0,0,0,0,0,0,0,0,0,0,0,0,0,0,0,0,0,0,0,0,0,0,0,0,0,0,0,0,0,0,0,0,0,0,0,0,0,0,0,
0,0,0,0,0,0,0,0,0,0,0,0,0,0,0,0,0,0,0,0,0,0,0,0,0,0,0,0,0,0,0,0,0,0,0,0,0,0,0,0,0,0,0,0,0,0,0,0,0,0,0,0,0,0,0,0,0,0,0,0,0,0,0,0,0,0,0,0,0,0,
0,0,0,0,0,0,0,0,0,0,0,0,0,0,0,0,0,0,0,0,0,0,0,0,0,0,0,0,0,0,0,0,0,0,0,0,0,0,0,0,0,0,0,0,0,0,0,0,0,0,0,0,0,0,0,0,0,0,0,0,0,0,0,0,0,0,0,0,0,0,
0,0,0,0,0,0,0,0,0,0,0,0,0,0,0,0,0,0,0,0,0,287,0,0,0,0,0,0,0,0,0,0,0,0,0,0,0,0,0,0,0,0,0,0,0,0,0,0,0,0,0,0,0,0,0,0,0,0,0,0,0,0,0,0,0,0,0,0,0,0,
0,0,0,0,0,0,0,0,0,0,0,0,0,0,0,0,0,0,0,0,0,0,0,0,0,0,0,0,0,0,0,0,0,0,0,0,0,0,0,0,0,0,0,0,0,0,0,0,0,0,0,0,0,0,0,0,0,0,0,0,0,0,0,0,0,0,0,0,0,0,
0,0,0,0,0,0,0,0,0,0,0,0,0,0,0,0,0,0,0,0,0,0,0,0,0,0,0,0,0,0,0,0,0,0,0,0,0,0,0,0,0,0,0,0,0,0,0,0,0,0,0,0,0,0,0,0,0,0,0,0,0,0,0,0,0,0,0,0,0,0,
0,0,0,0,0,0,0,0,0,0,0,0,0,0,0,0,0,0,0,0,0,0,0,0,0,0,0,0,0,0,0,0,0,0,0,0,0,0,0,0,0,0,0,0,0,0,0,0,0,0,0,0,0,0,0,0,0,0,0,0,0,0,0,0,0,0,0,0,0,0,
0,0,0,0,0,0,0,0,0,0,0,0,0,0,0,0,0,0,0,0,0,0,0,0,0,0,0,0,0,0,0,0,0,0,0,0,0,0,0,0,0,0,0,0,0,0,0,0,0,0,0,0,0,0,0,0,0,0,0,0,0,0,0,0,0,0,0,0,0,0,
0,0,0,0,0,0,287,0,0,0,0,0,0,0,0,0,0,0,0,0,0,0,2147483937,0,0,0,0,0,0,0,0,0,0,0,0,0,0,0,0,0,0,0,0,0,0,0,0,0,0,0,0,0,0,0,0,0,0,0,0,0,0,0,0,0,0,0,0,0,0,0,
0,0,0,0,0,0,0,0,0,0,0,0,0,0,0,0,0,0,0,0,0,0,0,0,0,0,0,0,0,0,0,0,0,0,0,0,0,0,0,0,0,0,0,0,0,0,0,0,0,0,0,0,0,0,0,0,0,0,0,0,0,0,0,0,0,0,0,0,0,0,
0,0,0,0,0,0,0,0,0,0,0,0,0,0,0,2147483937,0,0,0,289,0,0,0,0,0,0,0,0,0,0,0,0,0,0,0,0,0,0,0,0,0,0,0,0,0,0,0,0,0,0,0,0,0,0,0,0,0,0,0,0,0,0,0,0,0,0,0,0,0,0,
0,0,0,0,0,0,0,0,0,0,0,0,0,0,0,0,0,0,0,0,0,0,0,0,0,0,0,0,0,0,0,0,0,0,0,0,0,0,0,0,0,0,0,0,0,0,0,0,0,0,0,0,0,0,0,0,0,0,0,0,0,0,0,0,0,0,0,0,0,0,
0,0,0,0,0,0,0,0,0,287,0,0,0,0,0,0,2147483935,0,0,0,0,0,0,287,0,0,0,0,0,0,0,0,0,0,0,0,0,0,0,0,0,0,0,0,0,0,0,0,0,0,0,0,0,0,0,289,0,0,0,0,0,0,0,0,0,0,0,0,0,0,
0,0,0,0,0,0,0,0,0,0,0,0,0,0,0,0,0,0,0,0,0,0,0,0,0,0,0,0,0,0,0,0,0,0,0,0,0,0,0,0,0,0,0,0,0,0,0,0,0,0,0,0,0,0,0,0,0,0,286,0,0,0,0,0,0,0,0,0,0,0,
0,0,0,0,0,0,0,0,0,0,0,0,0,0,0,0,0,0,0,0,0,0,0,0,0,0,0,0,0,0,0,0,0,0,0,0,0,0,0,0,0,0,0,0,0,0,0,0,0,0,0,0,0,285,0,0,0,0,0,0,0,0,0,0,0,0,0,0,0,0,
0,0,0,0,0,0,0,0,0,0,0,0,0,0,0,0,0,0,0,0,0,0,0,0,0,0,0,0,0,0,0,0,0,0,0,0,0,0,0,0,0,0,0,0,0,0,0,0,0,0,0,0,0,0,0,0,0,0,0,0,0,0,0,0,0,0,0,0,0,0,
0,0,0,0,0,0,0,0,0,0,0,0,0,0,0,0,0,0,0,0,0,0,0,0,0,0,0,0,0,0,0,0,0,0,0,0,0,0,0,0,0,0,0,0,0,0,0,0,0,0,0,0,0,0,0,0,0,0,0,0,0,0,0,0,0,0,0,0,0,0,
0,0,0,0,0,0,0,0,0,0,0,0,0,0,0,0,0,0,0,0,0,0,0,0,0,0,0,0,0,0,0,0,0,0,0,0,0,0,0,0,0,0,0,0,0,0,0,0,0,0,0,0,0,0,0,0,0,0,0,0,0,0,0,0,0,0,0,0,0,0,
0,0,0,0,0,0,0,0,0,0,0,0,0,0,0,0,0,0,0,0,0,0,0,0,0,0,0,0,0,0,0,0,0,0,0,0,0,0,0,0,0,0,0,0,0,0,0,0,0,0,0,0,0,0,0,0,0,0,0,0,0,0,0,0,0,0,0,0,0,0,
0,0,0,0,0,0,0,0,0,0,0,0,0,0,0,0,0,0,0,0,0,0,0,0,0,0,0,0,0,0,0,0,0,0,0,0,0,0,0,0,0,0,0,0,0,0,0,0,0,284,0,0,0,0,0,0,0,0,0,0,0,0,0,0,0,0,0,0,0,0,
0,0,0,0,0,0,0,0,0,0,0,0,0,0,0,0,0,0,0,0,0,0,0,0,0,0,0,0,0,0,0,0,0,0,0,0,0,0,0,0,0,0,0,0,0,0,0,0,0,0,0,0,0,0,0,0,0,0,0,0,0,0,0,0,0,0,0,0,0,0,
0,0,0,0,0,0,0,0,0,0,0,0,0,0,0,0,0,0,0,0,0,0,0,0,0,0,0,0,0,0,0,0,0,0,0,0,0,0,0,0,0,0,0,0,0,0,0,0,0,0,0,0,0,0,0,0,0,0,0,0,0,0,0,0,0,0,0,0,0,0,
0,0,0,0,0,0,0,0,0,0,0,0,0,0,0,0,0,0,0,0,0,0,0,0,0,0,0,0,0,0,0,0,0,0,0,0,0,0,0,0,0,0,0,0,0,0,0,0,0,0,0,0,0,0,0,0,0,0,0,0,0,0,0,0,0,0,0,0,0,0,
0,0,0,0,0,0,0,0,0,0,0,0,0,0,0,0,0,0,0,0,0,0,0,0,0,0,0,0,0,0,0,0,0,0,0,0,0,0,0,0,0,0,0,0,0,0,0,0,0,0,0,0,0,0,0,0,0,0,0,0,0,0,0,0,0,0,0,0,0,0,
0,0,0,0,0,0,0,0,0,0,0,0,0,0,0,0,0,0,0,0,0,0,0,0,0,0,0,0,0,0,0,0,0,0,0,0,0,0,0,0,0,0,0,0,0,0,0,0,0,0,0,0,0,0,0,0,0,0,0,0,0,0,0,0,0,0,0,0,0,0,
0,0,0,0,0,0,0,0,0,0,0,0,0,0,0,0,0,0,0,0,0,0,0,0,0,0,0,0,0,0,0,0,0,0,0,0,0,0,0,0,0,0,0,0,0,0,0,0,0,0,0,0,0,0,0,0,0,0,0,0,0,0,0,0,0,0,0,0,0,0,
0,0,0,0,0,0,0,0,0,0,0,0,0,0,0,0,0,0,0,0,0,0,0,0,0,0,0,0,0,0,0,0,0,0,0,0,0,0,0,0,0,0,0,0,0,0,0,0,0,0,0,0,0,0,0,0,0,0,0,0,0,0,0,0,0,0,0,0,0,0,
0,0,0,0,0,0,0,0,0,0,0,0,2147483937,0,0,0,0,0,0,0,0,0,0,0,0,0,0,0,0,0,0,0,0,0,0,0,0,0,0,0,0,0,0,0,0,0,0,0,0,0,0,0,0,0,0,0,0,0,0,0,0,0,0,0,0,0,0,0,0,0,
0,0,0,0,0,0,0,0,0,0,0,0,0,0,0,0,0,0,0,0,0,0,0,0,0,0,0,0,0,0,0,0,0,0,0,0,0,0,0,0,0,0,0,0,0,0,0,0,0,0,0,0,0,0,0,0,0,0,0,0,0,0,0,0,0,0,0,0,0,0,
0,0,0,0,0,0,0,0,0,0,0,0,0,0,0,0,0,0,0,0,0,0,0,0,0,0,0,0,0,0,0,0,0,0,0,0,0,0,0,0,0,0,0,0,0,0,0,0,0,0,0,0,0,0,0,0,0,0,0,0,0,0,0,0,0,0,0,0,0,0,
0,0,0,0,0,0,0,0,0,0,0,0,0,0,0,2147483937,0,0,0,0,0,0,0,0,0,0,0,0,0,0,0,0,0,0,0,0,0,0,0,0,0,0,0,0,0,0,0,0,0,0,0,0,0,0,0,0,0,0,0,0,0,0,0,0,0,0,0,0,0,0,
0,0,0,0,0,0,0,0,0,0,0,0,0,0,0,0,0,0,0,0,0,0,0,0,0,0,0,0,0,0,0,0,0,0,0,0,0,0,0,0,0,0,0,0,0,0,0,0,0,0,0,0,0,0,0,0,0,0,0,0,0,0,0,0,0,0,0,0,0,0,
0,0,0,0,0,0,0,0,0,0,0,0,0,0,0,0,0,0,0,0,0,0,0,0,0,0,0,0,0,0,0,0,0,0,0,0,0,0,0,0,0,0,0,0,0,0,0,0,0,0,0,0,0,0,0,0,0,0,0,0,0,0,0,0,0,0,0,0,0,0,
0,0,0,0,0,0,0,0,0,0,0,0,0,0,0,0,0,0,0,0,0,0,0,0,0,0,0,0,0,0,0,0,0,0,0,0,0,0,0,0,0,0,0,0,0,0,0,0,0,0,0,0,0,0,0,0,0,0,0,0,0,0,0,0,0,0,0,0,0,0,
0,0,0,0,0,0,0,0,0,0,0,0,0,0,0,0,0,0,0,0,0,0,0,0,0,0,0,0,0,0,0,0,0,0,0,0,0,0,0,0,0,0,0,0,0,0,0,0,0,0,0,0,0,0,0,0,0,0,0,0,0,0,0,0,0,0,0,0,0,0,
0,0,0,0,0,0,0,0,0,0,0,0,0,0,0,0,0,0,0,0,0,0,0,0,0,0,0,0,0,0,0,0,0,0,0,0,0,0,0,0,0,0,0,0,0,0,0,0,0,0,0,0,0,0,0,0,0,0,0,0,0,0,0,0,0,0,0,0,0,0,
0,0,0,0,0,0,0,0,0,0,0,0,0,0,0,0,0,0,0,0,0,0,0,0,0,0,0,0,0,0,0,0,0,0,0,0,0,0,0,0,0,0,0,0,0,0,0,0,0,0,0,0,0,0,0,0,0,0,0,0,0,0,0,0,0,0,0,0,0,0,
0,0,0,0,0,0,0,0,0,0,0,0,0,0,0,0,0,0,0,0,0,0,0,0,0,0,0,0,0,0,0,0,0,0,0,0,0,0,0,0,0,0,0,0,0,0,0,0,0,0,0,0,0,0,0,0,0,0,0,0,0,0,0,0,0,0,0,0,0,0,
0,0,0,0,0,0,0,0,0,0,0,0,0,0,0,0,0,0,0,0,0,0,0,0,0,0,0,0,0,0,0,0,0,0,0,0,0,0,0,0,0,0,0,0,0,0,0,0,0,0,0,0,0,0,0,0,0,0,0,0,0,0,0,0,0,0,0,0,0,0,
0,0,0,0,0,0,0,0,0,0,0,0,0,0,0,0,0,0,0,0,0,0,0,0,0,0,0,0,0,0,0,0,0,0,0,0,0,0,0,0,0,0,0,0,0,0,0,0,0,0,0,0,0,0,0,0,0,0,0,0,0,0,0,0,0,0,0,0,0,0,
0,0,0,0,0,0,0,0,0,0,0,0,0,0,0,0,0,0,0,0,0,0,0,0,0,0,0,0,0,0,0,0,0,0,0,0,0,0,0,0,0,0,0,0,0,0,0,0,0,0,0,0,0,0,0,0,0,0,0,0,0,0,0,0,0,0,0,0,0,0,
0,0,0,0,0,0,0,0,0,0,0,0,0,0,0,0,0,0,0,0,0,0,0,0,0,0,0,0,0,0,0,0,0,0,0,0,0,0,0,0,0,0,0,0,0,0,0,0,0,0,0,0,0,0,0,0,0,0,0,0,0,0,0,0,0,0,0,0,0,0
</data>
 </layer>
 <objectgroup id="9" name="Object">
  <object id="16" type="Tree3" gid="256" x="217.003" y="2391.93" width="192" height="256"/>
  <object id="17" type="Tree1" gid="255" x="-82.5" y="2265.92" width="192" height="256"/>
  <object id="18" type="Tree2" gid="254" x="87.9967" y="2541.59" width="192" height="256"/>
  <object id="19" type="Tree3" gid="256" x="38.33" y="2244.41" width="192" height="256"/>
  <object id="20" type="Tree3" gid="256" x="-19.33" y="2602.11" width="192" height="256"/>
  <object id="21" type="Tree1" gid="255" x="-2.67" y="2497.92" width="192" height="256"/>
  <object id="22" type="Tree4" gid="257" x="-60" y="2351.26" width="192" height="256"/>
  <object id="23" type="Tree1" gid="255" x="87.22" y="1960.07" width="192" height="256"/>
  <object id="24" type="Tree2" gid="254" x="210.55" y="2089.07" width="192" height="256"/>
  <object id="25" type="Tree3" gid="256" x="142.89" y="2208.26" width="192" height="256"/>
  <object id="26" type="Tree1" gid="255" x="-24.45" y="2130.07" width="192" height="256"/>
  <object id="27" type="Tree4" gid="257" x="107.22" y="2139.57" width="192" height="256"/>
  <object id="28" type="Tree4" gid="257" x="200" y="2494.83" width="192" height="256"/>
  <object id="29" type="Tree4" gid="257" x="-46" y="1983.33" width="192" height="256"/>
  <object id="30" type="Tree2" gid="254" x="-23.3333" y="1834" width="192" height="256"/>
  <object id="31" type="Tree1" gid="255" x="148" y="1636" width="192" height="256"/>
  <object id="32" type="Tree1" gid="255" x="-8.66667" y="1295.33" width="192" height="256"/>
  <object id="33" type="Tree1" gid="255" x="110" y="1226" width="192" height="256"/>
  <object id="34" type="Tree1" gid="255" x="23.3333" y="633.333" width="192" height="256"/>
  <object id="35" type="Tree2" gid="254" x="-16.6667" y="1624" width="192" height="256"/>
  <object id="36" type="Tree2" gid="254" x="102" y="1414.67" width="192" height="256"/>
  <object id="37" type="Tree3" gid="256" x="196.667" y="1324" width="192" height="256"/>
  <object id="38" type="Tree3" gid="256" x="-12.6667" y="1479.33" width="192" height="256"/>
  <object id="39" type="Tree3" gid="256" x="152.667" y="1531.33" width="192" height="256"/>
  <object id="40" type="Tree3" gid="256" x="96" y="1798" width="192" height="256"/>
  <object id="41" type="Tree3" gid="256" x="201.333" y="1926" width="192" height="256"/>
  <object id="42" type="Tree4" gid="257" x="-42.6667" y="1388" width="192" height="256"/>
  <object id="43" type="Tree3" gid="256" x="-36.6667" y="1725.33" width="192" height="256"/>
  <object id="44" type="Tree4" gid="257" x="229.333" y="1762" width="192" height="256"/>
  <object id="45" type="Tree1" gid="255" x="89.5" y="2362.5" width="192" height="256"/>
  <object id="46" type="Tree2" gid="254" x="-111.333" y="1227.33" width="192" height="256"/>
  <object id="47" type="Tree3" gid="256" x="60.003" y="494.875" width="192" height="256"/>
  <object id="48" type="Tree1" gid="255" x="-129.5" y="303.865" width="192" height="256"/>
  <object id="49" type="Tree2" gid="254" x="-84.0033" y="527.535" width="192" height="256"/>
  <object id="50" type="Tree3" gid="256" x="-8.67" y="282.355" width="192" height="256"/>
  <object id="51" type="Tree3" gid="256" x="-66.33" y="640.055" width="192" height="256"/>
  <object id="53" type="Tree4" gid="257" x="-107" y="389.205" width="192" height="256"/>
  <object id="54" type="Tree1" gid="255" x="55.22" y="7.015" width="192" height="256"/>
  <object id="55" type="Tree2" gid="254" x="163.55" y="127.015" width="192" height="256"/>
  <object id="56" type="Tree3" gid="256" x="95.89" y="246.205" width="192" height="256"/>
  <object id="57" type="Tree1" gid="255" x="-71.45" y="168.015" width="192" height="256"/>
  <object id="58" type="Tree4" gid="257" x="60.22" y="177.515" width="192" height="256"/>
  <object id="60" type="Tree4" gid="257" x="-78" y="30.275" width="192" height="256"/>
  <object id="62" type="Tree1" gid="255" x="187" y="223.945" width="192" height="256"/>
  <object id="63" type="Tree1" gid="255" x="360.333" y="75.275" width="192" height="256"/>
  <object id="64" type="Tree1" gid="255" x="494" y="14.945" width="192" height="256"/>
  <object id="66" type="Tree2" gid="254" x="471" y="194.615" width="192" height="256"/>
  <object id="67" type="Tree3" gid="256" x="565.667" y="103.945" width="192" height="256"/>
  <object id="69" type="Tree3" gid="256" x="544.667" y="244.275" width="192" height="256"/>
  <object id="72" type="Tree4" gid="257" x="326.333" y="167.945" width="192" height="256"/>
  <object id="75" type="Tree1" gid="255" x="76.5" y="396.445" width="192" height="256"/>
  <object id="76" type="Tree2" gid="254" x="272.667" y="16.275" width="192" height="256"/>
  <object id="77" type="Tree3" gid="256" x="1837.76" y="848.481" width="192" height="256"/>
  <object id="79" type="Tree2" gid="254" x="1708.75" y="1015.14" width="192" height="256"/>
  <object id="80" type="Tree3" gid="256" x="2101.09" y="838.961" width="192" height="256"/>
  <object id="81" type="Tree3" gid="256" x="1564.43" y="1031.66" width="192" height="256"/>
  <object id="82" type="Tree1" gid="255" x="1583.09" y="908.471" width="192" height="256"/>
  <object id="83" type="Tree4" gid="257" x="1560.76" y="807.811" width="192" height="256"/>
  <object id="84" type="Tree1" gid="255" x="2369.98" y="916.621" width="192" height="256"/>
  <object id="85" type="Tree2" gid="254" x="2137.31" y="735.621" width="192" height="256"/>
  <object id="86" type="Tree3" gid="256" x="2052.65" y="938.811" width="192" height="256"/>
  <object id="87" type="Tree1" gid="255" x="1653.31" y="731.621" width="192" height="256"/>
  <object id="88" type="Tree4" gid="257" x="1797.98" y="715.121" width="192" height="256"/>
  <object id="89" type="Tree4" gid="257" x="1746.76" y="905.381" width="192" height="256"/>
  <object id="90" type="Tree4" gid="257" x="2188.76" y="915.881" width="192" height="256"/>
  <object id="91" type="Tree2" gid="254" x="2471.55" y="1425.01" width="192" height="256"/>
  <object id="92" type="Tree1" gid="255" x="4202.09" y="530.551" width="192" height="256"/>
  <object id="93" type="Tree1" gid="255" x="4220.09" y="293.881" width="192" height="256"/>
  <object id="94" type="Tree1" gid="255" x="2366.76" y="84.5511" width="192" height="256"/>
  <object id="95" type="Tree2" gid="254" x="4212.09" y="622.551" width="192" height="256"/>
  <object id="96" type="Tree2" gid="254" x="4330.76" y="413.221" width="192" height="256"/>
  <object id="97" type="Tree3" gid="256" x="2328.09" y="695.884" width="192" height="256"/>
  <object id="98" type="Tree3" gid="256" x="4370.76" y="284.548" width="192" height="256"/>
  <object id="99" type="Tree3" gid="256" x="4349.42" y="520.548" width="192" height="256"/>
  <object id="100" type="Tree3" gid="256" x="4324.76" y="796.551" width="192" height="256"/>
  <object id="101" type="Tree3" gid="256" x="4195.42" y="676.551" width="192" height="256"/>
  <object id="102" type="Tree4" gid="257" x="4186.09" y="386.551" width="192" height="256"/>
  <object id="103" type="Tree3" gid="256" x="1959.09" y="714.881" width="192" height="256"/>
  <object id="104" type="Tree4" gid="257" x="4324.09" y="654.551" width="192" height="256"/>
  <object id="105" type="Tree1" gid="255" x="1706.26" y="827.051" width="192" height="256"/>
  <object id="106" type="Tree2" gid="254" x="1962.76" y="101.214" width="192" height="256"/>
  <object id="107" type="Tree1" gid="255" x="1643.95" y="189.041" width="192" height="256"/>
  <object id="108" type="Tree4" gid="257" x="1489.73" y="217.968" width="192" height="256"/>
  <object id="109" type="Tree2" gid="254" x="1512.39" y="68.638" width="192" height="256"/>
  <object id="110" type="Tree1" gid="255" x="1780.06" y="159.971" width="192" height="256"/>
  <object id="111" type="Tree3" gid="256" x="1631.73" y="32.638" width="192" height="256"/>
  <object id="112" type="Tree3" gid="256" x="2067.06" y="72.638" width="192" height="256"/>
  <object id="113" type="Tree3" gid="256" x="1858.39" y="53.968" width="192" height="256"/>
  <object id="114" type="Tree4" gid="257" x="1736.39" y="49.9714" width="192" height="256"/>
  <object id="116" type="Tree1" gid="255" x="2106" y="150.667" width="192" height="256"/>
  <object id="117" type="Tree3" gid="256" x="2202.67" y="79.3333" width="192" height="256"/>
  <object id="118" type="Tree1" gid="255" x="2733" y="94.3333" width="192" height="256"/>
  <object id="119" type="Tree2" gid="254" x="2597.67" y="77" width="192" height="256"/>
  <object id="120" type="Tree3" gid="256" x="2674.34" y="175" width="192" height="256"/>
  <object id="121" type="Tree3" gid="256" x="2544.33" y="182.33" width="192" height="256"/>
  <object id="122" type="Tree4" gid="257" x="2455.67" y="143" width="192" height="256"/>
  <object id="123" type="Tree2" gid="254" x="1946" y="834" width="192" height="256"/>
  <object id="124" type="Tree2" gid="254" x="1972" y="1041" width="192" height="256"/>
  <object id="126" type="Tree1" gid="255" x="1872" y="951" width="192" height="256"/>
  <object id="127" type="Tree3" gid="256" x="2454.33" y="751.667" width="192" height="256"/>
  <object id="128" type="Tree1" gid="255" x="2262.33" y="826.333" width="192" height="256"/>
  <object id="131" type="Tree3" gid="256" x="2068.67" y="1104.33" width="192" height="256"/>
  <object id="132" type="Tree3" gid="256" x="1668.39" y="1256.73" width="192" height="256"/>
  <object id="133" type="Tree2" gid="254" x="1690" y="1370" width="192" height="256"/>
  <object id="134" type="Tree4" gid="257" x="1952.67" y="1173.33" width="192" height="256"/>
  <object id="135" type="Tree1" gid="255" x="2975.39" y="32.405" width="192" height="256"/>
  <object id="136" type="Tree2" gid="254" x="3083.72" y="152.405" width="192" height="256"/>
  <object id="137" type="Tree3" gid="256" x="3016.06" y="271.595" width="192" height="256"/>
  <object id="138" type="Tree1" gid="255" x="2848.72" y="193.405" width="192" height="256"/>
  <object id="139" type="Tree4" gid="257" x="2980.39" y="202.905" width="192" height="256"/>
  <object id="140" type="Tree4" gid="257" x="2842.17" y="55.665" width="192" height="256"/>
  <object id="141" type="Tree1" gid="255" x="3107.17" y="249.335" width="192" height="256"/>
  <object id="142" type="Tree1" gid="255" x="3280.5" y="100.665" width="192" height="256"/>
  <object id="143" type="Tree1" gid="255" x="3414.17" y="40.335" width="192" height="256"/>
  <object id="144" type="Tree2" gid="254" x="3391.17" y="220.005" width="192" height="256"/>
  <object id="145" type="Tree3" gid="256" x="3485.83" y="129.335" width="192" height="256"/>
  <object id="146" type="Tree3" gid="256" x="3464.83" y="269.665" width="192" height="256"/>
  <object id="147" type="Tree4" gid="257" x="3246.5" y="193.335" width="192" height="256"/>
  <object id="148" type="Tree2" gid="254" x="3192.83" y="41.665" width="192" height="256"/>
  <object id="158" type="Tree2" gid="254" x="2234.21" y="201.397" width="192" height="256"/>
  <object id="159" type="Tree3" gid="256" x="2019.87" y="173.727" width="192" height="256"/>
  <object id="160" type="Tree3" gid="256" x="2360.87" y="205.057" width="192" height="256"/>
  <object id="161" type="Tree4" gid="257" x="1892.54" y="198.727" width="192" height="256"/>
  <object id="162" type="Tree3" gid="256" x="3604.57" y="214.707" width="192" height="256"/>
  <object id="163" type="Tree3" gid="256" x="3867.9" y="205.187" width="192" height="256"/>
  <object id="165" type="Tree2" gid="254" x="3886.12" y="104.847" width="192" height="256"/>
  <object id="166" type="Tree3" gid="256" x="3926.79" y="314.037" width="192" height="256"/>
  <object id="167" type="Tree4" gid="257" x="4058.9" y="417.107" width="192" height="256"/>
  <object id="168" type="Tree3" gid="256" x="4050.9" y="88.1102" width="192" height="256"/>
  <object id="169" type="Tree3" gid="256" x="3725.9" y="81.1072" width="192" height="256"/>
  <object id="170" type="Tree2" gid="254" x="3712.81" y="200.226" width="192" height="256"/>
  <object id="171" type="Tree2" gid="254" x="3592.14" y="120.559" width="192" height="256"/>
  <object id="172" type="Tree1" gid="255" x="4340.14" y="194.559" width="192" height="256"/>
  <object id="173" type="Tree3" gid="256" x="4145.14" y="177.893" width="192" height="256"/>
  <object id="174" type="Tree1" gid="255" x="3983.14" y="197.559" width="192" height="256"/>
  <object id="177" type="Tree2" gid="254" x="4062.14" y="281.559" width="192" height="256"/>
  <object id="178" type="Tree4" gid="257" x="4218.14" y="143.556" width="192" height="256"/>
  <object id="179" type="Tree3" gid="256" x="4371.09" y="1992.3" width="192" height="256"/>
  <object id="180" type="Tree1" gid="255" x="4079.59" y="1808.96" width="192" height="256"/>
  <object id="181" type="Tree2" gid="254" x="4242.09" y="2141.96" width="192" height="256"/>
  <object id="182" type="Tree3" gid="256" x="4205.75" y="1819.45" width="192" height="256"/>
  <object id="183" type="Tree3" gid="256" x="4165.43" y="2219.15" width="192" height="256"/>
  <object id="184" type="Tree1" gid="255" x="4151.42" y="2098.29" width="192" height="256"/>
  <object id="185" type="Tree4" gid="257" x="4080.76" y="1924.96" width="192" height="256"/>
  <object id="186" type="Tree1" gid="255" x="4249.31" y="1472.44" width="192" height="256"/>
  <object id="187" type="Tree2" gid="254" x="4329.97" y="1589.44" width="192" height="256"/>
  <object id="188" type="Tree3" gid="256" x="4364.98" y="1787.3" width="192" height="256"/>
  <object id="189" type="Tree1" gid="255" x="4117.64" y="1634.44" width="192" height="256"/>
  <object id="190" type="Tree4" gid="257" x="4270.64" y="1667.94" width="192" height="256"/>
  <object id="191" type="Tree4" gid="257" x="4354.09" y="2095.2" width="192" height="256"/>
  <object id="192" type="Tree4" gid="257" x="4100.09" y="1457.03" width="192" height="256"/>
  <object id="193" type="Tree2" gid="254" x="4120.09" y="1297.04" width="192" height="256"/>
  <object id="194" type="Tree1" gid="255" x="2984.42" y="2157.85" width="192" height="256"/>
  <object id="195" type="Tree1" gid="255" x="3151.76" y="2046.52" width="192" height="256"/>
  <object id="196" type="Tree1" gid="255" x="2896.42" y="1677.19" width="192" height="256"/>
  <object id="199" type="Tree3" gid="256" x="3217.09" y="2086.19" width="192" height="256"/>
  <object id="200" type="Tree3" gid="256" x="4320.45" y="2192.55" width="192" height="256"/>
  <object id="201" type="Tree3" gid="256" x="3027.09" y="1964.52" width="192" height="256"/>
  <object id="202" type="Tree3" gid="256" x="4235.42" y="1295.7" width="192" height="256"/>
  <object id="203" type="Tree3" gid="256" x="4347.42" y="1399.7" width="192" height="256"/>
  <object id="204" type="Tree4" gid="257" x="3266.76" y="1978.69" width="192" height="256"/>
  <object id="207" type="Tree1" gid="255" x="4255.59" y="1932.2" width="192" height="256"/>
  <object id="208" type="Tree2" gid="254" x="2725.09" y="1551.52" width="192" height="256"/>
  <object id="209" type="Tree3" gid="256" x="2579.27" y="1497.45" width="192" height="256"/>
  <object id="212" type="Tree3" gid="256" x="2774.16" y="1618.96" width="192" height="256"/>
  <object id="213" type="Tree4" gid="257" x="3114.44" y="2175.53" width="192" height="256"/>
  <object id="214" type="Tree3" gid="256" x="3008.77" y="2229.7" width="192" height="256"/>
  <object id="217" type="Tree1" gid="255" x="2368.91" y="1501.58" width="192" height="256"/>
  <object id="218" type="Tree2" gid="254" x="3042.58" y="1631.25" width="192" height="256"/>
  <object id="219" type="Tree3" gid="256" x="2914.24" y="1545.25" width="192" height="256"/>
  <object id="220" type="Tree3" gid="256" x="2688.24" y="1327.58" width="192" height="256"/>
  <object id="221" type="Tree4" gid="257" x="2859.91" y="1466.58" width="192" height="256"/>
  <object id="222" type="Tree4" gid="257" x="2999.42" y="1709.75" width="192" height="256"/>
  <object id="223" type="Tree3" gid="256" x="2809.09" y="1412.42" width="192" height="256"/>
  <object id="224" type="Tree3" gid="256" x="3186.88" y="1553.42" width="192" height="256"/>
  <object id="225" type="Tree2" gid="254" x="3169.87" y="1489.42" width="192" height="256"/>
  <object id="226" type="Tree1" gid="255" x="3009.55" y="1480.08" width="192" height="256"/>
  <object id="227" type="Tree4" gid="257" x="2323.88" y="1414.32" width="192" height="256"/>
  <object id="228" type="Tree1" gid="255" x="2536.38" y="1255.66" width="192" height="256"/>
  <object id="229" type="Tree1" gid="255" x="3136.87" y="1663.86" width="192" height="256"/>
  <object id="230" type="Tree3" gid="256" x="3147.84" y="1937.34" width="192" height="256"/>
  <object id="232" type="Tree1" gid="255" x="1980.06" y="2538.27" width="192" height="256"/>
  <object id="233" type="Tree2" gid="254" x="1893.39" y="2600.27" width="192" height="256"/>
  <object id="234" type="Tree2" gid="254" x="1762.73" y="2429.61" width="192" height="256"/>
  <object id="235" type="Tree3" gid="256" x="1860.06" y="2453.61" width="192" height="256"/>
  <object id="236" type="Tree3" gid="256" x="1636.06" y="2575.6" width="192" height="256"/>
  <object id="237" type="Tree3" gid="256" x="1812.06" y="2556.94" width="192" height="256"/>
  <object id="238" type="Tree4" gid="257" x="1636.73" y="2464.27" width="192" height="256"/>
  <object id="239" type="Tree2" gid="254" x="1729.39" y="2542.27" width="192" height="256"/>
  <object id="240" type="Tree3" gid="256" x="2026.67" y="2612" width="192" height="256"/>
  <object id="241" type="Tree3" gid="256" x="1758.67" y="2608" width="192" height="256"/>
  <object id="242" type="Tree4" gid="257" x="3012" y="2282.67" width="192" height="256"/>
  <object id="243" type="Tree4" gid="257" x="2685.67" y="2255" width="192" height="256"/>
  <object id="244" type="Tree3" gid="256" x="2601.33" y="2317.33" width="192" height="256"/>
  <object id="246" type="Tree3" gid="256" x="2883.33" y="2336.67" width="192" height="256"/>
  <object id="247" type="Tree1" gid="255" x="2813" y="2209.67" width="192" height="256"/>
  <object id="248" type="Tree2" gid="254" x="2720.5" y="2348.5" width="192" height="256"/>
  <object id="249" type="Tree1" gid="255" x="2548.71" y="644.738" width="192" height="256"/>
  <object id="250" type="Tree2" gid="254" x="2643.04" y="794.738" width="192" height="256"/>
  <object id="251" type="Tree3" gid="256" x="2514.38" y="913.928" width="192" height="256"/>
  <object id="252" type="Tree1" gid="255" x="2635.49" y="897.668" width="192" height="256"/>
  <object id="253" type="Tree1" gid="255" x="2850.82" y="747.998" width="192" height="256"/>
  <object id="254" type="Tree1" gid="255" x="3003.49" y="701.668" width="192" height="256"/>
  <object id="255" type="Tree2" gid="254" x="3103.49" y="315.672" width="192" height="256"/>
  <object id="256" type="Tree3" gid="256" x="3122.82" y="652.335" width="192" height="256"/>
  <object id="257" type="Tree3" gid="256" x="2860.82" y="602.998" width="192" height="256"/>
  <object id="258" type="Tree4" gid="257" x="2784.82" y="855.668" width="192" height="256"/>
  <object id="259" type="Tree2" gid="254" x="2729.15" y="667.998" width="192" height="256"/>
  <object id="260" type="Tree3" gid="256" x="3212.89" y="309.04" width="192" height="256"/>
  <object id="261" type="Tree3" gid="256" x="3242.22" y="641.441" width="192" height="256"/>
  <object id="262" type="Tree2" gid="254" x="3180.13" y="735.559" width="192" height="256"/>
  <object id="263" type="Tree2" gid="254" x="2984.46" y="576.892" width="192" height="256"/>
  <object id="264" type="Tree4" gid="257" x="3122" y="545" width="192" height="256"/>
  <object id="265" type="Tree1" gid="255" x="4313.91" y="1069.79" width="192" height="256"/>
  <object id="266" type="Tree3" gid="256" x="4376.24" y="1109.46" width="192" height="256"/>
  <object id="267" type="Tree4" gid="257" x="4186.58" y="1127.13" width="192" height="256"/>
  <object id="268" type="Tree4" gid="257" x="4328.09" y="1232.31" width="192" height="256"/>
  <object id="269" type="Tree3" gid="256" x="4208.03" y="920.695" width="192" height="256"/>
  <object id="271" type="Tree1" gid="255" x="4158.27" y="1033.88" width="192" height="256"/>
  <object id="272" type="Tree3" gid="256" x="4306.99" y="960.615" width="192" height="256"/>
  <object id="273" type="Tree1" gid="255" x="-2.16182" y="3705.13" width="192" height="256"/>
  <object id="274" type="Tree1" gid="255" x="15.8382" y="3468.46" width="192" height="256"/>
  <object id="275" type="Tree2" gid="254" x="7.83818" y="3797.13" width="192" height="256"/>
  <object id="276" type="Tree2" gid="254" x="126.508" y="3587.8" width="192" height="256"/>
  <object id="277" type="Tree3" gid="256" x="166.508" y="3459.13" width="192" height="256"/>
  <object id="278" type="Tree3" gid="256" x="145.168" y="3695.13" width="192" height="256"/>
  <object id="279" type="Tree3" gid="256" x="146.508" y="3958.13" width="192" height="256"/>
  <object id="280" type="Tree3" gid="256" x="-8.83182" y="3851.13" width="192" height="256"/>
  <object id="281" type="Tree4" gid="257" x="-18.1618" y="3561.13" width="192" height="256"/>
  <object id="282" type="Tree4" gid="257" x="119.838" y="3829.13" width="192" height="256"/>
  <object id="283" type="Tree3" gid="256" x="243.648" y="4132.68" width="192" height="256"/>
  <object id="284" type="Tree2" gid="254" x="261.868" y="4032.34" width="192" height="256"/>
  <object id="285" type="Tree3" gid="256" x="302.538" y="4241.53" width="192" height="256"/>
  <object id="287" type="Tree3" gid="256" x="363.012" y="4054.99" width="192" height="256"/>
  <object id="288" type="Tree1" gid="255" x="135.888" y="3369.14" width="192" height="256"/>
  <object id="289" type="Tree3" gid="256" x="-59.1118" y="3352.47" width="192" height="256"/>
  <object id="292" type="Tree4" gid="257" x="13.8882" y="3318.14" width="192" height="256"/>
  <object id="293" type="Tree2" gid="254" x="-84.1618" y="4471.62" width="192" height="256"/>
  <object id="294" type="Tree3" gid="256" x="31.1682" y="4470.28" width="192" height="256"/>
  <object id="295" type="Tree3" gid="256" x="143.168" y="4574.28" width="192" height="256"/>
  <object id="296" type="Tree1" gid="255" x="109.658" y="4244.37" width="192" height="256"/>
  <object id="297" type="Tree3" gid="256" x="171.988" y="4284.04" width="192" height="256"/>
  <object id="298" type="Tree4" gid="257" x="-28.3418" y="4299.04" width="192" height="256"/>
  <object id="299" type="Tree4" gid="257" x="123.838" y="4406.89" width="192" height="256"/>
  <object id="300" type="Tree3" gid="256" x="3.77818" y="4095.27" width="192" height="256"/>
  <object id="301" type="Tree2" gid="254" x="-13.2318" y="4031.27" width="192" height="256"/>
  <object id="302" type="Tree1" gid="255" x="-45.9818" y="4208.46" width="192" height="256"/>
  <object id="303" type="Tree3" gid="256" x="113.738" y="4127.19" width="192" height="256"/>
  <object id="304" type="Tree1" gid="255" x="260.14" y="4514.83" width="192" height="256"/>
  <object id="307" type="Tree3" gid="256" x="668.477" y="4387.5" width="192" height="256"/>
  <object id="309" type="Tree4" gid="257" x="254.807" y="4404.16" width="192" height="256"/>
  <object id="310" type="Tree1" gid="255" x="693.19" y="4492.17" width="192" height="256"/>
  <object id="313" type="Tree1" gid="255" x="-0.526567" y="3136.82" width="192" height="256"/>
  <object id="314" type="Tree2" gid="254" x="110.143" y="3256.16" width="192" height="256"/>
  <object id="315" type="Tree3" gid="256" x="150.143" y="3127.49" width="192" height="256"/>
  <object id="316" type="Tree4" gid="257" x="-34.5266" y="3229.49" width="192" height="256"/>
  <object id="317" type="Tree1" gid="255" x="119.523" y="3037.5" width="192" height="256"/>
  <object id="318" type="Tree3" gid="256" x="-75.4766" y="3020.83" width="192" height="256"/>
  <object id="319" type="Tree4" gid="257" x="-2.47657" y="2986.5" width="192" height="256"/>
  <object id="320" type="Tree4" gid="257" x="261.333" y="2981.33" width="192" height="256"/>
  <object id="321" type="Tree2" gid="254" x="260" y="3084" width="192" height="256"/>
  <object id="322" type="Tree1" gid="255" x="374.667" y="3000" width="192" height="256"/>
  <object id="323" type="Tree1" gid="255" x="246" y="3854" width="192" height="256"/>
  <object id="324" type="Tree4" gid="257" x="771.667" y="4524.33" width="192" height="256"/>
  <object id="325" type="Tree3" gid="256" x="756" y="4416" width="192" height="256"/>
  <object id="327" type="Tree3" gid="256" x="984" y="4481.33" width="192" height="256"/>
  <object id="328" type="Tree1" gid="255" x="863.333" y="4488" width="192" height="256"/>
  <object id="329" type="Tree4" gid="257" x="862" y="4400.67" width="192" height="256"/>
  <object id="342" type="Tree1" gid="255" x="1879.76" y="4552.67" width="192" height="256"/>
  <object id="343" type="Tree4" gid="257" x="1806.76" y="4482.67" width="192" height="256"/>
  <object id="344" type="Tree4" gid="257" x="1795.24" y="4146.66" width="192" height="256"/>
  <object id="345" type="Tree3" gid="256" x="1992.74" y="4447.83" width="192" height="256"/>
  <object id="346" type="Tree3" gid="256" x="1988.24" y="4607.16" width="192" height="256"/>
  <object id="348" type="Tree4" gid="257" x="2093.74" y="4417.5" width="192" height="256"/>
  <object id="349" type="Tree1" gid="255" x="1823.17" y="3973.5" width="192" height="256"/>
  <object id="350" type="Tree3" gid="256" x="1793" y="4042" width="192" height="256"/>
  <object id="351" type="Tree3" gid="256" x="1975.8" y="3959" width="192" height="256"/>
  <object id="352" type="Tree4" gid="257" x="1901.5" y="4005.5" width="192" height="256"/>
  <object id="353" type="Tree1" gid="255" x="2142.5" y="4274.5" width="192" height="256"/>
  <object id="354" type="Tree3" gid="256" x="2216" y="4383.83" width="192" height="256"/>
  <object id="355" type="Tree2" gid="254" x="2237" y="4468.17" width="192" height="256"/>
  <object id="356" type="Tree3" gid="256" x="2271.33" y="4611.33" width="192" height="256"/>
  <object id="357" type="Tree1" gid="255" x="2136.67" y="4608" width="192" height="256"/>
  <object id="358" type="Tree4" gid="257" x="2380.5" y="4517.83" width="192" height="256"/>
  <object id="360" type="Tree1" gid="255" x="2414.67" y="4590" width="192" height="256"/>
  <object id="361" type="Tree3" gid="256" x="2494.67" y="4611.33" width="192" height="256"/>
  <object id="362" type="Tree3" gid="256" x="1885.5" y="4490" width="192" height="256"/>
  <object id="363" type="Tree1" gid="255" x="-3.5965" y="4589.66" width="192" height="256"/>
  <object id="369" type="Tree1" gid="255" x="883.929" y="4601.5" width="192" height="256"/>
  <object id="370" type="Tree3" gid="256" x="1073.67" y="4568.91" width="192" height="256"/>
  <object id="371" type="Tree1" gid="255" x="1076.33" y="4474.91" width="192" height="256"/>
  <object id="372" type="Tree4" gid="257" x="1007.67" y="4399.58" width="192" height="256"/>
  <object id="374" type="Tree3" gid="256" x="3023.67" y="773.333" width="192" height="256"/>
  <object id="375" type="Tree3" gid="256" x="2927.33" y="846" width="192" height="256"/>
  <object id="376" type="Tree1" gid="2147483903" x="4051.28" y="901.501" width="192" height="256"/>
  <object id="377" type="Tree3" gid="2147483904" x="3833.62" y="763.835" width="192" height="256"/>
  <object id="378" type="Tree3" gid="2147483904" x="3834.22" y="858.941" width="192" height="256"/>
  <object id="379" type="Tree2" gid="2147483902" x="3865.98" y="934.059" width="192" height="256"/>
  <object id="380" type="Tree2" gid="2147483902" x="3978.65" y="780.392" width="192" height="256"/>
  <object id="381" type="Tree4" gid="2147483905" x="4154.44" y="789.833" width="192" height="256"/>
  <object id="382" type="Tree3" gid="2147483904" x="3984.44" y="1015.5" width="192" height="256"/>
  <object id="383" type="Tree3" gid="2147483904" x="3724.45" y="888.833" width="192" height="256"/>
  <object id="385" type="Tree3" gid="256" x="4062.67" y="1130.67" width="192" height="256"/>
  <object id="386" type="Tree3" gid="256" x="1577.67" y="637.667" width="192" height="256"/>
  <object id="388" type="Tree3" gid="256" x="1491" y="287" width="192" height="256"/>
  <object id="389" type="Tree1" gid="255" x="1590" y="270" width="192" height="256"/>
  <object id="390" type="Tree4" gid="257" x="1510" y="554.667" width="192" height="256"/>
  <object id="391" type="Tree1" gid="255" x="1791.67" y="1278.99" width="192" height="256"/>
  <object id="392" type="Tree1" gid="255" x="1688.33" y="1156.66" width="192" height="256"/>
  <object id="393" type="Tree2" gid="254" x="1811.33" y="1107.34" width="192" height="256"/>
  <object id="394" type="Tree3" gid="256" x="1826" y="1175.66" width="192" height="256"/>
  <object id="395" type="Tree4" gid="257" x="1574.33" y="1317.33" width="192" height="256"/>
  <object id="396" type="Tree2" gid="254" x="1565" y="1222.99" width="192" height="256"/>
  <object id="397" type="Tree3" gid="256" x="1584" y="1396" width="192" height="256"/>
  <object id="399" type="Tree1" gid="255" x="2411.33" y="3283.25" width="192" height="256"/>
  <object id="400" type="Tree2" gid="254" x="2593.33" y="2964.91" width="192" height="256"/>
  <object id="401" type="Tree1" gid="255" x="2838.52" y="2992.4" width="192" height="256"/>
  <object id="402" type="Tree4" gid="257" x="2118.3" y="3124.66" width="192" height="256"/>
  <object id="403" type="Tree2" gid="254" x="2149.96" y="2963" width="192" height="256"/>
  <object id="404" type="Tree1" gid="255" x="2517.63" y="3214.33" width="192" height="256"/>
  <object id="405" type="Tree3" gid="256" x="2266.3" y="2951" width="192" height="256"/>
  <object id="406" type="Tree3" gid="256" x="2701.63" y="2991" width="192" height="256"/>
  <object id="407" type="Tree3" gid="256" x="2492.96" y="2972.33" width="192" height="256"/>
  <object id="408" type="Tree4" gid="257" x="2374.96" y="2942.33" width="192" height="256"/>
  <object id="409" type="Tree1" gid="255" x="2754.57" y="3373.03" width="192" height="256"/>
  <object id="410" type="Tree3" gid="256" x="2252.24" y="3313.03" width="192" height="256"/>
  <object id="411" type="Tree1" gid="255" x="2790.57" y="3220.03" width="192" height="256"/>
  <object id="412" type="Tree2" gid="254" x="2647.24" y="3310.7" width="192" height="256"/>
  <object id="413" type="Tree3" gid="256" x="2640.25" y="3157.03" width="192" height="256"/>
  <object id="414" type="Tree3" gid="256" x="2593.9" y="3441.03" width="192" height="256"/>
  <object id="415" type="Tree4" gid="257" x="2504.24" y="3390.7" width="192" height="256"/>
  <object id="416" type="Tree2" gid="254" x="2283.78" y="3435.09" width="192" height="256"/>
  <object id="417" type="Tree3" gid="256" x="2786.44" y="3142.09" width="192" height="256"/>
  <object id="418" type="Tree3" gid="256" x="2409.44" y="3452.75" width="192" height="256"/>
  <object id="419" type="Tree4" gid="257" x="2328.11" y="3135.09" width="192" height="256"/>
  <object id="420" type="Tree3" gid="256" x="2189.91" y="3246.03" width="192" height="256"/>
  <object id="421" type="Tree1" gid="255" x="2320.91" y="3220.03" width="192" height="256"/>
  <object id="425" type="Tree1" gid="255" x="2503.05" y="3646.09" width="192" height="256"/>
  <object id="426" type="Tree4" gid="257" x="2364.05" y="3538.09" width="192" height="256"/>
  <object id="427" type="Tree3" gid="256" x="2606.02" y="3589.25" width="192" height="256"/>
  <object id="428" type="Tree3" gid="256" x="2619.52" y="3718.58" width="192" height="256"/>
  <object id="429" type="Tree4" gid="257" x="2709.02" y="3520.92" width="192" height="256"/>
  <object id="430" type="Tree3" gid="256" x="2831.28" y="3487.25" width="192" height="256"/>
  <object id="431" type="Tree2" gid="254" x="2859.28" y="3570.59" width="192" height="256"/>
  <object id="432" type="Tree3" gid="256" x="2893.61" y="3713.75" width="192" height="256"/>
  <object id="433" type="Tree1" gid="255" x="2758.95" y="3710.42" width="192" height="256"/>
  <object id="434" type="Tree4" gid="257" x="3002.78" y="3620.25" width="192" height="256"/>
  <object id="435" type="Tree1" gid="255" x="3036.95" y="3692.42" width="192" height="256"/>
  <object id="437" type="Tree3" gid="256" x="2467.78" y="3552.42" width="192" height="256"/>
  <object id="438" type="Tree3" gid="256" x="3027.17" y="3780.75" width="192" height="256"/>
  <object id="439" type="Tree2" gid="254" x="2798.17" y="3887.09" width="192" height="256"/>
  <object id="441" type="Tree4" gid="257" x="2649.67" y="3807.75" width="192" height="256"/>
  <object id="442" type="Tree1" gid="255" x="2808.84" y="3817.92" width="192" height="256"/>
  <object id="443" type="Tree3" gid="256" x="2917.84" y="3861.25" width="192" height="256"/>
  <object id="444" type="Tree2" gid="254" x="3040" y="3854" width="192" height="256"/>
  <object id="445" type="Tree3" gid="2147483904" x="4067.63" y="4076.12" width="192" height="256"/>
  <object id="446" type="Tree1" gid="2147483903" x="4322.14" y="3916.11" width="192" height="256"/>
  <object id="447" type="Tree2" gid="2147483902" x="4210.64" y="4203.78" width="192" height="256"/>
  <object id="448" type="Tree3" gid="2147483904" x="4205.31" y="3926.6" width="192" height="256"/>
  <object id="449" type="Tree3" gid="2147483904" x="4326.97" y="4280.3" width="192" height="256"/>
  <object id="450" type="Tree1" gid="2147483903" x="4287.31" y="4182.11" width="192" height="256"/>
  <object id="451" type="Tree4" gid="2147483905" x="4344.64" y="4035.45" width="192" height="256"/>
  <object id="452" type="Tree1" gid="2147483903" x="4197.42" y="3644.26" width="192" height="256"/>
  <object id="453" type="Tree2" gid="2147483902" x="4074.09" y="3773.26" width="192" height="256"/>
  <object id="454" type="Tree3" gid="2147483904" x="4092.75" y="3896.45" width="192" height="256"/>
  <object id="455" type="Tree1" gid="2147483903" x="4309.09" y="3814.26" width="192" height="256"/>
  <object id="456" type="Tree4" gid="2147483905" x="4177.42" y="3823.76" width="192" height="256"/>
  <object id="457" type="Tree4" gid="2147483905" x="4080.64" y="4197.02" width="192" height="256"/>
  <object id="458" type="Tree4" gid="2147483905" x="4330.64" y="3667.52" width="192" height="256"/>
  <object id="459" type="Tree2" gid="2147483902" x="4307.97" y="3518.19" width="192" height="256"/>
  <object id="460" type="Tree1" gid="2147483903" x="4136.64" y="3320.19" width="192" height="256"/>
  <object id="461" type="Tree1" gid="2147483903" x="4293.3" y="2979.52" width="192" height="256"/>
  <object id="462" type="Tree1" gid="2147483903" x="4174.64" y="2910.19" width="192" height="256"/>
  <object id="463" type="Tree2" gid="2147483902" x="4301.3" y="3308.19" width="192" height="256"/>
  <object id="464" type="Tree2" gid="2147483902" x="4182.64" y="3098.86" width="192" height="256"/>
  <object id="465" type="Tree3" gid="2147483904" x="4087.97" y="3008.19" width="192" height="256"/>
  <object id="466" type="Tree3" gid="2147483904" x="4297.3" y="3163.52" width="192" height="256"/>
  <object id="467" type="Tree3" gid="2147483904" x="4131.97" y="3215.52" width="192" height="256"/>
  <object id="468" type="Tree3" gid="2147483904" x="4188.64" y="3482.19" width="192" height="256"/>
  <object id="469" type="Tree3" gid="2147483904" x="4083.3" y="3610.19" width="192" height="256"/>
  <object id="470" type="Tree4" gid="2147483905" x="4327.3" y="3072.19" width="192" height="256"/>
  <object id="471" type="Tree3" gid="2147483904" x="4321.3" y="3409.52" width="192" height="256"/>
  <object id="472" type="Tree4" gid="2147483905" x="4055.3" y="3446.19" width="192" height="256"/>
  <object id="473" type="Tree1" gid="2147483903" x="4195.14" y="4046.69" width="192" height="256"/>
  <object id="474" type="Tree2" gid="2147483902" x="4315.97" y="2885.52" width="192" height="256"/>
  <object id="475" type="Tree1" gid="2147483903" x="4289.66" y="2667" width="192" height="256"/>
  <object id="476" type="Tree1" gid="2147483903" x="4147.01" y="2584.67" width="192" height="256"/>
  <object id="477" type="Tree2" gid="2147483902" x="4179.01" y="2786.34" width="192" height="256"/>
  <object id="478" type="Tree3" gid="2147483904" x="4144.67" y="2689.34" width="192" height="256"/>
  <object id="479" type="Tree3" gid="2147483904" x="4293.66" y="2851" width="192" height="256"/>
  <object id="480" type="Tree4" gid="2147483905" x="4323.66" y="2759.67" width="192" height="256"/>
  <object id="481" type="Tree2" gid="2147483902" x="4312.34" y="2573" width="192" height="256"/>
 </objectgroup>
 <objectgroup id="11" name="SpawnPoint">
  <object id="422" name="Chest" x="783.212" y="3262.12">
   <point/>
  </object>
  <object id="423" name="Chest" x="1854" y="2970">
   <point/>
  </object>
  <object id="424" name="Chest" x="1696" y="355.5">
   <point/>
  </object>
  <object id="900" name="Player" x="104.667" y="848">
   <point/>
  </object>
  <object id="924" name="Range" type="Light" x="1982" y="285.496">
   <point/>
  </object>
  <object id="925" name="Range" type="Dark" x="2138.5" y="350.667">
   <point/>
  </object>
  <object id="926" name="Range" type="Light" x="1986.16" y="451.167">
   <point/>
  </object>
  <object id="930" name="Range" type="Dark" x="2567.33" y="266.834">
   <point/>
  </object>
  <object id="931" name="Range" type="Dark" x="2579" y="439.667">
   <point/>
  </object>
  <object id="932" name="Range" type="Light" x="1570.86" y="2172.21">
   <point/>
  </object>
  <object id="933" name="Range" type="Light" x="1571.36" y="2297.21">
   <point/>
  </object>
  <object id="934" name="Melee" type="Light" x="586.663" y="2343.33">
   <point/>
  </object>
  <object id="935" name="Melee" type="Light" x="770.667" y="2122.67">
   <point/>
  </object>
  <object id="936" name="Slime" type="Dark" x="552" y="1969.33">
   <point/>
  </object>
  <object id="938" name="Melee" type="Light" x="3251.28" y="1063.15">
   <point/>
  </object>
  <object id="939" name="Melee" type="Light" x="3876.61" y="1059.49">
   <point/>
  </object>
  <object id="941" name="Melee" type="Dark" x="3559.94" y="1113.82">
   <point/>
  </object>
  <object id="942" name="Slime" type="Dark" x="3414.11" y="1256.65">
   <point/>
  </object>
  <object id="944" name="Slime" type="Dark" x="3750.61" y="1255.82">
   <point/>
  </object>
  <object id="945" name="Range" type="Dark" x="3372.27" y="875.485">
   <point/>
  </object>
  <object id="947" name="Range" type="Dark" x="3731.27" y="871.151">
   <point/>
  </object>
  <object id="948" name="Range" type="Light" x="3564" y="776.667">
   <point/>
  </object>
  <object id="949" name="Range" type="Light" x="360" y="3260.67">
   <point/>
  </object>
  <object id="950" name="Slime" type="Dark" x="496.667" y="3766.67">
   <point/>
  </object>
  <object id="951" name="Slime" type="Dark" x="398.667" y="3580">
   <point/>
  </object>
  <object id="952" name="Range" type="Dark" x="1942" y="4221">
   <point/>
  </object>
  <object id="953" name="Range" type="Dark" x="2068" y="4033">
   <point/>
  </object>
  <object id="954" name="Range" type="Dark" x="2010" y="4116">
   <point/>
  </object>
  <object id="956" name="Melee" type="Light" x="3730.67" y="3020.67">
   <point/>
  </object>
  <object id="963" name="Range" type="Dark" x="3785.33" y="3346.67">
   <point/>
  </object>
  <object id="964" name="Range" type="Dark" x="3580.33" y="3339.67">
   <point/>
  </object>
  <object id="966" name="Melee" type="Light" x="3534.28" y="3125.15">
   <point/>
  </object>
  <object id="967" name="Melee" type="Light" x="3897.61" y="3127.48">
   <point/>
  </object>
  <object id="968" name="Melee" type="Dark" x="2941.94" y="4039.15">
   <point/>
  </object>
  <object id="969" name="Slime" type="Dark" x="3124.27" y="4098.49">
   <point/>
  </object>
  <object id="970" name="Slime" type="Dark" x="3125.28" y="3980.49">
   <point/>
  </object>
  <object id="971" name="Range" type="Dark" x="3698.94" y="3254.82">
   <point/>
  </object>
  <object id="977" name="Slime" type="Light" x="3744.36" y="1890.27">
   <point/>
  </object>
  <object id="978" name="Slime" type="Light" x="3968.27" y="2055.3">
   <point/>
  </object>
  <object id="979" name="Slime" type="Light" x="3616.09" y="2096.52">
   <point/>
  </object>
  <object id="980" name="Chest" x="2366.67" y="936.667">
   <point/>
  </object>
  <object id="992" name="Chest" x="3174" y="1714">
   <point/>
  </object>
  <object id="993" name="Slime" type="Dark" x="2309" y="351">
   <point/>
  </object>
  <object id="995" name="Chest" x="493.667" y="154.334">
   <point/>
  </object>
  <object id="997" name="Chest" x="3880" y="169.333">
   <point/>
  </object>
 </objectgroup>
 <objectgroup id="2" name="Collision">
  <object id="1" x="0" y="0" width="128" height="640"/>
  <object id="2" x="0" y="1024" width="64" height="1598"/>
  <object id="483" x="123.25" y="604" width="27.5" height="29"/>
  <object id="487" x="128" y="0" width="576" height="128"/>
  <object id="488" x="251.75" y="193.75" width="63.25" height="31.25"/>
  <object id="490" x="128" y="128" width="64" height="367.75"/>
  <object id="491" x="391.455" y="139.818" width="61.0909" height="28"/>
  <object id="492" x="534.364" y="166" width="64.1818" height="28.1818"/>
  <object id="493" x="609.818" y="216.182" width="60.7273" height="28"/>
  <object id="495" x="704" y="0" width="832" height="576"/>
  <object id="496" x="704" y="576" width="896" height="64"/>
  <object id="497" x="768" y="640" width="832" height="960"/>
  <object id="501" x="1600" y="1472" width="64" height="128"/>
  <object id="503" x="832" y="2306" width="832" height="318"/>
  <object id="506" x="64" y="1088" width="192" height="1343.5"/>
  <object id="507" x="55.5" y="2571.5" width="51.5" height="29.5"/>
  <object id="508" x="152" y="2511.5" width="67.5" height="31"/>
  <object id="509" x="263" y="2468" width="64" height="25.5"/>
  <object id="510" x="256" y="2240" width="52" height="133"/>
  <object id="513" x="256" y="1472" width="64" height="617.5"/>
  <object id="514" x="304.545" y="2059.45" width="34" height="29.6364"/>
  <object id="515" x="250.5" y="1292.75" width="72" height="30.75"/>
  <object id="517" x="0" y="2624" width="3007.67" height="291.333"/>
  <object id="519" x="3008" y="2560" width="64" height="353.333"/>
  <object id="520" x="3072" y="2496" width="64" height="355.5"/>
  <object id="521" x="3136" y="2432" width="64" height="356"/>
  <object id="522" x="3200" y="2368" width="64" height="356.5"/>
  <object id="523" x="3264" y="2304" width="64" height="356"/>
  <object id="524" x="3328" y="2240" width="64" height="356.25"/>
  <object id="525" x="3392" y="2240" width="475.75" height="292.25"/>
  <object id="526" x="3867.82" y="2176" width="28.5" height="442"/>
  <object id="527" x="4168.25" y="2175.5" width="28.5" height="442"/>
  <object id="528" x="4224" y="2623" width="256.333" height="1473"/>
  <object id="529" x="4197" y="2240" width="283" height="383.5"/>
  <object id="530" x="4147" y="4168.33" width="61" height="28.3333"/>
  <object id="531" x="4274" y="4174" width="65.3333" height="29.3333"/>
  <object id="532" x="4394.67" y="4096" width="85.3333" height="192"/>
  <object id="533" x="4176.67" y="3144.67" width="47.3333" height="951.333"/>
  <object id="534" x="4153.75" y="2816" width="70.25" height="191.5"/>
  <object id="537" x="4195" y="2917" height="0.5"/>
  <object id="538" x="4120.5" y="3416" width="68" height="29.5"/>
  <object id="539" x="4149" y="3583" width="41" height="25"/>
  <object id="540" x="4133" y="3742.25" width="49.5" height="29.75"/>
  <object id="541" x="4160" y="3871.25" width="22.5" height="20"/>
  <object id="542" x="4136.5" y="4049.5" width="41.25" height="23.75"/>
  <object id="543" x="961.333" y="4288" width="3518.67" height="192"/>
  <object id="544" x="2176" y="4224" width="1920" height="64"/>
  <object id="545" x="2176" y="4160" width="1472" height="64"/>
  <object id="547" x="2114" y="4096" width="702" height="64"/>
  <object id="561" x="2112" y="3904" width="704" height="54.6667"/>
  <object id="563" x="897.667" y="3073.33" width="2025.33" height="830.667"/>
  <object id="575" x="1216" y="3904" width="640" height="249.5"/>
  <object id="576" x="1152" y="3904" width="64" height="192"/>
  <object id="577" x="1024" y="3904" width="128" height="128"/>
  <object id="578" x="960" y="3904" width="64" height="64"/>
  <object id="580" x="704" y="2912.5" width="1088" height="95.5"/>
  <object id="588" x="768" y="4224" width="192" height="256"/>
  <object id="590" x="758.667" y="4464.67" width="54.6667" height="27.3333"/>
  <object id="591" x="737.333" y="4358" width="63.3333" height="27.3333"/>
  <object id="594" x="1967.5" y="3977.5" width="59.5" height="28.25"/>
  <object id="903" x="1860.5" y="4120.5" width="59.5" height="28.25"/>
  <object id="904" x="1858.5" y="4012.5" width="59.5" height="28.25"/>
  <object id="597" x="2048.67" y="3904" width="63.3333" height="55"/>
  <object id="599" x="0" y="3712" width="370" height="768"/>
  <object id="600" x="365.5" y="4213" width="63" height="27.25"/>
  <object id="601" x="423.5" y="4026.25" width="65.25" height="28.75"/>
  <object id="602" x="0" y="2915" width="256" height="797"/>
  <object id="604" x="323.455" y="3053.64" width="64.5455" height="30.7273"/>
  <object id="606" x="433.682" y="2965.55" width="69.6364" height="32.9091"/>
  <object id="607" x="898" y="3008" width="1214" height="69"/>
  <object id="608" x="2922.5" y="3392" width="85.5" height="468.5"/>
  <object id="609" x="3008" y="3456" width="128" height="405"/>
  <object id="610" x="3136" y="3520" width="44" height="258"/>
  <object id="612" x="3115.33" y="3824" width="52.6667" height="30.3333"/>
  <object id="613" x="2901" y="2953" width="68" height="40"/>
  <object id="614" x="2766" y="2963.5" width="64" height="27.5"/>
  <object id="615" x="2651" y="2937" width="70.5" height="29"/>
  <object id="616" x="2560.5" y="2945" width="58.5" height="28"/>
  <object id="617" x="2440.5" y="2917.5" width="62.5" height="25.5"/>
  <object id="621" x="2332.42" y="2924.17" width="69.5" height="27.5"/>
  <object id="622" x="2215.42" y="2927.67" width="65" height="37.5"/>
  <object id="625" x="4224" y="0" width="256" height="2240"/>
  <object id="627" x="4197.33" y="2176" width="26.6667" height="64"/>
  <object id="628" x="4144.33" y="1898" width="59.3333" height="26.3333"/>
  <object id="629" x="4143.67" y="1779" width="64.6667" height="29.3333"/>
  <object id="630" x="4181.67" y="1604.67" width="42.6667" height="29"/>
  <object id="631" x="4167.33" y="1431" width="57.3333" height="25"/>
  <object id="632" x="4183.33" y="1265.67" width="42.6667" height="31.2121"/>
  <object id="633" x="4129.67" y="1106.67" width="58.6667" height="24"/>
  <object id="634" x="3904" y="576" width="192.667" height="128"/>
  <object id="635" x="4096" y="639.5" width="129.333" height="425.833"/>
  <object id="638" x="3789.33" y="704" width="306.667" height="185.333"/>
  <object id="639" x="3930.25" y="907" width="64" height="26.75"/>
  <object id="640" x="4049" y="985.5" width="47.5" height="29.75"/>
  <object id="641" x="1536" y="0" width="2688" height="128"/>
  <object id="642" x="4096" y="128" width="128" height="192"/>
  <object id="643" x="4124.75" y="388.75" width="59.75" height="28"/>
  <object id="644" x="3992.25" y="286" width="60.75" height="28.25"/>
  <object id="645" x="3933.5" y="176.25" width="61.75" height="29.25"/>
  <object id="646" x="3775.25" y="171" width="65.5" height="29.75"/>
  <object id="647" x="3670" y="187" width="61.25" height="27"/>
  <object id="648" x="3531" y="241.5" width="59.5" height="28.5"/>
  <object id="649" x="3455" y="190" width="63.25" height="30.25"/>
  <object id="650" x="3072" y="128" width="256" height="128"/>
  <object id="651" x="3081.33" y="252.667" width="61.3333" height="18"/>
  <object id="652" x="3166.67" y="282.667" width="64" height="32.6667"/>
  <object id="653" x="3278.67" y="282" width="60" height="26.6667"/>
  <object id="654" x="2912.5" y="163.5" width="64.5" height="30.25"/>
  <object id="655" x="2740.75" y="147" width="59.75" height="27.5"/>
  <object id="656" x="2610.25" y="153.75" width="60.25" height="28.5"/>
  <object id="657" x="2521.5" y="127.5" width="60.5" height="16"/>
  <object id="658" x="2426.25" y="176.75" width="60.75" height="28.5"/>
  <object id="659" x="2297" y="171.5" width="65.75" height="31.25"/>
  <object id="660" x="2169.5" y="126" width="65" height="26.25"/>
  <object id="661" x="2085.75" y="145.75" width="60.25" height="28.75"/>
  <object id="662" x="1958.25" y="170.25" width="61" height="28.5"/>
  <object id="663" x="1844" y="128.5" width="63.5" height="31.25"/>
  <object id="664" x="1536" y="128" width="192" height="64"/>
  <object id="665" x="1654" y="239.667" width="64" height="34.3333"/>
  <object id="666" x="1556.67" y="259" width="61" height="28.3333"/>
  <object id="668" x="1600" y="576" width="1728" height="128"/>
  <object id="669" x="1600" y="704" width="1300" height="128"/>
  <object id="671" x="2990.5" y="816" width="64.5" height="30.5"/>
  <object id="672" x="2851.5" y="832.5" width="60" height="22.5"/>
  <object id="674" x="2623" y="448" width="705" height="128"/>
  <object id="676" x="3243.75" y="703.75" width="66.25" height="31.75"/>
  <object id="677" x="3089.5" y="744.25" width="60.5" height="28.75"/>
  <object id="679" x="2900" y="704" width="238.75" height="68.75"/>
  <object id="680" x="2695.75" y="867.75" width="68.75" height="30.25"/>
  <object id="681" x="2580.25" y="885.75" width="61" height="29"/>
  <object id="682" x="2433.75" y="886" width="64.75" height="30.75"/>
  <object id="683" x="2254.5" y="887.25" width="61" height="29"/>
  <object id="684" x="1600" y="832" width="576" height="256"/>
  <object id="685" x="2134.5" y="1075.5" width="60.5" height="29.25"/>
  <object id="686" x="2018.75" y="1145.5" width="60.25" height="27.25"/>
  <object id="687" x="1600.5" y="1088" width="303" height="191"/>
  <object id="688" x="1889.5" y="1256" width="31" height="24"/>
  <object id="689" x="1754" y="1340.5" width="64" height="29.625"/>
  <object id="690" x="1649.82" y="1367.64" width="60.2727" height="28.4545"/>
  <object id="691" x="1664" y="2304" width="320" height="320"/>
  <object id="692" x="1984" y="2338.67" width="141.333" height="285.333"/>
  <object id="693" x="2126" y="2497.33" width="26.6667" height="127.333"/>
  <object id="695" x="2176" y="1856" width="960" height="384"/>
  <object id="697" x="2048" y="1856" width="128" height="64"/>
  <object id="698" x="2112" y="1920" width="64" height="192"/>
  <object id="699" x="2304" y="2240" width="320" height="64"/>
  <object id="701" x="2048" y="1728" width="1024" height="64"/>
  <object id="706" x="2112" y="1664" width="1012.67" height="64"/>
  <object id="709" x="2432" y="1280" width="832" height="192"/>
  <object id="710" x="2368" y="1536" width="64" height="128"/>
  <object id="711" x="2240" y="1600" width="128" height="64"/>
  <object id="713" x="2560" y="1152" width="192" height="128"/>
  <object id="716" x="2624" y="2240" width="432.667" height="58.6667"/>
  <object id="717" x="2667.25" y="2296" width="60.25" height="21.5"/>
  <object id="718" x="2783.5" y="2318.25" width="64.75" height="30.5"/>
  <object id="719" x="3136" y="1856" width="192" height="203"/>
  <object id="720" x="3264" y="2058.5" width="80" height="27"/>
  <object id="721" x="3136" y="2058.5" width="128" height="117.5"/>
  <object id="723" x="3328" y="1856" width="64" height="123.5"/>
  <object id="724" name="Warp" type="SceneFlowerHills" x="15.0757" y="641" width="13.8485" height="383.333">
   <properties>
    <property name="X" type="float" value="4400"/>
    <property name="Y" type="float" value="640"/>
   </properties>
  </object>
  <object id="725" x="0.666667" y="640" width="14.6667" height="385.333"/>
  <object id="726" x="2432.75" y="1472" width="63.8333" height="29.5"/>
  <object id="727" x="2644.91" y="1471.09" width="60.5455" height="26"/>
  <object id="728" x="2788" y="1516.73" width="59.8182" height="34.1818"/>
  <object id="729" x="2816" y="1472" width="448" height="192"/>
  <object id="730" x="2432" y="1536" width="320" height="128"/>
  <object id="731" x="2752" y="1600" width="64" height="64"/>
  <object id="901" name="Warp" type="SceneUnderWaterfall" x="370.917" y="4440.83" width="397.5" height="16.9167">
   <properties>
    <property name="X" type="float" value="560"/>
    <property name="Y" type="float" value="130"/>
   </properties>
  </object>
  <object id="902" x="372.03" y="4459.59" width="395" height="20"/>
  <object id="905" x="2048" y="1792" width="1024" height="64"/>
  <object id="907" x="1575.5" y="526.5" width="66" height="30.5"/>
  <object id="908" x="2951" y="2315" width="59.6667" height="24.3333"/>
  <object id="909" x="3080.67" y="2260" width="64.3333" height="25.3333"/>
  <object id="910" x="768" y="3328" width="128" height="576"/>
  <object id="911" x="704" y="3328" width="64" height="512"/>
  <object id="912" x="640" y="3328" width="64" height="448"/>
  <object id="913" x="576" y="3328" width="64" height="384"/>
  <object id="915" x="512" y="3328" width="64" height="320"/>
  <object id="918" x="832" y="3008" width="64" height="320"/>
  <object id="919" x="704" y="3008" width="128" height="192"/>
  <object id="920" x="640" y="2944" width="64" height="256"/>
  <object id="921" x="576" y="3072" width="64" height="128"/>
  <object id="923" x="512" y="3136" width="64" height="64"/>
  <object id="982" x="448" y="3392" width="64" height="128"/>
  <object id="983" x="1856" y="3904" width="192" height="64"/>
  <object id="984" x="1856" y="3968" width="64" height="64"/>
  <object id="986" x="3712" y="2624" width="64" height="64"/>
  <object id="987" x="3520" y="2560" width="64" height="64"/>
  <object id="988" x="3392" y="2688" width="64" height="64"/>
  <object id="989" x="3136" y="3008" width="64" height="64"/>
  <object id="990" x="384" y="2304" width="64" height="64"/>
  <object id="991" x="576" y="2560" width="64" height="64"/>
  <object id="994" x="1984" y="1216" width="64" height="64"/>
  <object id="998" x="832" y="1600" width="832" height="504.25"/>
  <object id="1000" x="256" y="2880" width="64" height="128"/>
  <object id="1001" x="256" y="2880" width="128" height="64"/>
 </objectgroup>
</map>
