<?xml version="1.0" encoding="UTF-8"?>
<map version="1.10" tiledversion="1.11.2" orientation="orthogonal" renderorder="right-down" width="20" height="15" tilewidth="64" tileheight="64" infinite="0" nextlayerid="3" nextobjectid="9">
 <tileset firstgid="1" source="GrassTileSet.tsx"/>
 <tileset firstgid="5" source="CliffTileSet.tsx"/>
 <tileset firstgid="20" source="WaterTileset.tsx"/>
 <layer id="1" name="BG" width="20" height="15">
  <data encoding="csv">
28,20,20,32,1,15,16,16,16,16,16,16,16,16,16,16,16,16,16,18,
36,68,68,40,1,3,3,1,1,3,1,1,3,3,1,1,1,4,4,10,
60,24,24,64,1,1,1,1,1,3,1,1,1,1,1,1,2,1,1,10,
1,1,1,1,4,1,1,1,4,4,4,1,1,4,1,1,1,1,4,10,
7,1,1,1,1,1,1,1,4,3,4,2,1,1,1,1,1,2,1,10,
12,1,1,1,2,1,1,1,4,4,4,1,1,2,1,2,1,1,1,10,
12,1,2,1,1,1,1,1,4,1,4,1,1,1,1,1,1,1,1,10,
12,1,1,1,1,1,1,2,4,1,4,1,1,2,1,1,2,2,1,10,
12,2,1,2,1,1,1,1,4,1,4,1,1,1,1,1,1,1,4,10,
12,2,1,1,1,1,4,4,4,4,4,4,4,1,2,1,2,1,1,10,
12,2,1,1,1,1,4,1,4,1,4,1,4,2,1,1,2,1,1,10,
12,1,2,1,2,1,4,4,4,1,4,4,4,1,1,1,1,1,2,10,
12,1,1,1,1,1,1,1,1,1,1,2,1,1,4,1,1,1,4,10,
12,2,2,1,1,1,1,1,1,4,1,1,1,1,1,1,1,1,1,15,
17,1,1,1,1,1,1,1,1,1,1,1,1,1,1,1,1,1,1,1
</data>
 </layer>
 <objectgroup id="2" name="Collision">
  <object id="1" x="320" y="0" width="920" height="63.6667"/>
  <object id="2" x="1216.5" y="51.75" width="22" height="844.25"/>
  <object id="3" x="1235.75" y="832" width="44.25" height="63.5"/>
  <object id="4" x="0" y="895.333" width="64" height="64.6667"/>
  <object id="5" x="44" y="255" width="19" height="692"/>
  <object id="6" x="0" y="255.333" width="63" height="12.6667"/>
  <object id="7" x="10" y="2.66667" width="238.667" height="180"/>
  <object id="8" x="978" y="-300"/>
 </objectgroup>
</map>
