<?xml version="1.0" encoding="UTF-8"?>
<map version="1.10" tiledversion="1.11.2" orientation="orthogonal" renderorder="right-down" width="70" height="70" tilewidth="64" tileheight="64" infinite="0" nextlayerid="17" nextobjectid="1107">
 <tileset firstgid="1" source="Grass_Tileset_1.tsx"/>
 <tileset firstgid="17" source="Cliff_Tileset.tsx"/>
 <tileset firstgid="59" source="Tree_1.tsx"/>
 <tileset firstgid="63" source="Waterfall_Tileset2.tsx"/>
 <tileset firstgid="111" source="Water_tileset.tsx"/>
 <tileset firstgid="231" source="Stair_Tileset.tsx"/>
 <tileset firstgid="251" source="Path_1.tsx"/>
 <tileset firstgid="255" source="Tree_Shadow.tsx"/>
 <tileset firstgid="257" source="Rock&amp;Bush.tsx"/>
 <layer id="9" name="Floor" width="70" height="70">
  <data encoding="csv">
1,1,1,1,1,1,1,1,1,1,1,1,1,1,1,1,1,1,1,1,1,1,1,1,1,1,1,1,1,1,1,1,1,1,1,1,1,1,1,1,1,1,1,8,5,3,7,1,1,1,1,1,1,1,1,1,1,1,1,1,1,1,1,1,1,1,1,1,1,1,
1,1,1,3,3,4,4,4,4,1,4,3,5,6,4,2,1,1,1,1,1,1,1,1,1,1,1,1,1,1,1,1,1,1,1,1,7,6,4,5,5,8,8,4,7,2,1,1,1,1,1,1,1,1,1,1,1,1,1,1,1,1,1,1,1,1,1,1,1,1,
4,2,1,1,1,2,1,8,8,4,12,1,2,3,2,3,2,1,2,1,1,1,2,8,6,1,5,2,6,3,5,12,2,7,1,1,2,6,12,8,4,8,1,1,1,1,3,7,4,1,1,1,1,1,1,1,1,1,1,1,1,1,1,3,2,4,4,1,1,1,
1,2,4,3,1,2,3,2,2,1,4,1,4,4,1,3,2,1,1,2,2,6,8,8,6,5,7,3,6,12,1,7,1,4,12,1,1,1,1,5,12,5,12,7,7,5,8,7,1,1,1,1,1,1,1,1,1,1,1,3,5,12,1,8,1,1,1,1,1,1,
1,3,2,1,1,7,12,1,2,5,2,8,4,1,4,2,3,4,3,2,2,12,8,3,2,6,6,3,8,8,3,5,6,8,6,6,1,1,1,8,6,2,8,5,5,6,6,3,4,1,7,5,1,1,1,1,12,4,2,8,1,1,1,1,1,1,1,1,1,1,
1,1,1,1,1,4,3,12,3,2,1,2,12,10,4,3,4,8,4,1,15,12,3,1,2,10,4,3,9,10,3,6,1,1,1,7,15,10,3,10,10,9,10,6,7,2,10,3,1,7,3,3,7,7,8,7,6,2,8,4,5,1,1,1,1,1,1,1,4,4,
1,1,8,1,5,7,4,1,3,3,2,12,9,10,1,12,3,10,12,10,15,9,15,3,10,9,10,9,10,12,6,12,12,12,15,12,12,12,8,9,15,12,9,1,10,9,15,10,6,7,1,1,7,8,2,1,8,12,2,7,4,1,7,2,3,12,4,6,5,1,
1,3,12,7,1,3,4,4,3,3,1,15,10,12,12,12,9,12,9,12,15,12,4,1,12,12,12,12,15,12,9,15,15,9,7,12,12,12,12,3,12,5,12,1,12,12,12,15,12,7,8,6,3,5,2,5,8,1,5,3,7,4,4,7,6,5,1,3,3,1,
1,1,1,1,1,1,4,15,10,15,3,1,10,15,1,12,12,4,12,12,1,3,12,9,12,10,10,12,10,9,12,12,12,12,12,15,12,12,1,1,9,12,12,9,5,15,9,15,11,15,12,12,1,6,1,3,4,6,5,1,7,2,6,1,1,6,2,6,1,4,
1,1,1,1,2,1,15,10,9,15,1,12,12,3,4,12,9,9,10,12,12,12,12,11,12,12,15,15,12,10,9,12,12,12,10,15,12,1,9,15,8,10,12,12,11,12,15,9,15,9,12,12,15,9,12,7,5,4,5,4,2,1,6,8,1,7,8,7,1,7,
1,1,4,2,5,12,1,4,9,4,12,10,9,15,1,10,12,11,12,1,1,1,15,10,12,12,12,12,12,15,12,11,12,12,12,12,1,15,1,9,12,10,9,15,12,9,10,12,12,10,12,11,12,12,15,10,15,12,1,1,1,1,1,1,1,1,1,1,8,4,
6,3,1,1,1,9,3,4,1,12,12,10,10,11,12,10,12,9,12,3,12,12,12,12,9,12,12,12,10,12,12,9,1,12,15,12,12,12,11,12,10,9,10,10,12,12,10,9,12,12,9,9,9,10,12,6,4,8,1,1,1,1,1,1,1,1,1,1,1,1,
1,12,2,1,1,4,3,15,15,12,12,12,12,10,15,9,10,15,1,1,12,9,15,12,12,11,9,12,12,12,12,12,12,10,12,2,12,12,12,1,12,6,10,12,12,12,1,12,1,1,10,12,10,3,3,12,10,9,1,1,1,1,1,1,1,1,1,1,1,1,
1,5,1,1,3,2,2,10,1,12,2,15,9,10,9,12,12,12,12,12,3,12,12,15,12,12,12,12,9,15,1,1,12,12,12,1,10,2,15,9,1,1,1,1,1,12,12,12,12,12,12,1,12,9,1,12,12,2,1,1,1,1,1,1,1,1,1,1,1,1,
4,12,12,8,2,4,1,1,10,12,3,12,12,9,12,10,11,12,12,7,9,12,15,12,1,1,1,12,3,9,15,1,12,15,12,1,1,6,3,10,10,12,12,15,12,9,10,12,15,9,12,12,12,3,12,9,12,1,1,1,1,1,1,1,1,1,1,1,1,1,
5,6,5,6,4,3,1,9,1,12,2,10,12,15,12,12,12,12,1,3,12,9,15,12,2,2,15,12,9,9,1,12,9,12,12,12,12,4,2,12,10,15,15,12,11,10,12,10,12,15,12,12,11,12,1,1,1,1,1,1,1,1,1,1,1,1,6,6,1,1,
1,2,2,8,1,12,10,1,3,12,12,9,11,12,3,3,1,3,10,10,12,12,10,4,9,9,10,9,12,12,12,12,12,12,9,12,12,9,12,12,15,15,12,15,9,9,1,15,12,9,10,2,4,1,9,15,1,1,1,4,12,8,6,8,12,1,6,6,1,1,
3,8,6,4,3,1,1,3,1,12,12,12,12,1,10,3,12,3,11,10,12,12,9,4,12,12,12,10,15,12,12,15,10,11,12,12,15,12,15,12,9,4,12,1,15,1,12,12,10,15,1,9,5,5,10,4,7,5,7,3,7,4,7,1,1,1,1,1,1,1,
1,8,1,1,1,3,2,15,10,15,12,9,12,3,10,12,12,9,12,12,3,1,12,12,12,12,11,10,12,12,15,12,9,12,15,12,12,12,1,1,12,2,1,12,1,1,12,10,5,5,10,10,4,2,6,8,12,6,6,6,1,1,1,1,1,1,1,1,1,1,
1,1,1,12,4,1,10,2,12,12,15,12,1,12,9,12,10,12,9,12,12,1,12,12,12,15,12,12,12,12,12,12,15,12,10,12,12,1,12,1,1,10,1,1,1,15,9,12,15,9,1,10,4,4,8,6,12,1,1,1,1,1,1,1,1,1,1,1,1,1,
1,1,1,1,1,4,10,4,2,10,12,12,2,11,12,12,9,12,12,12,12,3,9,15,12,10,9,12,12,10,12,12,10,12,9,12,12,1,12,9,10,9,1,12,11,12,15,10,15,12,4,10,1,2,6,4,1,1,1,1,1,1,1,1,1,1,1,1,1,1,
1,1,1,1,4,4,10,2,9,1,8,2,12,1,12,12,11,9,12,15,12,4,4,12,12,12,12,12,12,12,9,11,12,15,12,9,1,9,15,1,10,10,12,10,10,9,12,15,7,6,15,2,6,12,1,1,1,1,1,1,1,1,1,1,1,1,1,1,1,1,
1,1,1,1,4,1,1,4,10,4,9,1,12,2,12,15,15,15,10,9,9,12,3,1,12,12,12,15,9,12,12,12,12,12,9,10,1,12,10,12,12,9,12,15,10,10,12,12,1,9,9,6,2,2,12,1,1,1,1,1,1,1,1,1,1,1,1,1,1,1,
1,1,1,3,1,1,2,4,1,8,10,9,9,9,15,12,15,12,12,12,9,12,4,9,12,9,12,9,10,12,12,12,12,10,9,9,10,12,10,15,1,12,15,15,15,12,11,1,9,12,1,1,7,12,8,1,1,1,1,1,1,1,1,1,1,1,1,1,1,1,
1,1,3,3,1,7,9,1,12,10,3,12,12,15,12,9,12,12,11,15,12,9,1,9,9,12,9,15,9,15,10,10,15,15,4,15,9,11,15,12,1,12,12,12,9,12,2,5,9,8,12,12,12,6,12,1,1,1,1,1,1,1,1,1,1,1,1,1,1,1,
1,1,1,3,4,3,10,15,3,15,10,12,7,12,11,12,12,15,12,9,15,15,9,15,3,1,12,9,9,9,10,1,10,1,10,12,12,12,12,12,1,1,9,15,12,6,1,1,10,4,12,10,12,1,6,2,3,6,7,1,1,1,1,1,1,1,1,1,1,1,
1,1,1,1,1,1,10,10,12,1,12,12,4,12,9,12,10,12,12,10,12,12,9,9,12,4,1,9,12,9,10,10,3,12,10,12,15,12,15,12,12,9,12,15,12,12,8,15,3,12,12,10,1,7,4,1,1,1,1,5,8,1,1,1,1,1,1,1,1,1,
1,1,1,1,1,12,8,10,12,3,6,12,12,12,9,9,12,11,12,15,12,15,12,12,2,9,1,12,3,3,10,9,12,1,1,12,10,12,9,9,12,1,12,15,12,5,3,3,15,4,12,12,12,7,8,7,4,5,5,3,1,3,7,1,1,1,1,1,1,1,
1,1,1,1,1,5,3,9,9,1,1,1,12,12,12,12,15,10,15,15,11,12,9,12,9,1,12,12,11,12,9,9,12,12,4,12,12,9,11,10,12,1,3,12,1,10,1,12,9,12,15,4,12,6,12,6,1,1,8,3,12,8,8,6,1,1,1,1,1,1,
1,1,1,2,1,1,1,9,9,10,6,12,12,12,2,9,9,12,12,15,10,3,12,12,12,12,12,12,9,10,10,12,12,12,1,1,12,10,12,12,12,12,4,10,10,6,1,1,12,12,1,2,12,1,1,1,1,1,1,3,12,3,7,12,6,6,6,1,1,1,
1,1,6,6,1,1,1,1,9,1,1,12,1,12,15,9,15,12,10,15,12,12,12,2,11,12,9,12,12,12,12,12,10,12,12,1,10,12,1,1,15,1,15,9,2,6,1,1,7,4,1,12,3,3,5,1,1,1,1,1,1,1,8,4,1,7,8,5,1,1,
1,1,1,1,1,1,1,1,1,1,12,12,2,12,12,9,12,9,9,12,12,1,1,12,12,12,9,12,10,9,12,11,12,9,12,1,9,1,1,1,15,9,1,1,1,1,1,1,1,8,7,4,1,1,1,4,7,7,1,1,1,1,1,4,12,1,1,1,1,1,
1,1,1,1,1,1,1,1,1,1,12,1,4,1,3,12,12,12,12,11,7,1,4,2,12,10,9,10,12,12,12,12,10,12,9,12,1,1,1,1,1,1,12,8,6,8,1,1,1,1,1,5,7,2,1,1,1,1,4,7,1,1,1,6,5,6,4,1,1,1,
1,1,1,1,1,1,1,1,1,1,1,5,2,3,2,6,12,12,4,3,2,12,12,12,12,12,12,12,9,9,12,12,9,12,12,1,1,1,1,1,4,3,12,1,1,1,1,1,1,1,1,1,1,5,7,4,7,1,1,6,6,1,2,5,6,1,1,1,1,1,
1,1,4,2,1,1,1,1,1,1,1,1,1,1,1,8,12,3,1,1,12,12,12,12,12,1,1,1,1,1,1,1,1,1,1,15,1,1,1,8,5,4,4,8,6,12,4,1,1,1,1,1,1,1,1,1,1,7,6,5,4,6,6,2,2,8,1,1,1,1,
1,1,1,1,1,1,1,5,1,1,1,1,1,2,3,4,4,1,1,2,4,6,12,12,4,3,4,1,2,1,1,1,12,12,12,15,1,3,8,7,1,4,3,3,6,12,6,5,1,1,1,1,1,1,1,1,1,3,8,12,8,7,8,4,2,7,6,6,1,1,
1,12,12,4,7,3,4,1,7,12,1,1,5,5,12,3,3,6,2,1,2,4,4,9,15,15,1,1,1,1,1,1,1,1,1,8,4,6,4,12,5,2,5,7,1,1,1,1,6,4,7,3,1,6,1,1,1,7,1,4,5,4,5,6,2,1,6,1,1,1,
1,5,1,1,5,4,12,7,12,8,6,5,8,7,2,12,6,3,6,1,6,2,6,8,1,9,9,1,1,1,1,1,1,2,5,1,1,12,2,6,1,1,1,3,3,5,3,1,1,1,1,1,1,8,1,1,1,1,1,1,1,1,1,1,1,1,1,1,1,1,
1,1,1,1,3,1,7,1,1,1,1,1,12,7,4,2,6,7,1,4,5,1,7,1,1,1,1,1,1,1,1,1,1,4,1,1,1,5,6,1,1,1,1,1,1,1,1,1,1,1,1,1,1,1,1,1,1,1,1,1,1,1,1,1,1,1,1,1,1,1,
1,1,6,2,2,1,1,1,1,1,1,1,1,1,1,5,5,5,7,7,2,1,2,7,1,3,1,1,1,1,1,1,1,5,5,1,1,3,12,1,1,1,8,1,1,1,5,1,1,1,8,1,1,1,1,1,1,1,1,1,1,1,1,1,1,1,1,1,1,1,
5,2,5,4,5,1,1,1,8,5,3,1,1,1,1,1,1,1,4,4,7,3,7,7,5,1,3,5,6,12,1,1,1,1,5,8,6,1,1,1,1,6,7,5,12,3,3,6,1,1,12,1,1,1,1,1,1,1,1,1,1,1,1,1,1,1,1,1,1,1,
8,2,6,1,1,1,1,1,8,1,7,7,1,5,2,2,4,8,2,8,3,12,5,1,1,1,1,1,3,6,3,4,4,3,6,1,1,1,1,1,1,4,7,2,6,1,1,1,1,1,4,1,1,1,1,1,1,1,7,12,1,1,1,1,1,1,1,1,1,1,
4,2,1,1,1,1,1,2,12,12,12,10,12,12,8,4,6,3,7,4,6,6,3,2,6,5,8,8,2,1,6,3,7,1,1,1,1,3,6,8,7,5,6,1,1,1,1,1,1,1,6,12,1,1,1,1,1,2,3,3,1,1,1,7,1,1,1,1,1,1,
1,1,1,1,1,4,3,10,12,10,12,12,12,10,12,12,1,1,1,1,1,1,1,1,1,1,1,1,1,1,1,1,1,1,1,1,1,4,8,6,8,1,3,4,1,1,1,1,6,6,3,1,1,1,1,5,8,7,12,1,1,1,1,8,6,5,1,1,1,1,
1,1,1,1,6,3,12,12,10,12,10,12,10,12,12,10,8,5,1,1,1,1,1,1,1,2,2,1,1,1,1,1,1,1,1,1,1,3,4,7,2,1,8,1,1,1,6,6,1,1,5,7,1,1,4,5,1,3,7,8,1,1,4,12,6,4,12,2,4,1,
1,1,1,6,6,10,10,10,12,12,5,4,7,12,12,10,12,1,7,1,1,1,1,1,1,6,8,6,4,3,1,1,7,6,8,8,8,3,6,6,2,1,1,1,1,7,5,1,1,1,4,4,1,8,3,1,7,4,2,1,1,1,8,2,12,8,6,7,1,1,
1,1,1,6,4,10,12,12,12,3,1,1,1,1,1,12,12,10,12,12,10,12,10,8,4,3,3,3,2,4,8,8,8,1,6,6,4,6,6,1,1,1,1,1,1,3,1,1,1,1,3,4,3,1,1,6,1,7,6,1,1,7,1,1,6,6,5,8,1,1,
1,1,1,1,1,12,10,12,3,1,1,1,8,1,1,5,12,12,10,12,12,12,3,2,3,7,1,6,3,2,7,1,1,8,6,5,3,1,2,1,1,1,1,1,1,1,1,1,5,1,2,5,1,1,3,6,6,12,1,1,1,1,1,1,1,4,8,8,8,1,
1,1,1,1,12,10,12,1,6,1,1,6,1,1,1,1,1,1,1,1,1,1,4,2,3,5,4,6,3,7,6,3,5,1,7,1,1,1,7,5,8,1,1,1,1,1,3,1,7,4,1,1,3,2,8,7,12,1,1,1,6,1,1,1,12,1,12,4,5,1,
1,1,1,4,8,12,10,5,1,1,3,1,1,1,1,1,1,1,1,1,1,1,1,1,1,1,1,1,4,1,3,1,1,1,1,1,1,1,1,1,1,8,1,1,1,1,3,1,5,8,2,2,1,1,2,4,7,1,1,1,1,1,1,1,1,1,12,4,1,5,
1,1,5,8,10,12,3,1,1,1,1,1,1,1,1,1,1,1,1,1,1,1,1,1,1,1,1,1,6,8,1,1,1,1,3,3,3,1,1,1,1,1,1,1,1,1,1,8,5,1,7,6,1,7,7,5,5,1,1,1,1,1,1,5,6,2,7,1,1,6,
2,2,1,4,12,8,1,1,1,6,4,3,1,1,1,1,1,1,1,1,1,1,1,1,1,1,1,8,1,1,1,1,1,1,1,1,1,1,1,1,1,1,1,1,1,1,2,5,2,5,1,1,1,12,8,12,12,1,8,1,1,1,4,8,1,4,3,8,1,5,
7,5,2,8,6,8,1,1,5,1,8,1,1,1,6,8,7,1,1,1,1,1,1,1,1,1,1,1,1,1,1,8,1,1,1,1,1,3,3,1,1,1,5,3,3,1,5,12,4,12,1,1,1,6,8,12,8,3,1,1,1,1,4,7,1,1,4,3,5,4,
3,5,3,2,5,5,2,8,7,1,1,1,6,6,7,2,8,3,6,1,5,4,8,5,2,2,1,1,1,4,1,3,3,1,1,3,3,1,1,1,1,4,4,3,2,3,3,12,12,1,1,1,1,8,7,5,5,6,7,5,1,1,1,8,12,3,2,5,1,1,
7,4,8,8,3,1,1,1,1,1,1,3,8,5,4,4,3,4,4,8,5,3,1,1,1,1,1,1,1,6,2,4,2,7,1,1,1,1,4,6,4,1,6,5,4,3,12,2,4,1,1,1,1,1,3,2,7,8,6,1,4,6,12,1,5,3,5,6,1,1,
2,1,1,7,7,5,5,7,7,1,5,4,4,5,4,7,3,4,1,1,1,1,1,1,1,1,1,1,1,1,1,7,2,8,3,4,3,7,2,3,2,7,5,6,2,7,12,1,8,1,1,1,1,1,1,12,3,7,12,1,2,1,6,12,7,2,12,12,1,1,
7,3,8,5,3,1,5,2,6,3,6,3,7,1,3,3,1,1,1,1,1,10,12,1,5,8,6,8,1,1,1,1,1,1,1,6,3,4,7,7,3,3,8,6,8,6,1,1,1,1,1,1,1,1,1,1,8,1,6,5,12,8,1,8,1,8,7,7,1,1,
5,5,12,1,2,6,1,4,5,4,5,1,1,1,1,1,1,1,1,10,10,12,12,1,1,3,7,5,8,1,1,1,1,1,1,1,1,1,1,1,1,1,1,1,1,1,1,1,1,1,1,1,1,1,1,1,12,3,2,2,1,1,1,1,1,8,3,7,1,1,
12,2,5,1,6,12,1,1,1,1,1,1,1,1,1,1,1,12,12,10,12,12,10,1,1,1,2,3,2,2,1,1,1,1,1,1,1,1,1,1,1,1,1,1,1,1,1,1,1,1,1,1,1,1,9,9,7,5,4,1,2,12,1,1,1,3,1,6,1,1,
6,1,1,1,1,1,1,1,1,1,1,1,1,1,1,1,1,10,10,12,10,12,4,4,1,1,2,3,4,8,1,1,1,1,1,1,1,1,1,1,1,1,1,1,1,1,1,1,1,1,1,1,1,9,9,9,1,1,1,8,7,2,1,1,12,12,1,1,1,1,
1,1,1,1,1,1,1,1,1,1,1,1,1,1,1,1,1,12,12,12,12,4,4,1,1,1,1,2,6,7,2,1,1,1,1,1,1,1,1,1,1,1,1,1,1,1,1,1,1,1,1,1,12,9,12,1,6,3,1,1,1,8,1,3,4,1,1,1,1,1,
1,1,1,1,1,1,1,1,1,1,1,1,1,1,1,1,1,12,12,12,1,4,1,1,1,1,4,1,2,5,1,2,1,1,1,1,1,1,1,1,8,5,5,6,6,8,5,1,12,12,1,1,9,9,8,4,2,4,3,1,1,1,1,1,15,15,1,1,1,1,
1,1,1,1,1,1,1,1,1,1,1,1,1,1,1,1,1,1,6,3,5,2,1,1,1,1,1,2,4,3,4,8,6,1,1,1,1,1,1,5,6,8,8,7,6,5,5,1,12,12,1,9,9,12,2,1,3,3,1,1,1,2,6,15,15,15,1,1,1,1,
1,1,1,1,1,1,1,1,1,1,1,1,1,1,1,1,1,1,2,5,1,2,1,1,1,1,1,2,1,5,5,3,7,1,1,1,1,1,7,7,6,7,6,3,4,3,6,7,12,12,12,9,12,12,6,4,1,1,12,7,4,15,15,15,15,15,1,1,1,1,
1,1,1,1,1,1,1,1,1,1,1,1,1,1,1,1,1,7,4,1,2,1,1,1,1,1,1,2,1,7,7,3,2,1,1,1,1,1,8,7,7,6,3,3,2,3,3,6,12,12,12,9,9,12,12,1,1,3,2,2,12,15,15,15,15,15,1,1,1,1,
1,1,1,1,1,1,1,1,1,1,1,1,1,1,1,1,5,1,3,1,3,1,1,1,1,4,1,1,1,2,5,3,2,1,1,1,1,1,8,7,6,8,12,2,1,1,1,3,12,12,9,12,12,12,10,12,8,7,12,10,12,12,12,12,1,1,1,1,1,1,
1,1,1,1,1,1,1,1,1,1,1,1,1,1,1,5,6,6,3,5,1,4,4,1,1,4,1,3,1,1,3,7,1,1,1,1,1,1,1,7,5,12,9,12,1,1,2,4,12,12,12,12,1,1,12,12,12,10,10,12,12,12,1,1,1,1,1,1,1,1,
1,1,1,1,1,1,1,1,1,1,1,1,1,1,1,2,8,1,1,6,2,1,4,1,1,4,1,4,2,1,3,1,7,3,7,3,1,1,1,1,6,6,12,9,12,9,1,1,1,1,1,1,1,1,1,12,10,4,3,1,1,1,1,1,1,1,1,1,1,1,
1,1,1,1,1,1,1,1,1,1,1,1,1,1,1,1,8,4,4,1,1,2,1,1,1,1,1,2,3,7,8,1,5,4,5,6,1,1,1,1,1,5,5,12,6,7,8,8,1,1,1,1,1,1,1,1,1,1,8,1,1,1,1,1,1,1,1,1,1,1,
1,1,1,1,1,1,1,1,1,1,1,1,1,4,3,1,1,7,2,8,4,3,2,4,1,1,1,7,3,6,1,1,1,4,1,1,1,1,1,1,1,1,1,1,1,1,1,1,1,1,1,1,1,1,1,1,1,1,1,1,1,1,1,1,1,1,1,1,1,1
</data>
 </layer>
 <layer id="12" name="Path" width="70" height="70">
  <data encoding="csv">
0,0,0,0,0,0,0,0,0,0,0,0,0,0,0,0,0,0,0,0,0,0,0,0,0,0,0,0,0,0,0,0,0,0,0,0,0,0,0,0,0,0,0,0,0,0,0,0,0,0,0,0,0,0,0,0,0,0,0,0,0,0,0,0,0,0,0,0,0,0,
0,0,0,0,0,0,0,0,0,0,0,0,0,0,0,0,0,0,0,0,0,0,0,0,0,0,0,0,0,0,0,0,0,0,0,0,0,0,0,0,0,0,0,0,0,0,0,0,0,0,0,0,0,0,0,0,0,0,0,0,0,0,0,0,0,0,0,0,0,0,
0,0,0,0,0,0,0,0,0,0,0,0,0,0,0,0,0,0,0,0,0,0,0,0,0,0,0,0,0,0,0,0,0,0,0,0,0,0,0,0,0,0,0,0,0,0,0,0,0,0,0,0,0,0,0,0,0,0,0,0,0,0,0,0,0,0,0,0,0,0,
0,0,0,0,0,0,0,0,0,0,0,0,0,0,0,0,0,0,0,0,0,0,0,0,0,0,0,0,0,0,0,0,0,0,0,0,0,0,0,0,0,0,0,0,0,0,0,0,0,0,0,0,0,0,0,0,0,0,0,0,0,0,0,0,0,0,0,0,0,0,
0,0,0,0,0,0,0,0,0,0,0,0,0,0,0,0,0,0,0,0,0,0,0,0,0,0,0,0,0,0,0,0,0,0,0,0,0,0,0,0,0,0,0,0,0,0,0,0,0,0,0,0,0,0,0,0,0,0,0,0,0,0,0,0,0,0,0,0,0,0,
0,0,0,0,0,0,0,0,0,0,0,0,0,0,0,0,0,0,0,0,0,0,0,0,0,0,0,0,0,0,0,0,0,0,0,0,0,0,0,0,0,0,0,0,0,0,0,0,0,0,0,0,0,0,0,0,0,0,0,0,0,0,0,0,0,0,0,0,0,0,
0,0,0,0,0,0,0,0,0,0,0,0,0,0,0,0,0,0,0,0,0,0,0,0,0,0,0,0,0,0,0,0,0,0,0,0,0,0,0,0,0,0,0,0,0,0,0,0,0,0,0,0,0,0,0,0,0,0,0,0,0,0,0,0,0,0,0,0,0,0,
0,0,0,0,0,0,0,0,0,0,0,0,0,0,0,0,0,0,0,0,0,0,0,0,0,0,0,0,0,0,0,0,0,0,0,0,0,0,0,0,0,0,0,0,0,0,0,0,0,0,0,0,0,0,0,0,0,0,0,0,0,0,0,0,0,0,0,0,0,0,
0,0,0,0,0,0,0,0,0,0,0,0,0,0,0,0,0,0,0,0,0,0,0,0,0,0,0,0,0,0,0,0,0,0,0,0,0,0,0,0,0,0,0,0,0,0,0,0,0,0,0,0,0,0,0,0,0,0,0,0,0,0,0,0,0,0,0,0,0,0,
0,0,0,0,0,0,0,0,0,0,0,0,0,0,0,0,0,0,0,0,0,0,0,0,0,0,0,0,0,0,0,0,0,0,0,0,0,0,0,0,0,0,0,0,0,0,0,0,0,0,0,0,0,0,0,0,0,0,0,0,0,0,0,0,0,0,0,0,0,0,
0,0,0,0,0,0,0,0,0,0,0,0,0,0,0,0,0,0,0,0,0,0,0,0,0,0,0,0,0,0,0,0,0,0,0,0,0,0,0,0,0,0,0,0,0,0,0,0,0,0,0,0,0,0,0,0,0,0,0,0,0,0,0,0,0,251,0,0,0,0,
0,0,0,0,0,0,0,0,0,0,0,0,0,0,0,0,0,0,0,0,0,0,0,0,0,0,0,0,0,0,0,0,0,0,0,0,0,0,0,0,0,0,0,0,0,0,0,0,0,0,0,0,0,0,0,0,251,0,0,0,0,254,0,0,0,0,0,0,0,0,
0,0,0,0,0,0,0,0,0,0,0,0,0,0,0,0,0,0,0,0,0,0,0,0,0,0,0,0,0,0,0,0,0,0,0,0,0,0,0,0,0,0,0,0,0,0,0,0,0,0,0,0,0,253,0,0,0,0,0,0,0,0,0,0,0,253,0,0,0,0,
0,0,0,0,0,0,0,0,0,0,0,0,0,0,0,0,0,0,0,0,0,0,0,0,0,0,0,0,0,0,0,0,0,0,0,0,0,0,0,0,0,0,0,0,0,0,0,0,0,0,0,0,0,0,252,252,0,0,0,0,0,0,0,0,0,254,252,254,254,0,
0,0,0,0,0,0,0,0,0,0,0,0,0,0,0,0,0,0,0,0,0,0,0,0,0,0,0,0,0,0,0,0,0,0,0,0,0,0,0,0,0,0,0,0,0,0,0,0,0,0,0,0,0,0,0,0,0,0,251,0,0,252,253,0,0,0,0,0,0,0,
0,0,0,0,0,0,0,0,0,0,0,0,0,0,0,0,0,0,0,0,0,0,0,0,0,0,0,0,0,0,0,0,0,0,0,0,0,0,0,0,0,0,0,0,0,0,0,0,0,0,0,0,0,0,0,253,0,0,0,0,0,0,0,0,0,0,0,0,0,0,
0,0,0,0,0,0,0,0,0,0,0,0,0,0,0,0,0,0,0,0,0,0,0,0,0,0,0,0,0,0,0,0,0,0,0,0,0,0,0,0,0,0,0,0,0,0,0,0,0,0,0,0,0,253,0,0,0,0,0,0,0,0,0,0,0,0,0,0,0,0,
0,0,0,0,0,0,0,0,0,0,0,0,0,0,0,0,0,0,0,0,0,0,0,0,0,0,0,0,0,0,0,0,0,0,0,0,0,0,0,0,0,0,0,0,0,0,0,0,0,0,0,0,254,0,0,0,0,0,0,0,0,0,0,0,0,0,0,0,0,0,
0,0,0,0,0,0,0,0,0,0,0,0,0,0,0,0,0,0,0,0,0,0,0,0,0,0,0,0,0,0,0,0,0,0,0,0,0,0,0,0,0,0,0,0,0,0,0,0,0,0,0,0,0,0,0,0,0,0,0,0,0,0,0,0,0,0,0,0,0,0,
0,0,0,0,0,0,0,0,0,0,0,0,0,0,0,0,0,0,0,0,0,0,0,0,0,0,0,0,0,0,0,0,0,0,0,0,0,0,0,0,0,0,0,0,0,0,0,0,0,0,0,0,0,0,0,0,0,0,0,0,0,0,0,0,0,0,0,0,0,0,
0,0,0,0,0,0,0,0,0,0,0,0,0,0,0,0,0,0,0,0,0,0,0,0,0,0,0,0,0,0,0,0,0,0,0,0,0,0,0,0,0,0,0,0,0,0,0,0,0,0,0,0,0,0,0,0,0,0,0,0,0,0,0,0,0,0,0,0,0,0,
0,0,0,0,0,0,0,0,0,0,0,0,0,0,0,0,0,0,0,0,0,0,0,0,0,0,0,0,0,0,0,0,0,0,0,0,0,0,0,0,0,0,0,0,0,0,0,0,0,0,0,0,0,0,0,0,0,0,0,0,0,0,0,0,0,0,0,0,0,0,
0,0,0,0,0,0,0,0,0,0,0,0,0,0,0,0,0,0,0,0,0,0,0,0,0,0,0,0,0,0,0,0,0,0,0,0,0,0,0,0,0,0,0,0,0,0,0,0,0,0,0,0,0,0,0,0,0,0,0,0,0,0,0,0,0,0,0,0,0,0,
0,0,0,0,0,0,0,0,0,0,0,0,0,0,0,0,0,0,0,0,0,0,0,0,0,0,0,0,0,0,0,0,0,0,0,0,0,0,0,0,0,0,0,0,0,0,0,0,0,0,0,0,0,0,0,0,0,0,0,0,0,0,0,0,0,0,0,0,0,0,
0,0,0,0,0,0,0,0,0,0,0,0,0,0,0,0,0,0,0,0,0,0,0,0,0,0,0,0,0,0,0,0,0,0,0,0,0,0,0,0,0,0,0,0,0,0,0,0,0,0,0,0,0,0,0,0,0,0,0,0,0,0,0,0,0,0,0,0,0,0,
0,0,0,0,0,0,0,0,0,0,0,0,0,0,0,0,0,0,0,0,0,0,0,0,0,0,0,0,0,0,0,0,0,0,0,0,0,0,0,0,0,0,0,0,0,0,0,0,0,0,0,0,0,0,0,0,0,0,0,0,0,0,0,0,0,0,0,0,0,0,
0,0,0,0,0,0,0,0,0,0,0,0,0,0,0,0,0,0,0,0,0,0,0,0,0,0,0,0,0,0,0,0,0,0,0,0,0,0,0,0,0,0,251,0,0,0,0,252,0,0,0,0,0,0,0,0,0,0,0,0,0,0,0,0,0,0,0,0,0,0,
0,0,0,0,0,0,0,0,0,0,0,0,0,0,0,0,0,0,0,0,0,0,0,0,0,0,0,0,0,0,0,0,0,0,0,0,0,0,0,0,0,0,0,0,0,0,0,0,0,0,0,0,0,0,0,0,0,0,0,0,0,0,0,0,0,0,0,0,0,0,
0,0,0,0,0,0,0,0,0,0,0,0,0,0,0,0,0,0,0,0,0,0,0,0,0,0,0,0,0,0,0,0,0,0,0,0,0,0,0,0,0,253,0,0,251,0,0,0,0,0,251,0,0,0,0,0,0,0,0,0,0,0,0,0,0,0,0,0,0,0,
0,0,0,0,0,0,0,0,0,0,0,0,0,0,0,0,0,0,0,0,0,0,0,0,0,0,0,0,0,0,0,0,0,0,0,0,0,0,0,0,0,0,0,0,0,0,251,0,0,0,0,0,0,252,0,0,0,0,0,0,0,0,0,0,0,0,0,0,0,0,
0,0,0,0,0,0,0,0,0,0,0,0,0,0,0,0,0,0,0,0,0,0,0,0,0,0,0,0,0,0,0,0,0,0,0,0,0,0,0,0,0,0,0,0,0,0,0,0,0,0,0,0,0,0,251,253,0,0,0,0,0,0,0,0,0,0,0,0,0,0,
0,0,0,0,0,0,0,0,0,0,0,0,0,0,0,0,0,0,0,0,0,0,0,0,0,0,0,0,0,0,0,0,0,0,0,0,0,0,0,0,0,0,0,0,253,0,0,0,254,0,0,0,0,0,0,0,0,0,0,254,0,0,0,0,0,0,0,0,0,0,
0,0,0,0,0,0,0,0,0,0,0,0,0,0,0,0,0,0,0,0,0,0,0,0,0,0,0,0,0,0,0,0,0,0,0,0,0,0,0,0,0,0,0,0,0,0,253,0,0,0,0,0,0,0,0,0,0,0,0,0,0,0,0,0,0,0,0,0,0,0,
0,0,0,0,0,0,0,0,0,0,0,0,0,0,0,0,0,0,0,0,0,0,0,0,0,0,0,0,0,0,0,0,0,0,0,0,0,0,0,0,0,0,0,0,0,0,0,254,0,0,0,0,0,0,0,0,0,0,253,0,0,251,0,0,0,0,0,0,0,0,
0,0,0,0,0,0,0,0,0,0,0,0,0,0,0,0,0,0,0,0,0,0,0,0,0,0,0,0,0,0,0,0,0,0,0,0,0,0,0,0,0,0,0,0,0,0,254,0,0,0,0,0,0,0,0,0,0,0,251,251,0,0,0,0,0,0,0,0,0,0,
0,0,0,0,0,0,0,0,0,0,0,0,0,0,0,0,0,0,0,0,0,0,0,0,0,0,0,0,0,0,0,0,0,0,0,0,0,0,0,0,0,0,0,0,0,0,0,0,252,0,0,0,0,0,0,0,0,0,0,0,0,0,0,0,0,0,0,0,0,0,
0,0,0,0,0,0,0,0,0,0,0,0,0,0,0,0,0,0,0,0,0,0,0,0,0,0,0,0,0,0,0,0,0,0,0,0,0,0,0,0,0,0,0,0,0,0,0,252,0,0,0,0,0,0,0,0,0,0,0,0,0,0,0,0,0,0,0,0,0,0,
0,0,0,0,0,0,0,0,0,0,0,0,0,0,0,0,0,0,0,0,0,0,0,0,0,0,0,0,0,0,0,0,0,0,0,0,0,0,0,0,0,0,0,0,0,0,0,0,0,0,0,0,0,0,0,0,0,0,0,0,0,0,0,0,0,0,0,0,0,0,
0,0,0,0,0,0,0,0,0,0,0,0,0,0,0,0,0,0,0,0,0,0,0,0,0,0,0,0,0,0,0,0,0,0,0,0,0,0,0,0,0,0,0,0,0,0,0,0,0,0,0,0,0,0,0,0,0,0,0,0,0,0,0,0,0,0,0,0,0,0,
0,0,0,0,0,0,0,0,0,0,0,0,0,0,0,0,0,0,0,0,0,0,0,0,0,0,0,0,0,0,0,0,0,0,0,0,0,0,0,0,0,0,0,0,0,0,0,0,0,0,0,0,0,0,0,0,0,0,0,0,0,0,0,0,0,0,0,0,0,0,
0,0,0,0,0,0,0,0,0,0,0,0,0,0,0,0,0,0,0,0,0,0,0,0,0,0,0,0,0,0,0,0,0,0,0,0,0,0,0,0,0,0,0,0,0,0,0,0,0,0,0,0,0,0,0,0,0,0,0,0,0,0,0,0,0,0,0,0,0,0,
0,0,0,0,0,0,0,0,0,0,0,0,0,0,0,0,0,0,0,0,0,0,0,0,0,0,0,0,0,0,0,0,0,0,0,0,0,0,0,0,0,0,0,0,0,0,0,0,0,0,0,0,0,0,0,0,0,0,0,0,0,0,0,0,0,0,0,0,0,0,
0,0,0,0,0,0,0,0,0,0,0,0,0,0,0,0,0,0,0,0,0,0,0,0,0,0,0,0,0,0,0,0,0,0,0,0,0,0,0,0,0,0,0,0,0,0,0,252,0,0,0,0,0,0,0,0,0,0,0,0,0,0,0,0,0,0,0,0,0,0,
0,0,0,0,0,0,0,0,0,0,0,0,0,0,0,0,0,0,0,0,0,0,0,0,0,0,0,0,0,0,0,0,0,0,0,0,0,0,0,0,0,0,0,0,0,0,0,0,0,0,0,0,0,0,0,0,0,0,0,0,0,0,0,0,0,0,0,0,0,0,
0,0,0,0,0,0,0,0,0,0,0,0,0,0,0,0,0,0,0,0,0,0,0,0,0,0,0,0,0,0,0,0,0,0,0,0,0,0,0,0,0,0,0,0,0,0,252,0,0,0,0,0,0,0,0,0,0,0,0,0,0,0,0,0,0,0,0,0,0,0,
0,0,0,0,0,0,0,0,0,0,0,0,0,0,0,0,0,0,0,0,0,0,0,0,0,0,0,0,0,0,0,0,0,0,0,0,0,0,0,0,0,0,0,0,0,0,0,0,0,0,0,0,0,0,0,0,0,0,0,0,252,0,0,0,0,0,0,0,0,0,
0,0,0,0,0,0,0,0,0,0,0,0,0,0,0,0,0,0,0,0,0,0,0,0,0,0,0,0,0,0,0,0,0,0,0,0,0,0,0,0,0,0,0,0,0,0,0,0,0,0,0,0,0,0,0,0,0,0,0,0,0,0,0,0,0,0,0,0,0,0,
0,0,0,0,0,0,0,0,0,0,0,0,0,0,0,0,0,0,0,0,0,0,0,0,0,0,0,0,0,0,0,0,0,0,0,0,0,0,0,0,0,0,0,0,0,252,0,0,0,0,0,0,0,0,0,0,0,0,0,0,0,252,0,0,0,0,0,0,0,0,
0,0,0,0,0,0,0,0,0,0,0,0,0,0,0,0,0,0,0,0,0,0,0,0,0,0,0,0,0,0,0,0,0,0,0,0,0,0,0,253,0,0,0,0,0,0,0,0,0,0,0,0,0,0,0,0,0,0,0,0,0,0,0,0,0,0,0,0,0,0,
0,0,0,0,0,0,0,0,0,0,0,0,0,0,0,0,0,252,0,0,0,0,0,0,0,0,0,0,0,0,0,0,0,0,0,251,0,0,0,0,0,0,252,0,0,0,253,0,0,0,0,0,0,0,0,0,0,0,0,0,0,0,0,0,0,0,0,0,0,0,
0,0,0,0,0,0,0,0,0,0,0,0,0,0,0,252,0,0,0,0,253,0,254,0,0,0,0,0,253,0,0,0,0,0,0,0,0,0,0,0,0,0,0,0,0,0,0,0,0,0,0,0,0,0,0,0,0,0,0,0,0,0,253,0,0,0,0,0,0,0,
0,0,0,0,0,0,0,0,0,0,0,0,0,0,0,0,0,0,252,0,0,0,0,0,0,0,254,0,0,0,0,0,252,0,254,0,254,0,0,252,0,0,252,0,0,0,0,0,0,0,0,0,0,0,0,0,0,0,0,0,0,0,0,0,0,0,0,0,0,0,
0,0,0,0,0,0,0,0,0,0,0,0,0,0,0,0,0,0,0,0,0,0,251,0,253,0,0,0,0,0,0,0,0,0,0,0,0,0,0,0,0,0,0,0,0,0,0,0,0,0,0,0,0,0,0,0,0,0,0,0,0,0,0,0,0,0,0,0,0,0,
0,0,0,0,0,0,0,0,0,0,0,0,0,0,0,0,0,0,0,0,0,0,0,0,0,0,0,0,0,0,0,0,0,0,0,0,0,0,0,0,0,0,0,0,0,0,0,0,0,0,0,0,0,0,0,0,0,0,0,253,0,0,0,0,0,0,0,0,0,0,
0,0,0,0,0,0,0,0,0,0,0,0,0,0,0,0,0,0,0,0,0,0,0,0,0,0,0,0,0,0,0,0,0,0,0,0,0,0,0,0,0,0,0,0,0,0,0,0,0,0,0,0,0,0,0,0,0,0,0,0,0,0,0,0,0,0,0,0,0,0,
0,0,0,0,0,0,0,0,0,0,0,0,0,0,0,0,0,0,0,0,0,0,0,0,0,0,0,0,0,0,0,0,0,0,0,0,0,0,0,0,0,0,0,0,0,0,0,0,0,0,0,0,0,0,0,0,0,0,0,0,0,0,0,0,0,0,0,0,0,0,
0,0,0,0,0,0,0,0,0,0,0,0,0,0,0,0,0,0,0,0,0,0,0,0,0,0,0,0,0,0,0,0,0,0,0,0,0,0,0,0,0,0,0,0,0,0,0,0,0,0,0,0,0,0,0,0,0,0,0,0,0,0,0,0,0,0,0,0,0,0,
0,0,0,0,0,0,0,0,0,0,0,0,0,0,0,0,0,0,0,0,0,0,0,0,0,0,0,0,0,0,0,0,0,0,0,0,0,0,0,0,0,0,0,0,0,0,0,0,0,0,0,0,0,0,0,0,0,0,253,0,0,0,0,0,0,0,0,0,0,0,
0,0,0,0,0,0,0,0,0,0,0,0,0,0,0,0,0,0,0,0,0,0,0,0,254,0,0,0,0,0,0,0,0,0,0,0,0,0,0,0,0,0,0,0,0,0,0,0,0,0,0,0,0,0,0,0,0,0,254,0,0,0,0,0,0,0,0,0,0,0,
0,0,0,0,0,0,0,0,0,0,0,0,0,0,0,0,0,0,0,0,0,0,0,252,0,0,0,0,0,0,0,0,0,0,0,0,0,0,0,0,0,0,0,0,0,0,0,0,0,0,0,0,0,0,0,0,0,0,0,0,0,0,0,0,0,0,0,0,0,0,
0,0,0,0,0,0,0,0,0,0,0,0,0,0,0,0,0,0,0,0,0,0,0,0,0,0,0,0,0,0,0,0,0,0,0,0,0,0,0,0,0,0,0,0,0,0,0,0,0,0,0,0,0,0,0,0,0,0,0,0,0,0,0,0,0,0,0,0,0,0,
0,0,0,0,0,0,0,0,0,0,0,0,0,0,0,0,0,0,0,0,0,0,253,0,0,0,0,0,0,0,0,0,0,0,0,0,0,0,0,0,0,0,0,0,0,0,0,0,0,0,0,0,0,0,0,0,0,0,252,0,0,0,0,0,0,0,0,0,0,0,
0,0,0,0,0,0,0,0,0,0,0,0,0,0,0,0,0,0,0,0,0,0,0,0,252,0,0,0,0,0,0,0,0,0,0,0,0,0,0,0,0,0,0,0,0,0,0,0,0,0,0,0,0,0,0,0,0,0,0,0,0,0,0,0,0,0,0,0,0,0,
0,0,0,0,0,0,0,0,0,0,0,0,0,0,0,0,0,0,0,0,0,0,0,0,0,0,0,0,0,0,0,0,0,0,0,0,0,0,0,0,0,0,0,0,0,0,0,0,0,0,0,0,0,0,0,0,252,0,0,0,0,0,0,0,0,0,0,0,0,0,
0,0,0,0,0,0,0,0,0,0,0,0,0,0,0,0,0,0,0,0,0,0,254,0,0,253,0,0,0,0,0,0,0,0,0,0,0,0,0,0,0,0,0,0,0,0,0,0,0,0,0,0,0,0,0,252,0,0,0,0,0,0,0,0,0,0,0,0,0,0,
0,0,0,0,0,0,0,0,0,0,0,0,0,0,0,0,0,0,0,0,0,0,0,0,0,254,0,0,0,0,0,0,0,0,0,0,0,0,0,0,0,0,0,0,0,0,0,12,0,0,0,0,0,0,0,0,0,0,0,0,0,0,0,0,0,0,0,0,0,0,
0,0,0,0,0,0,0,0,0,0,0,0,0,0,0,0,0,0,0,0,0,0,0,0,0,0,0,0,0,0,0,0,0,0,0,0,0,0,0,0,0,0,0,0,0,254,0,251,9,0,251,0,0,0,0,0,0,0,0,0,0,0,0,0,0,0,0,0,0,0,
0,0,0,0,0,0,0,0,0,0,0,0,0,0,0,0,0,0,0,0,0,252,251,0,0,0,0,0,0,0,0,0,0,0,0,0,0,0,0,0,0,0,0,0,0,0,0,0,0,0,0,0,0,0,0,0,0,0,0,0,0,0,0,0,0,0,0,0,0,0,
0,0,0,0,0,0,0,0,0,0,0,0,0,0,0,0,0,0,0,0,0,0,0,0,0,251,0,0,0,0,0,0,0,0,0,0,0,0,0,0,0,0,0,0,0,0,0,0,0,0,0,0,0,0,0,0,0,0,0,0,0,0,0,0,0,0,0,0,0,0,
0,0,0,0,0,0,0,0,0,0,0,0,0,0,0,0,0,0,0,0,0,0,0,0,0,0,0,0,0,0,0,0,0,0,0,0,0,0,0,0,0,0,0,0,0,0,0,0,0,0,0,0,0,0,0,0,0,0,0,0,0,0,0,0,0,0,0,0,0,0
</data>
 </layer>
 <layer id="16" name="Rock" width="70" height="70">
  <data encoding="csv">
0,0,0,0,0,0,0,0,0,0,0,0,0,0,0,0,0,0,0,0,0,0,0,0,0,0,0,0,0,0,0,0,0,0,0,0,0,0,0,0,0,0,0,0,0,0,0,0,0,0,0,0,0,0,0,0,0,0,0,0,0,0,0,0,0,0,0,0,0,0,
0,0,0,0,0,0,0,0,0,0,0,0,0,0,0,0,0,0,0,0,0,0,0,0,0,0,0,0,0,0,0,0,0,0,0,0,0,0,0,0,0,0,0,0,0,0,0,0,0,0,0,0,0,0,0,0,0,0,0,0,0,0,0,0,0,0,0,0,0,0,
0,0,0,0,0,0,0,0,0,0,0,0,0,0,0,0,0,0,0,0,0,0,0,0,0,0,0,0,0,0,0,0,0,0,0,0,0,0,0,0,0,0,0,0,0,0,0,0,0,0,0,0,0,0,0,0,0,0,0,0,0,0,0,0,0,0,0,0,0,0,
0,0,0,0,0,0,0,0,0,0,0,0,0,0,0,0,0,0,0,0,0,0,0,0,0,0,0,0,0,0,0,0,0,0,0,0,0,0,0,0,0,0,0,0,0,0,0,0,0,0,0,0,0,0,0,0,0,0,0,0,0,0,0,0,0,0,0,0,0,0,
0,0,0,0,0,0,0,0,0,0,0,0,0,0,0,0,0,0,0,0,0,0,0,0,0,0,0,0,0,0,0,0,0,0,0,0,0,0,0,0,0,0,0,0,0,0,0,0,0,0,0,0,0,0,0,0,0,0,0,0,0,0,0,0,0,0,0,0,0,0,
0,0,0,0,0,0,0,0,0,0,0,0,0,0,0,0,0,0,0,0,0,0,0,0,0,0,0,0,0,0,0,0,0,0,0,0,0,0,0,0,0,0,0,0,0,0,0,259,0,0,0,0,0,0,0,0,0,0,0,0,0,0,0,0,0,0,0,0,0,0,
0,0,0,0,0,0,0,0,0,0,0,0,0,0,0,0,0,0,0,0,0,0,0,0,0,0,0,0,0,0,0,0,0,0,0,0,0,0,0,0,0,0,0,0,0,0,0,0,0,0,0,0,0,0,0,0,0,0,0,0,0,0,0,0,0,0,0,0,0,0,
0,0,0,0,0,0,0,0,0,0,0,0,0,0,0,0,0,0,0,0,0,0,0,0,0,0,0,0,0,0,0,0,0,0,0,0,0,0,0,0,0,0,0,0,0,0,0,0,0,0,0,0,0,0,0,0,0,0,0,0,0,0,0,0,0,0,0,0,0,0,
0,0,0,0,0,0,0,0,0,0,0,0,262,0,0,0,0,0,0,0,0,0,0,0,0,0,0,0,0,0,0,0,0,0,0,0,0,0,0,0,0,0,0,0,0,0,0,0,0,0,0,0,0,0,0,0,0,0,0,0,0,0,0,0,0,0,0,0,0,0,
0,0,0,0,0,0,0,0,0,0,0,0,0,0,0,0,0,0,0,0,0,0,0,0,0,0,0,0,0,0,0,0,0,0,0,0,0,0,0,0,0,0,0,0,0,0,0,0,0,0,0,0,0,0,0,0,0,0,0,0,0,0,0,0,0,0,260,0,0,0,
0,0,0,0,0,0,0,0,0,0,0,0,0,0,0,0,0,0,0,0,0,0,0,0,0,0,0,0,0,0,0,0,0,0,0,0,0,0,0,0,0,0,0,0,0,0,0,0,0,0,0,0,0,0,0,0,0,0,0,0,0,0,0,0,0,0,0,0,0,0,
0,0,0,0,0,0,0,0,0,0,0,0,0,0,0,0,0,0,0,0,0,0,0,0,0,0,0,0,0,0,0,0,0,0,0,0,0,0,0,0,0,0,0,0,0,0,0,0,0,0,0,0,0,0,0,0,0,0,0,0,0,0,0,0,0,0,0,0,0,0,
0,0,0,0,0,0,0,0,0,0,0,0,0,0,0,0,0,0,0,0,0,0,0,0,0,0,0,0,0,0,0,0,0,0,0,0,0,0,0,0,0,0,0,0,0,0,0,0,0,0,0,0,0,0,0,0,0,0,0,0,0,0,0,0,0,0,0,0,0,0,
0,0,0,0,0,0,0,0,0,0,0,0,0,0,0,0,0,0,0,0,0,0,0,0,0,0,0,0,0,0,0,0,0,0,0,0,0,0,0,0,0,0,0,0,0,0,0,0,0,0,0,0,0,0,0,0,0,0,0,0,0,0,0,0,0,0,0,0,0,0,
0,0,0,0,0,0,0,0,0,0,0,0,0,0,0,0,0,0,0,0,0,0,0,0,0,0,0,0,0,0,0,0,0,0,0,0,0,0,0,0,0,0,0,0,0,0,0,0,0,0,0,0,0,0,0,0,0,0,0,0,0,0,0,0,0,0,0,0,0,0,
0,0,0,0,0,0,0,0,0,0,0,0,0,0,0,0,0,0,0,0,0,0,0,0,0,0,0,0,0,0,0,0,0,0,0,0,0,0,0,0,0,0,0,0,0,0,0,0,0,0,0,0,0,0,0,0,0,0,0,0,0,0,0,0,0,0,0,0,0,0,
0,0,0,0,0,0,0,0,0,0,0,0,0,0,0,0,0,0,0,0,0,0,0,0,0,0,0,0,0,0,0,0,0,0,0,0,0,0,0,0,0,0,0,0,0,0,0,0,0,0,0,0,0,0,0,0,0,0,0,0,0,0,0,0,0,0,0,0,0,0,
0,0,0,0,0,0,0,0,0,0,0,0,0,0,0,0,0,0,0,0,0,0,0,0,0,0,0,0,0,0,0,0,0,0,0,0,0,0,0,0,0,0,0,0,0,0,0,0,0,0,0,0,0,0,0,0,0,0,0,0,0,0,0,0,0,0,0,0,0,0,
0,0,0,0,0,0,0,0,0,0,0,0,0,0,0,0,0,0,0,0,0,0,0,0,0,0,0,0,0,0,0,0,0,0,0,0,0,0,0,0,0,0,0,0,0,0,0,0,0,0,0,0,0,0,0,0,0,0,0,0,0,0,0,0,0,0,0,0,0,0,
0,0,0,0,0,0,0,0,0,0,262,0,0,0,0,0,0,0,0,0,0,0,0,0,0,0,0,0,0,0,0,0,0,0,0,0,0,0,0,0,0,0,0,0,0,0,0,0,0,0,0,0,0,0,0,0,0,0,0,0,0,0,0,0,0,0,0,0,0,0,
0,0,0,0,0,0,0,0,0,0,0,0,0,0,0,0,0,0,0,0,0,0,0,0,0,0,0,0,0,0,0,0,0,0,0,0,0,0,0,0,0,0,0,0,0,0,0,0,0,0,0,0,0,0,0,0,0,0,0,0,0,0,0,0,0,0,0,0,0,0,
0,0,0,0,0,0,0,0,0,0,0,0,0,0,0,0,0,0,0,0,0,0,0,0,0,0,0,0,0,0,0,0,0,0,0,0,0,0,0,0,0,0,0,0,0,0,0,0,0,0,0,0,0,0,0,0,0,0,0,0,0,0,0,0,0,0,0,0,0,0,
0,0,0,0,0,0,0,0,0,0,0,0,0,0,0,0,0,0,0,0,0,0,0,0,0,0,0,0,0,0,0,0,0,0,0,0,0,0,0,0,0,0,0,0,0,0,0,0,0,0,0,0,0,0,0,0,0,0,0,0,0,0,0,0,0,0,0,0,0,0,
0,0,0,0,0,0,0,0,0,0,0,0,0,0,0,0,0,0,0,0,0,0,0,0,0,0,0,0,0,0,0,0,0,0,0,0,0,0,0,0,0,0,0,0,0,0,0,0,0,0,0,0,0,0,0,0,0,0,0,0,0,0,0,0,0,0,0,0,0,0,
0,0,0,0,0,0,0,0,0,0,0,0,0,0,0,0,0,0,0,0,0,0,0,0,0,0,0,0,0,0,0,0,0,0,0,0,0,0,0,0,0,0,0,0,0,0,0,0,0,0,0,0,0,0,0,0,0,0,0,0,0,0,0,0,0,0,0,0,0,0,
0,0,0,0,0,0,0,0,0,0,0,0,0,0,0,0,0,0,0,0,0,0,0,0,0,0,0,0,0,0,0,0,0,0,0,0,0,0,0,0,0,0,0,0,0,0,0,0,0,0,0,0,0,0,0,0,0,0,0,0,0,0,0,0,0,0,0,0,0,0,
0,0,0,0,0,0,0,0,0,0,0,0,0,0,0,0,0,0,0,0,0,0,0,0,0,0,0,0,0,0,0,0,0,0,0,0,0,0,0,0,0,0,0,0,0,0,0,0,0,0,0,0,0,0,0,262,0,0,0,0,0,0,0,0,0,0,0,0,0,0,
0,0,0,0,0,0,0,0,0,0,0,0,0,0,0,0,0,0,0,0,0,0,0,0,0,0,0,0,0,0,0,0,0,0,0,0,0,0,0,0,0,0,0,0,0,0,0,0,0,0,0,0,0,0,0,0,0,0,0,0,0,0,0,0,0,0,0,0,0,0,
0,0,0,0,0,0,0,0,0,0,0,0,0,0,0,0,0,0,0,0,0,0,0,0,0,0,0,0,0,0,0,0,0,0,0,0,0,0,0,0,0,0,0,0,0,0,0,0,0,0,0,0,0,0,0,0,0,0,0,0,0,0,0,0,0,0,0,0,0,0,
0,0,0,0,0,0,0,0,0,0,0,0,0,0,0,0,0,0,0,0,0,0,0,0,0,0,0,0,0,0,0,0,0,0,0,0,0,0,0,0,0,0,0,0,0,0,0,0,0,0,0,0,0,0,0,0,0,0,0,0,0,0,260,0,0,0,0,0,0,0,
0,0,0,0,0,0,0,0,0,0,0,0,0,0,0,0,0,0,0,0,0,0,0,0,0,0,0,0,0,0,0,0,0,0,0,0,0,0,0,0,0,0,0,0,0,0,0,0,0,0,0,0,0,0,0,0,0,0,0,0,0,0,0,0,0,0,0,0,0,0,
0,0,0,0,0,0,0,0,0,0,0,0,0,0,0,0,0,0,0,0,0,0,0,0,0,0,0,0,0,0,0,0,0,0,0,0,0,0,0,0,0,0,0,0,0,0,0,0,0,0,0,0,0,0,0,0,0,0,0,0,0,0,0,0,0,0,0,0,0,0,
0,0,0,0,0,0,0,0,0,0,0,0,0,0,0,0,0,0,0,0,0,0,0,0,0,0,0,0,0,0,0,0,0,0,0,0,0,0,0,0,0,0,0,0,0,0,0,0,0,0,0,0,0,0,0,0,0,0,0,0,0,0,0,0,0,0,0,0,0,0,
0,0,0,0,0,0,0,0,0,0,0,0,0,0,0,0,0,0,0,0,0,0,0,0,0,0,0,0,0,0,0,0,0,0,0,0,0,0,0,0,0,0,0,0,0,0,0,0,0,0,0,0,0,0,0,0,0,0,0,0,0,0,0,0,0,0,0,0,0,0,
0,0,0,0,0,0,0,0,0,0,0,0,0,0,0,0,0,0,0,0,0,0,0,0,0,0,0,0,0,0,0,0,0,0,0,0,0,0,0,0,0,0,0,0,0,0,0,0,0,0,0,0,0,0,0,0,0,0,0,0,0,0,0,0,0,0,0,0,0,0,
0,0,0,0,0,0,0,0,0,0,0,0,0,0,0,0,0,0,0,0,0,0,0,0,0,0,0,0,0,0,0,0,0,0,0,0,0,0,0,0,0,0,0,0,0,0,0,0,0,0,0,0,0,0,0,0,0,0,0,0,0,0,0,0,0,0,0,0,0,0,
0,0,0,0,0,0,0,0,0,0,0,0,0,0,0,0,0,0,0,0,0,0,0,0,0,0,0,0,0,0,0,0,0,0,0,0,0,0,0,0,0,0,0,0,0,0,0,0,0,0,0,0,0,0,0,0,0,0,0,0,0,0,0,0,0,0,0,0,0,0,
0,0,0,0,0,0,0,0,0,0,0,0,0,0,0,0,0,0,0,0,0,0,0,0,0,0,0,0,0,0,0,0,0,0,0,0,0,0,0,0,0,0,0,0,0,0,0,0,0,0,0,0,0,0,0,0,259,0,0,0,0,0,0,260,0,0,0,0,0,0,
0,0,0,0,0,0,0,0,0,0,0,0,0,0,0,0,0,0,0,0,0,0,0,0,0,0,0,0,0,0,0,0,0,0,0,0,0,0,0,0,0,0,0,0,0,0,0,0,0,0,0,0,0,0,0,0,0,0,0,0,0,0,0,0,0,0,0,0,0,0,
0,0,0,0,0,0,0,0,0,0,0,0,0,0,0,0,0,0,0,0,0,0,0,0,0,0,0,0,0,0,0,0,0,0,0,0,0,0,0,0,0,0,0,0,0,0,0,0,0,0,0,0,0,0,0,0,0,0,0,0,0,0,0,0,0,0,0,0,0,0,
0,0,0,0,0,0,0,0,0,0,0,0,0,0,0,0,0,0,0,0,0,0,0,0,0,0,0,0,0,0,0,0,0,0,0,0,0,0,0,0,0,0,0,0,0,0,0,0,0,0,0,0,0,0,0,0,0,0,0,0,0,0,0,0,0,0,0,0,0,0,
0,0,0,0,0,0,0,0,0,0,0,0,0,0,0,0,0,0,0,0,0,0,0,0,0,0,0,0,0,0,0,0,0,0,0,0,0,0,0,0,0,0,0,0,0,0,0,0,0,0,0,0,0,0,0,0,0,0,0,0,0,0,0,0,0,0,0,0,0,0,
0,0,0,0,0,0,0,0,0,0,0,0,0,0,0,0,0,0,0,0,0,0,0,0,0,0,0,0,0,0,0,0,0,0,0,0,0,0,0,0,0,0,0,0,0,0,0,0,0,0,0,0,0,0,0,0,0,0,0,0,0,0,0,0,0,0,0,0,0,0,
0,0,0,0,0,0,0,0,0,0,0,0,262,0,0,0,0,0,0,0,0,0,0,0,0,0,0,0,0,0,0,0,0,0,0,0,0,0,0,0,0,0,0,0,0,0,0,0,0,0,0,0,0,0,0,0,262,0,0,0,0,0,0,0,0,0,0,0,0,0,
0,0,0,0,0,0,0,0,259,0,0,0,0,0,0,0,0,0,0,0,0,0,0,0,0,0,0,0,0,0,0,0,0,0,0,0,0,0,0,0,0,0,0,0,0,0,0,0,0,0,0,0,0,0,0,0,0,0,0,0,0,0,0,0,0,0,0,0,0,0,
0,0,0,0,0,0,0,0,0,0,0,0,0,0,0,0,0,0,0,0,0,0,0,0,0,0,0,0,0,0,0,0,0,0,0,0,0,0,0,0,0,0,0,0,0,0,0,0,0,0,0,0,0,0,0,0,0,0,0,0,0,0,0,0,0,0,0,0,0,0,
0,0,0,0,0,0,0,0,0,0,0,0,0,0,0,0,0,0,0,0,0,0,0,0,0,0,0,0,0,0,0,0,0,0,0,0,0,0,0,0,0,0,0,0,0,0,0,0,0,0,0,0,0,0,0,0,0,0,0,0,0,0,0,0,0,0,0,0,0,0,
0,0,0,0,0,0,0,0,0,0,0,0,0,0,0,0,0,0,0,0,0,0,0,0,0,0,0,0,0,0,0,0,0,0,0,0,0,0,0,0,0,0,0,0,0,0,0,0,0,0,0,0,0,0,0,0,0,0,0,0,0,0,0,0,0,0,0,0,0,0,
0,0,0,0,0,0,0,0,0,0,0,0,0,0,0,0,0,0,0,0,0,0,0,0,0,0,0,0,0,0,0,0,0,0,0,0,0,0,0,0,0,0,0,0,0,0,0,0,0,0,0,0,0,0,0,0,0,0,0,0,0,0,0,0,0,0,0,0,0,0,
0,0,0,0,0,0,0,0,0,0,0,0,0,0,0,0,0,0,0,0,0,0,0,0,0,0,0,0,0,0,0,0,0,0,0,0,0,0,0,0,0,0,0,0,0,0,0,0,0,0,0,0,0,0,0,0,0,0,0,0,0,0,0,0,0,0,259,0,0,0,
0,0,0,0,0,0,0,0,0,0,0,0,0,0,0,0,0,0,0,0,0,0,0,0,0,0,0,0,0,0,0,0,0,0,0,0,0,0,0,0,0,0,0,0,0,0,0,0,0,0,0,0,0,0,0,0,0,0,0,0,0,0,0,0,0,0,0,0,0,0,
0,0,0,0,0,0,0,0,0,0,0,0,0,0,0,0,0,0,0,0,0,0,0,0,0,0,0,0,0,0,0,0,0,0,0,0,0,0,0,0,0,0,0,0,0,0,0,0,0,0,0,0,0,260,0,0,0,0,0,0,0,0,0,0,0,0,0,0,0,0,
0,0,0,0,0,0,0,0,0,0,0,0,0,0,0,0,0,0,0,0,0,0,0,0,0,0,0,0,0,0,0,0,0,0,0,0,0,0,0,0,0,0,0,0,0,0,0,0,0,0,0,0,0,0,0,0,0,0,0,0,0,0,0,0,0,0,0,0,0,0,
0,0,0,0,0,0,0,0,0,0,0,0,0,0,0,0,0,0,0,0,0,0,0,0,0,0,0,0,0,0,0,0,0,0,0,0,0,0,0,0,0,0,0,0,0,0,0,0,0,0,0,0,0,0,0,0,0,0,0,0,0,0,0,0,0,0,0,0,0,0,
0,0,0,0,0,0,0,0,0,0,0,0,0,0,0,0,0,0,0,0,0,0,0,0,0,0,0,0,0,0,0,0,0,0,0,0,0,0,0,0,0,0,0,0,0,0,0,0,0,0,0,0,0,0,0,0,0,0,0,0,0,0,0,0,0,0,0,0,0,0,
0,0,0,0,0,0,0,0,0,0,0,0,0,0,0,0,0,0,0,0,0,0,0,0,0,0,0,0,0,0,0,0,0,0,0,0,0,0,0,0,0,0,0,0,0,261,0,0,0,0,0,0,0,0,0,0,0,0,0,0,0,0,0,0,0,0,0,0,0,0,
0,0,0,0,0,0,0,0,0,0,0,0,0,0,0,0,0,0,0,0,0,0,0,0,0,0,0,0,0,0,0,0,0,0,0,0,0,0,0,0,0,0,0,0,0,0,0,0,0,0,0,0,0,0,0,0,0,0,0,0,0,0,0,0,0,0,0,0,0,0,
0,0,0,262,0,0,0,0,0,0,0,0,0,0,0,0,0,0,0,0,0,261,0,0,0,0,0,0,0,0,0,0,0,0,0,0,0,0,0,0,0,0,0,0,0,0,0,0,0,0,0,0,0,0,0,0,0,0,0,0,0,0,0,0,0,0,0,0,0,0,
0,0,0,259,0,0,0,0,0,0,0,0,0,0,0,0,0,0,0,0,0,0,0,0,0,0,0,0,0,0,0,0,0,0,0,0,0,0,0,0,0,0,0,0,0,0,0,0,0,0,0,0,0,0,0,0,0,0,0,0,0,0,0,0,0,0,0,0,0,0,
0,0,0,0,0,0,0,0,0,0,0,0,0,0,0,0,0,0,0,0,0,0,0,0,0,0,0,0,0,0,0,0,0,0,0,0,0,0,0,0,0,0,0,0,0,0,0,0,0,0,0,0,0,0,0,0,0,0,0,0,0,0,0,0,0,0,0,0,0,0,
0,0,0,0,0,0,0,0,0,0,0,0,0,0,0,0,0,0,0,0,0,0,0,0,0,0,0,0,0,0,0,0,0,0,0,0,0,0,0,0,0,0,0,0,0,0,0,0,0,0,0,0,0,0,0,0,0,0,0,0,0,0,0,0,0,0,0,0,0,0,
0,0,0,0,0,0,0,0,0,0,0,0,0,0,0,0,0,0,0,0,0,0,0,0,0,0,0,0,0,0,0,0,0,0,0,0,0,0,0,0,0,0,0,0,0,0,0,0,0,0,0,0,0,259,0,0,0,0,0,0,0,0,0,0,0,0,0,0,0,0,
0,0,0,0,0,0,0,0,0,0,0,0,0,0,0,0,0,0,0,0,0,0,0,0,0,0,0,0,0,262,0,0,0,0,0,0,0,0,0,0,0,0,0,0,0,0,0,0,0,0,0,0,0,0,0,0,0,0,0,0,0,0,0,0,0,0,0,0,0,0,
0,0,0,0,0,0,0,0,0,0,0,0,0,0,0,0,0,0,0,0,0,0,0,0,0,0,0,0,0,0,0,0,0,0,0,0,0,0,0,0,0,0,0,0,0,0,0,0,0,0,0,0,0,0,0,0,0,0,0,0,0,0,0,0,0,0,0,0,0,0,
0,0,0,0,0,0,0,0,0,0,0,0,0,0,0,0,0,0,0,0,0,0,0,0,0,0,0,0,0,0,0,0,0,0,0,0,0,0,0,0,0,0,261,0,0,0,0,0,0,0,0,0,0,0,0,0,0,0,0,0,0,0,0,0,0,0,0,0,0,0,
0,0,0,0,0,0,0,0,0,0,0,0,0,0,0,0,0,0,0,0,0,0,0,0,0,0,0,0,0,0,0,0,0,0,0,0,0,0,0,0,0,0,0,0,0,0,0,0,0,0,0,0,0,0,0,0,0,0,0,0,0,0,0,0,0,0,0,0,0,0,
0,0,0,0,0,0,0,0,0,0,0,0,0,0,0,0,0,0,0,0,0,0,0,0,0,0,0,0,0,0,0,0,0,0,0,0,0,0,0,0,0,0,0,0,0,0,0,0,0,0,0,0,0,0,0,0,0,0,0,0,0,0,0,0,0,0,0,0,0,0,
0,0,0,0,0,0,0,0,0,0,0,0,0,0,0,0,0,0,0,0,0,0,0,0,0,0,0,0,0,0,0,0,0,0,0,0,0,0,0,0,0,0,0,0,0,0,0,0,0,0,0,0,0,0,0,0,0,0,0,0,0,0,0,0,0,0,0,0,0,0,
0,0,0,0,0,0,0,0,0,0,0,0,0,0,0,0,0,0,0,259,0,0,0,0,0,0,0,0,0,0,0,0,0,0,0,0,0,0,0,0,0,0,0,0,0,0,0,0,0,0,0,0,0,0,0,0,0,0,0,0,0,0,0,0,0,0,0,0,0,0,
0,0,0,0,0,0,0,0,0,0,0,0,0,0,0,0,0,0,0,0,0,0,0,0,0,0,0,0,0,0,0,0,0,0,0,0,0,0,0,0,0,0,0,0,0,0,0,0,0,0,0,0,0,0,0,0,0,0,0,0,0,0,0,0,0,0,0,0,0,0
</data>
 </layer>
 <layer id="8" name="Cliff Shadow" width="70" height="70">
  <data encoding="csv">
0,0,0,0,0,0,0,0,0,0,0,0,0,0,0,0,0,0,0,0,0,0,0,0,0,0,0,0,0,0,0,0,0,0,0,0,0,0,0,0,0,0,0,0,0,0,0,0,0,0,0,0,0,0,0,0,0,0,0,0,0,0,0,0,0,0,0,0,0,0,
0,0,0,0,0,0,0,0,0,0,0,0,0,0,0,0,0,0,0,0,0,0,0,0,0,0,0,0,0,0,0,0,0,0,0,0,0,0,0,0,0,0,0,0,0,0,0,0,0,0,0,0,0,0,0,0,0,0,0,0,0,0,0,0,0,0,0,0,0,0,
0,0,0,0,0,0,0,0,0,0,0,0,0,0,0,0,0,0,0,0,0,0,0,0,0,0,0,0,0,0,0,0,0,0,0,0,0,0,0,0,0,0,0,0,0,0,0,0,0,0,0,0,0,0,0,0,0,0,0,0,0,0,0,0,0,0,0,0,0,0,
0,0,0,0,0,0,0,0,0,0,0,0,0,0,0,0,0,0,0,0,0,0,0,0,0,0,0,0,0,0,0,0,0,0,0,0,0,0,0,0,0,0,0,0,0,0,0,0,0,0,0,0,0,0,0,0,0,0,0,0,0,0,0,0,0,0,0,0,0,0,
0,0,0,0,0,0,0,0,0,0,0,0,0,0,0,0,0,0,0,0,0,0,0,0,0,0,0,0,0,0,0,0,0,0,0,0,0,0,0,0,0,0,0,0,0,0,0,0,0,0,0,0,0,0,0,0,0,0,0,0,0,0,0,0,0,0,0,0,0,0,
0,0,0,0,0,0,0,0,0,0,0,0,0,0,0,0,0,0,0,0,0,0,0,0,0,0,0,0,0,0,0,0,0,0,0,0,0,0,0,0,0,0,0,0,0,0,0,0,0,0,0,0,0,0,0,0,0,0,0,0,0,0,0,0,0,0,0,0,0,0,
0,0,0,0,0,0,0,0,0,0,0,0,0,0,0,0,0,0,0,0,0,0,0,0,0,0,0,0,0,0,0,0,0,0,0,0,0,0,0,0,0,0,0,0,0,0,0,0,0,0,0,0,0,0,0,0,0,0,0,0,0,0,0,0,0,0,0,0,0,0,
0,0,0,0,0,0,0,0,0,0,0,0,0,0,0,0,0,0,0,0,0,0,0,0,0,0,0,0,0,0,0,0,0,0,0,0,0,0,0,0,0,0,0,0,0,0,0,0,0,0,0,0,0,0,0,0,0,0,0,0,0,0,0,0,0,0,0,0,0,0,
0,0,0,0,0,0,0,0,0,0,0,0,0,0,0,0,0,0,0,0,0,0,0,0,0,0,0,0,0,0,0,0,0,0,0,0,0,0,0,0,0,0,0,0,0,0,0,0,0,0,0,0,0,0,0,0,0,0,0,0,0,0,0,0,0,0,0,0,0,0,
0,0,0,0,0,0,0,0,0,0,0,0,0,0,0,0,0,0,0,0,0,0,0,0,0,0,0,0,0,0,0,0,0,0,0,0,0,0,0,0,0,0,0,0,0,0,0,0,0,0,0,0,0,0,0,0,0,0,0,0,0,0,0,0,0,0,0,0,0,0,
0,0,0,0,0,0,0,0,0,0,0,0,0,0,0,0,0,0,0,0,0,0,0,0,0,0,0,0,0,0,0,0,0,0,0,0,0,0,0,0,0,0,0,0,0,0,0,0,0,0,0,0,0,0,0,0,0,0,0,0,0,0,0,0,0,0,0,0,0,0,
0,0,0,0,0,0,0,0,0,0,0,0,0,0,0,0,0,0,0,0,0,0,0,0,0,0,0,0,0,0,0,0,0,0,0,0,0,0,0,0,0,0,0,0,0,0,0,0,0,0,0,0,0,0,0,0,0,0,0,0,0,0,0,0,0,0,0,0,0,0,
0,0,0,0,0,0,0,0,0,0,0,0,0,0,0,0,0,0,0,0,0,0,0,0,0,0,0,0,0,0,0,0,0,0,0,0,0,0,0,0,0,0,0,0,0,0,0,0,0,0,0,0,0,0,0,0,0,0,0,0,0,0,0,0,0,0,0,0,0,0,
0,0,0,0,0,0,0,0,0,0,0,0,0,0,0,0,0,0,0,0,0,0,0,0,0,0,0,0,0,0,0,0,0,0,0,0,0,0,0,0,0,0,0,0,0,0,0,0,0,0,0,0,0,0,0,0,0,0,0,0,0,0,0,0,0,0,0,0,0,0,
0,0,0,0,0,0,0,0,0,0,0,0,0,0,0,0,0,0,0,0,0,0,0,0,0,0,0,0,0,0,0,0,0,0,0,0,0,0,0,0,0,0,0,0,0,0,0,0,0,0,0,0,0,0,0,0,0,0,0,0,0,0,0,0,0,0,0,0,0,0,
0,0,0,0,0,0,0,0,0,0,0,0,0,0,0,0,0,0,0,0,0,0,0,0,0,0,0,0,0,0,0,0,0,0,0,0,0,0,0,0,0,0,0,0,0,0,0,0,0,0,0,0,0,0,0,0,0,0,0,0,0,0,0,0,0,0,0,0,0,0,
0,0,0,0,0,0,0,0,0,0,0,0,0,0,0,0,0,0,0,0,0,0,0,0,0,0,0,0,0,0,0,0,0,0,0,0,0,0,0,0,0,0,0,0,0,0,0,0,0,0,0,0,0,0,0,0,0,0,0,0,0,0,0,0,0,0,0,0,0,0,
0,0,0,0,0,0,0,0,0,0,0,0,0,0,0,0,0,0,0,0,0,0,0,0,0,0,0,0,0,0,0,0,0,0,0,0,0,0,0,0,0,0,0,0,0,0,0,0,0,0,0,0,0,0,0,0,0,0,0,0,0,0,0,0,0,0,0,0,0,0,
0,0,0,0,0,0,0,0,0,0,0,0,0,0,0,0,0,0,0,0,0,0,0,0,0,0,0,0,0,0,0,0,0,0,0,0,0,0,0,0,0,0,0,0,0,0,0,0,0,0,0,0,0,0,0,0,0,0,0,0,0,0,0,0,0,0,0,0,0,0,
0,0,0,0,0,0,0,0,0,0,0,0,0,0,0,0,0,0,0,0,0,0,0,0,0,0,0,0,0,0,0,0,0,0,0,0,0,0,0,0,0,0,0,0,0,0,0,0,0,0,0,0,0,0,0,0,0,0,0,0,0,0,0,0,0,0,0,0,0,0,
0,0,0,0,0,0,0,0,0,0,0,0,0,0,0,0,0,0,0,0,0,0,0,0,0,0,0,0,0,0,0,0,0,0,0,0,0,0,0,0,0,0,0,0,0,0,0,0,0,0,0,0,0,0,0,0,0,0,0,0,0,0,0,0,0,0,0,0,0,0,
0,0,0,0,0,0,0,0,0,0,0,0,0,0,0,0,0,0,0,0,0,0,0,0,0,0,0,0,0,0,0,0,0,0,0,0,0,0,0,0,0,0,0,0,0,0,0,0,0,0,0,0,0,0,0,0,0,0,0,0,0,0,0,0,0,0,0,0,0,0,
0,0,0,0,0,0,0,0,0,0,0,0,0,0,0,0,0,0,0,0,0,0,0,0,0,0,0,0,0,0,0,0,0,0,0,0,0,0,0,0,0,0,0,0,0,0,0,0,0,0,0,0,0,0,0,0,0,0,0,0,0,0,0,0,0,0,0,0,0,0,
0,0,0,0,0,0,0,0,0,0,0,0,0,0,0,0,0,0,0,0,0,0,0,0,0,0,0,0,0,0,0,0,0,0,0,0,0,0,0,0,0,0,0,0,0,0,0,0,0,0,0,0,0,0,0,0,0,0,0,0,0,0,0,0,0,0,0,0,0,0,
0,0,0,0,0,0,0,0,0,0,0,0,0,0,0,0,0,0,0,0,0,0,0,0,0,0,0,0,0,0,0,0,0,0,0,0,0,0,0,0,0,0,0,0,0,0,0,0,0,0,0,0,0,0,0,0,0,0,0,0,0,0,0,0,0,0,0,0,0,0,
0,0,0,0,0,0,0,0,0,0,0,0,0,0,0,0,0,0,0,0,0,0,0,0,0,0,0,0,0,0,0,0,0,0,0,0,0,0,0,0,0,0,0,0,0,0,0,0,0,0,0,0,0,0,0,0,0,0,0,0,0,0,0,0,0,0,0,0,0,0,
0,0,0,0,0,0,0,0,0,0,0,0,0,0,0,0,0,0,0,0,0,0,0,0,0,0,0,0,0,0,0,0,0,0,0,0,0,0,0,0,0,0,0,0,0,0,0,0,0,0,0,0,0,0,0,0,0,0,0,0,0,0,0,0,0,0,0,0,0,0,
0,0,0,0,0,0,0,0,0,0,0,0,0,0,0,0,0,0,0,0,0,0,0,0,0,0,0,0,0,0,0,0,0,0,0,0,0,0,0,0,0,0,0,0,0,0,0,0,0,0,0,0,0,0,0,0,0,0,0,0,0,0,0,0,0,0,0,0,0,0,
0,0,0,0,0,0,0,0,0,0,0,0,0,0,0,0,0,0,0,0,0,0,0,0,0,0,0,0,0,0,0,0,0,0,0,0,0,0,0,0,0,0,0,0,0,0,0,0,0,0,0,0,0,0,0,0,0,0,0,0,0,0,0,0,0,0,0,0,0,0,
0,0,0,0,0,0,0,0,0,0,0,0,0,0,0,0,0,0,0,0,0,0,0,0,0,0,0,0,0,0,0,0,0,0,0,0,0,0,0,0,0,0,0,0,0,0,0,0,0,0,0,0,0,0,0,0,0,0,0,0,0,0,0,0,0,0,0,0,0,0,
0,0,0,0,0,0,0,0,0,0,0,0,0,0,0,0,0,0,0,0,0,0,0,0,0,0,0,0,0,0,0,0,0,0,0,0,0,0,0,0,0,0,0,0,0,0,0,0,0,0,0,0,0,0,0,0,0,0,0,0,0,0,0,0,0,0,0,0,0,0,
0,0,0,0,0,0,0,0,0,0,0,0,0,0,0,0,0,0,0,0,0,0,0,0,0,0,0,0,0,0,0,0,0,0,0,0,0,0,0,0,0,0,0,0,0,0,0,0,0,0,0,0,0,0,0,0,0,0,0,0,0,0,0,0,0,0,0,0,0,0,
0,0,0,0,0,0,0,0,0,0,0,0,0,0,0,0,0,0,0,0,0,0,0,0,0,0,0,0,0,0,0,0,0,0,0,0,0,0,0,0,0,0,0,0,0,0,0,0,0,0,0,0,0,0,0,0,0,0,0,0,0,0,0,0,0,0,0,0,0,0,
0,0,0,0,0,0,0,0,0,0,0,0,0,0,0,0,0,0,0,0,0,0,0,0,0,0,0,0,0,0,0,0,0,0,0,0,0,0,0,0,0,0,0,0,0,0,0,0,0,0,0,0,0,0,0,0,0,0,0,0,0,0,0,0,0,0,0,0,0,0,
0,0,0,0,0,0,0,0,0,0,0,0,0,0,0,0,0,0,0,0,0,0,0,0,0,0,0,0,0,0,0,0,0,0,0,0,0,0,0,0,0,0,0,0,0,0,0,0,0,0,0,0,0,0,0,0,0,0,0,0,0,0,0,0,0,0,0,0,0,0,
0,0,0,0,0,0,0,0,0,0,0,0,0,0,0,0,0,0,0,0,0,0,0,0,0,0,0,0,0,0,0,0,0,0,0,0,0,0,0,0,0,0,0,0,0,0,0,0,0,0,0,0,0,0,0,0,0,0,0,0,0,0,0,0,0,0,0,0,0,0,
0,0,0,0,0,0,0,0,0,0,0,0,0,0,0,0,0,0,0,0,0,0,0,0,0,0,0,0,0,0,0,0,0,0,0,0,0,0,0,0,0,0,0,0,0,0,0,0,0,0,0,0,0,0,0,0,0,0,0,0,0,0,0,0,0,0,0,0,0,0,
0,0,0,0,0,0,0,0,0,0,0,0,0,0,0,0,0,0,0,0,0,0,0,0,0,0,0,0,0,0,0,0,0,0,0,0,0,0,0,0,0,0,0,0,0,0,0,0,0,0,0,0,0,0,0,0,0,0,0,0,0,0,0,0,0,0,0,0,0,0,
0,0,0,0,0,0,0,0,0,0,0,0,0,0,0,0,0,0,0,0,0,0,0,0,0,0,0,0,0,0,0,0,0,0,0,0,0,0,0,0,0,0,0,0,0,0,0,0,0,0,0,0,0,0,0,0,0,0,0,0,0,0,0,0,0,0,0,0,0,0,
0,0,0,0,0,0,0,0,0,0,0,0,0,0,0,0,0,0,0,0,0,0,0,0,0,0,0,0,0,0,0,0,0,0,0,0,0,0,0,0,0,0,0,0,0,0,0,0,0,0,0,0,0,0,0,0,0,0,0,0,0,0,0,0,0,0,0,0,0,0,
0,0,0,0,0,0,0,0,0,0,0,0,0,0,0,0,0,0,0,0,0,0,0,0,0,0,0,0,0,0,0,0,0,0,0,0,0,0,0,0,0,0,46,57,57,57,57,57,57,57,57,57,57,57,57,0,0,0,0,0,0,0,0,0,0,0,0,0,0,0,
0,0,0,0,0,0,0,0,0,0,0,0,0,0,0,0,0,0,0,0,0,0,0,0,0,0,0,0,0,0,0,0,0,0,0,0,0,0,0,0,0,46,58,0,0,0,0,0,0,0,0,0,0,0,0,0,0,0,0,0,0,0,0,0,0,0,0,0,0,1,
0,0,0,0,0,0,0,0,46,57,57,57,57,44,0,0,0,0,0,0,0,0,0,0,0,0,0,0,0,0,0,0,0,0,0,0,0,0,0,0,46,58,0,0,0,0,0,0,0,0,0,0,0,57,57,46,57,57,57,57,57,57,57,57,57,57,57,57,0,0,
0,0,0,0,0,0,0,46,58,0,0,0,0,56,44,0,0,0,0,0,0,0,0,0,0,0,0,0,0,0,0,0,0,0,0,0,0,0,0,46,58,0,0,0,0,0,0,0,0,0,0,0,0,46,57,58,0,0,0,0,0,0,0,0,0,0,0,0,0,0,
0,0,0,0,0,0,46,58,0,0,0,0,0,0,56,44,0,0,0,0,0,0,0,0,0,0,0,0,0,0,0,0,0,0,0,0,0,0,46,0,0,0,0,0,0,0,0,0,0,0,0,0,0,52,0,0,0,0,0,0,0,0,0,0,0,0,0,0,0,0,
0,0,0,0,0,46,58,0,0,0,0,0,0,0,0,56,44,0,0,0,0,0,0,0,0,0,0,0,0,0,0,0,0,0,0,0,0,46,58,0,0,0,0,0,0,0,0,0,0,0,0,0,0,52,0,0,0,0,0,0,0,0,0,0,0,0,0,0,0,0,
0,0,0,0,0,52,0,0,0,0,0,0,0,0,0,0,56,57,57,57,57,57,57,57,57,57,57,57,57,57,57,57,57,57,57,57,57,58,0,0,0,0,0,0,0,0,0,0,0,0,0,0,0,52,0,0,0,0,0,0,0,0,0,0,0,0,0,0,0,0,
0,0,0,0,0,52,0,0,0,0,0,0,0,0,0,0,0,0,0,0,0,0,0,0,0,0,0,0,0,0,0,0,0,0,0,0,0,0,0,0,0,0,0,0,0,0,0,0,0,0,0,0,0,52,0,0,0,0,0,0,0,0,0,0,0,0,0,0,0,0,
0,0,0,0,0,52,0,0,0,0,0,0,0,0,0,0,0,0,0,0,0,0,0,0,0,0,0,0,0,0,0,0,0,0,0,0,0,0,0,0,0,0,0,0,0,0,0,0,0,0,0,0,0,52,0,0,0,0,0,0,0,0,0,0,0,0,0,0,0,0,
0,0,0,0,0,52,0,0,0,0,0,0,0,0,0,0,0,0,0,0,0,0,0,0,0,0,0,0,0,0,0,0,0,0,0,0,0,0,0,0,0,0,0,0,0,0,0,0,0,0,0,0,0,52,0,0,0,0,0,0,0,0,0,0,0,0,0,0,0,0,
0,0,0,46,46,58,0,0,0,0,0,0,0,0,0,0,0,0,0,0,0,0,0,0,0,0,0,0,0,0,0,0,0,0,0,0,0,0,0,0,0,0,0,0,0,0,0,0,0,0,0,0,0,52,0,0,0,0,0,0,0,0,0,0,0,0,0,0,0,0,
0,0,46,46,58,0,0,0,0,0,0,0,0,0,0,0,0,0,0,0,0,0,0,0,0,0,0,0,0,0,0,0,0,0,0,0,0,0,0,0,0,0,0,0,0,0,0,0,0,0,0,0,0,52,0,0,0,0,0,0,0,0,0,0,0,0,0,0,0,0,
0,46,46,58,0,0,0,0,0,0,0,0,0,0,0,0,0,0,0,0,0,0,0,0,0,0,0,0,0,0,0,0,0,0,0,0,0,0,0,0,0,0,0,0,0,0,0,0,0,0,0,0,0,52,0,0,0,0,0,0,0,0,0,0,0,0,0,0,0,0,
57,57,58,0,0,0,0,0,0,0,0,0,0,0,0,0,0,0,0,0,0,0,0,0,0,0,0,0,0,0,0,0,0,0,0,0,0,0,0,0,0,0,0,0,0,0,0,0,0,0,0,0,46,58,0,0,0,0,0,0,0,0,0,0,0,0,0,0,0,0,
0,0,0,0,0,0,0,0,0,0,0,0,0,0,0,0,0,0,0,0,0,0,0,0,0,0,0,0,0,0,0,0,0,0,0,0,0,0,0,0,0,0,0,0,0,0,0,0,0,0,0,46,58,0,0,0,0,0,0,0,0,0,0,0,0,0,0,0,0,0,
0,0,0,0,0,0,0,0,0,0,0,0,0,0,0,0,0,0,0,0,0,0,0,0,0,0,0,0,0,0,0,0,0,0,0,0,0,0,0,0,0,0,0,0,0,0,0,0,0,0,46,58,0,0,0,0,0,0,0,0,0,0,0,0,0,0,0,0,0,0,
0,0,0,0,0,0,0,0,0,0,0,0,0,0,0,0,0,0,0,0,0,46,57,57,57,57,44,0,0,0,0,0,0,0,0,0,0,0,0,0,0,0,0,0,0,0,0,0,0,46,58,0,0,0,0,0,0,0,0,0,0,0,0,0,0,0,0,0,0,0,
0,0,0,0,0,0,0,0,0,0,0,0,0,0,0,0,0,0,46,46,57,58,0,0,0,0,56,57,44,0,0,0,0,0,0,0,0,0,0,0,0,0,0,0,0,0,0,0,46,58,0,0,0,0,0,0,0,0,0,0,0,0,0,0,0,0,0,0,0,0,
0,0,0,0,0,0,0,0,0,0,0,0,0,0,0,0,0,46,57,58,0,0,0,0,0,0,0,0,56,57,44,0,0,0,0,0,0,0,0,0,0,0,0,0,0,0,0,46,58,0,0,0,0,0,0,0,0,0,0,0,0,0,0,0,0,0,0,0,0,0,
0,0,0,0,0,0,46,57,57,57,57,57,57,57,57,57,57,58,0,0,0,0,0,0,0,0,0,0,0,0,56,57,57,57,57,57,57,57,57,57,57,57,57,57,57,57,57,58,0,0,0,0,0,0,0,0,0,0,0,0,0,0,0,0,0,0,0,0,0,0,
0,0,0,0,0,46,58,0,0,0,0,0,0,0,0,0,0,0,0,0,0,0,0,0,0,0,0,0,0,0,0,0,0,0,0,0,0,0,0,0,0,0,0,0,0,0,0,0,0,0,0,0,0,0,0,0,0,0,0,0,0,0,0,0,0,0,0,0,0,0,
0,0,0,0,46,58,0,0,0,0,0,0,0,0,0,0,0,0,0,0,0,0,0,0,0,0,0,0,0,0,0,0,0,0,0,0,0,0,0,0,0,0,0,0,0,0,0,0,0,0,0,0,0,0,0,0,0,0,0,0,0,0,0,0,0,0,0,0,0,0,
0,0,0,46,58,0,0,0,0,0,0,0,0,0,0,0,0,0,0,0,0,0,0,0,0,0,0,0,0,0,0,0,0,0,0,0,0,0,0,0,0,0,0,0,0,0,0,0,0,0,0,0,0,0,0,0,0,0,0,0,0,0,0,0,0,0,0,0,0,0,
0,0,46,58,0,0,0,0,0,0,0,0,0,0,0,0,0,0,0,0,0,0,0,0,0,0,0,0,0,0,0,0,0,0,0,0,0,0,0,0,0,0,0,0,0,0,0,0,0,0,0,0,0,0,0,0,0,0,0,0,0,0,0,0,0,0,0,0,0,0,
57,46,58,0,0,0,0,0,0,0,0,0,0,0,0,0,0,0,0,0,0,0,0,0,0,0,0,0,0,0,0,0,0,0,0,0,0,0,0,0,0,0,0,0,0,0,0,0,0,0,0,0,0,0,0,0,0,0,0,0,0,0,0,0,0,0,0,0,0,0,
0,0,0,0,0,0,0,0,0,0,0,0,0,0,0,0,0,0,0,0,0,0,0,0,0,0,0,0,0,0,0,0,0,0,0,0,0,0,0,0,0,0,0,0,0,0,0,0,0,0,0,0,0,0,0,0,0,0,0,0,0,0,0,0,0,0,0,0,0,0,
0,0,0,0,0,0,0,0,0,0,0,0,0,0,0,0,0,0,0,0,0,0,0,0,0,0,0,0,0,0,0,0,0,0,0,0,0,0,0,0,0,0,0,0,0,0,0,0,0,0,0,0,0,0,0,0,0,0,0,0,0,0,0,0,0,0,0,0,0,0,
0,0,0,0,0,0,0,0,0,0,0,0,0,0,0,0,0,0,0,0,0,0,0,0,0,0,0,0,0,0,0,0,0,0,0,0,0,0,0,0,0,0,0,0,0,0,0,0,0,0,0,0,0,0,0,0,0,0,0,0,0,0,0,0,0,0,0,0,0,0,
0,0,0,0,0,0,0,0,0,0,0,0,0,0,0,0,0,0,0,0,0,0,0,0,0,0,0,0,0,0,0,0,0,0,0,0,0,0,0,0,0,0,0,0,0,0,0,0,0,0,0,0,0,0,0,0,0,0,0,0,0,0,0,0,0,0,0,0,0,0,
0,0,0,0,0,0,0,0,0,0,0,0,0,0,0,0,0,0,0,0,0,0,0,0,0,0,0,0,0,0,0,0,0,0,0,0,0,0,0,0,0,0,0,0,0,0,0,0,0,0,0,0,0,0,0,0,0,0,0,0,0,0,0,0,0,0,0,0,0,0
</data>
 </layer>
 <layer id="3" name="Cliff" width="70" height="70">
  <data encoding="csv">
0,0,0,0,0,0,0,0,0,0,0,0,0,0,0,0,0,0,0,0,0,0,0,0,0,0,0,0,0,0,0,0,0,0,0,0,0,0,0,0,0,0,0,0,0,0,0,0,0,0,0,0,0,0,0,0,0,0,0,0,0,0,0,0,0,0,0,0,0,0,
0,0,0,0,0,0,0,0,0,0,0,0,0,0,0,0,0,0,0,0,0,0,0,0,0,0,0,0,0,0,0,0,0,0,0,0,0,0,0,0,0,0,0,0,0,0,0,0,0,0,0,0,0,0,0,0,0,0,0,0,0,0,0,0,0,0,0,0,0,0,
0,0,0,0,0,0,0,0,0,0,0,0,0,0,0,0,0,0,0,0,0,0,0,0,0,0,0,0,0,0,0,0,0,0,0,0,0,0,0,0,0,0,0,0,0,0,0,0,0,0,0,0,0,0,0,0,0,0,0,0,0,0,0,0,0,0,0,0,0,0,
0,0,0,0,0,0,0,0,0,0,0,0,0,0,0,0,0,0,0,0,0,0,0,0,0,0,0,0,0,0,0,0,0,0,0,0,0,0,0,0,0,0,0,0,0,0,0,0,0,0,0,0,0,0,0,0,0,0,0,0,0,0,0,0,0,0,0,0,0,0,
0,0,0,0,0,0,0,0,0,0,0,0,0,0,0,0,0,0,0,0,0,0,0,0,0,0,0,0,0,0,0,0,0,0,0,0,0,0,0,0,0,0,0,0,0,0,0,0,0,0,0,0,0,0,0,0,0,0,0,0,0,0,0,0,0,0,0,0,0,0,
0,0,0,0,0,0,0,0,0,0,0,0,0,0,0,0,0,0,0,0,0,0,0,0,0,0,0,0,0,0,0,0,0,0,0,0,0,0,0,0,0,0,0,0,0,0,0,0,0,0,0,0,0,0,0,0,0,0,0,0,0,0,0,0,0,0,0,0,0,0,
0,0,0,0,0,0,0,0,0,0,0,0,0,0,0,0,0,0,0,0,0,0,0,0,0,0,0,0,0,0,0,0,0,0,0,0,0,0,0,0,0,0,0,0,0,0,0,0,0,0,0,0,0,0,0,0,0,0,0,0,0,0,0,0,0,0,0,0,0,0,
0,0,0,0,0,0,0,0,0,0,0,0,0,0,0,0,0,0,0,0,0,0,0,0,0,0,0,0,0,0,0,0,0,0,0,0,0,0,0,0,0,0,0,0,0,0,0,0,0,0,0,0,0,0,0,0,0,0,0,0,0,0,0,0,0,0,0,0,0,0,
0,0,0,0,0,0,0,0,0,0,0,0,0,0,0,0,0,0,0,0,0,0,0,0,0,0,0,0,0,0,0,0,0,0,0,0,0,0,0,0,0,0,0,0,0,0,0,0,0,0,0,0,0,0,0,0,0,0,0,0,0,0,0,0,0,0,0,0,0,0,
0,0,0,0,0,0,0,0,0,0,0,0,0,0,0,0,0,0,0,0,0,0,0,0,0,0,0,0,0,0,0,0,0,0,0,0,0,0,0,0,0,0,0,0,0,0,0,0,0,0,0,0,0,0,0,0,0,0,0,0,0,0,0,0,0,0,0,0,0,0,
0,0,0,0,0,0,0,0,0,0,0,0,0,0,0,0,0,0,0,0,0,0,0,0,0,0,0,0,0,0,0,0,0,0,0,0,0,0,0,0,0,0,0,0,0,0,0,0,0,0,0,0,0,0,0,0,0,0,0,0,0,0,0,0,0,0,0,0,0,0,
0,0,0,0,0,0,0,0,0,0,0,0,0,0,0,0,0,0,0,0,0,0,0,0,0,0,0,0,0,0,0,0,0,0,0,0,0,0,0,0,0,0,0,0,0,0,0,0,0,0,0,0,0,0,0,0,0,0,0,0,0,0,0,0,0,0,0,0,0,0,
0,0,0,0,0,0,0,0,0,0,0,0,0,0,0,0,0,0,0,0,0,0,0,0,0,0,0,0,0,0,0,0,0,0,0,0,0,0,0,0,0,0,0,0,0,0,0,0,0,0,0,0,0,0,0,0,0,0,0,0,0,0,0,0,0,0,0,0,0,0,
0,0,0,0,0,0,0,0,0,0,0,0,0,0,0,0,0,0,0,0,0,0,0,0,0,0,0,0,0,0,0,0,0,0,0,0,0,0,0,0,0,0,0,0,0,0,0,0,0,0,0,0,0,0,0,0,0,0,0,0,0,0,0,0,0,0,0,0,0,0,
0,0,0,0,0,0,0,0,0,0,0,0,0,0,0,0,0,0,0,0,0,0,0,0,0,0,0,0,0,0,0,0,0,0,0,0,0,0,0,0,0,0,0,0,0,0,0,0,0,0,0,0,0,0,0,0,0,0,0,0,0,0,0,0,0,0,0,0,0,0,
0,0,0,0,0,0,0,0,0,0,0,0,0,0,0,0,0,0,0,0,0,0,0,0,0,0,0,0,0,0,0,0,0,0,0,0,0,0,0,0,0,0,0,0,0,0,0,0,0,0,0,0,0,0,0,0,0,0,0,0,0,0,0,0,0,0,0,0,0,0,
0,0,0,0,0,0,0,0,0,0,0,0,0,0,0,0,0,0,0,0,0,0,0,0,0,0,0,0,0,0,0,0,0,0,0,0,0,0,0,0,0,0,0,0,0,0,0,0,0,0,0,0,0,0,0,0,0,0,0,0,0,0,0,0,0,0,0,0,0,0,
0,0,0,0,0,0,0,0,0,0,0,0,0,0,0,0,0,0,0,0,0,0,0,0,0,0,0,0,0,0,0,0,0,0,0,0,0,0,0,0,0,0,0,0,0,0,0,0,0,0,0,0,0,0,0,0,0,0,0,0,0,0,0,0,0,0,0,0,0,0,
0,0,0,0,0,0,0,0,0,0,0,0,0,0,0,0,0,0,0,0,0,0,0,0,0,0,0,0,0,0,0,0,0,0,0,0,0,0,0,0,0,0,0,0,0,0,0,0,0,0,0,0,0,0,0,0,0,0,0,0,0,0,0,0,0,0,0,0,0,0,
0,0,0,0,0,0,0,0,0,0,0,0,0,0,0,0,0,0,0,0,0,0,0,0,0,0,0,0,0,0,0,0,0,0,0,0,0,0,0,0,0,0,0,0,0,0,0,0,0,0,0,0,0,0,0,0,0,0,0,0,0,0,0,0,0,0,0,0,0,0,
0,0,0,0,0,0,0,0,0,0,0,0,0,0,0,0,0,0,0,0,0,0,0,0,0,0,0,0,0,0,0,0,0,0,0,0,0,0,0,0,0,0,0,0,0,0,0,0,0,0,0,0,0,0,0,0,0,0,0,0,0,0,0,0,0,0,0,0,0,0,
0,0,0,0,0,0,0,0,0,0,0,0,0,0,0,0,0,0,0,0,0,0,0,0,0,0,0,0,0,0,0,0,0,0,0,0,0,0,0,0,0,0,0,0,0,0,0,0,0,0,0,0,0,0,0,0,0,0,0,0,0,0,0,0,0,0,0,0,0,0,
0,0,0,0,0,0,0,0,0,0,0,0,0,0,0,0,0,0,0,0,0,0,0,0,0,0,0,0,0,0,0,0,0,0,0,0,0,0,0,0,0,0,0,0,0,0,0,0,0,0,0,0,0,0,0,0,0,0,0,0,0,0,0,0,0,0,0,0,0,0,
0,0,0,0,0,0,0,0,0,0,0,0,0,0,0,0,0,0,0,0,0,0,0,0,0,0,0,0,0,0,0,0,0,0,0,0,0,0,0,0,0,0,0,0,0,0,0,0,0,0,0,0,0,0,0,0,0,0,0,0,0,0,0,0,0,0,0,0,0,0,
0,0,0,0,0,0,0,0,0,0,0,0,0,0,0,0,0,0,0,0,0,0,0,0,0,0,0,0,0,0,0,0,0,0,0,0,0,0,0,0,0,0,0,0,0,0,0,0,0,0,0,0,0,0,0,0,0,0,0,0,0,0,0,0,0,0,0,0,0,0,
0,0,0,0,0,0,0,0,0,0,0,0,0,0,0,0,0,0,0,0,0,0,0,0,0,0,0,0,0,0,0,0,0,0,0,0,0,0,0,0,0,0,0,0,0,0,0,0,0,0,0,0,0,0,0,0,0,0,0,0,0,0,0,0,0,0,0,0,0,0,
0,0,0,0,0,0,0,0,0,0,0,0,0,0,0,0,0,0,0,0,0,0,0,0,0,0,0,0,0,0,0,0,0,0,0,0,0,0,0,0,0,0,0,0,0,0,0,0,0,0,0,0,0,0,0,0,0,0,0,0,0,0,0,0,0,0,0,0,0,0,
0,0,0,0,0,0,0,0,0,0,0,0,0,0,0,0,0,0,0,0,0,0,0,0,0,0,0,0,0,0,0,0,0,0,0,0,0,0,0,0,0,0,0,0,0,0,0,0,0,0,0,0,0,0,0,0,0,0,0,0,0,0,0,0,0,0,0,0,0,0,
0,0,0,0,0,0,0,0,0,0,0,0,0,0,0,0,0,0,0,0,0,0,0,0,0,0,0,0,0,0,0,0,0,0,0,0,0,0,0,0,0,0,0,0,0,0,0,0,0,0,0,0,0,0,0,0,0,0,0,0,0,0,0,0,0,0,0,0,0,0,
0,0,0,0,0,0,0,0,0,0,0,0,0,0,0,0,0,0,0,0,0,0,0,0,0,0,0,0,0,0,0,0,0,0,0,0,0,0,0,0,0,0,0,0,0,0,0,0,0,0,0,0,0,0,0,0,0,0,0,0,0,0,0,0,0,0,0,0,0,0,
0,0,0,0,0,0,0,0,0,0,0,0,0,0,0,0,0,0,0,0,0,0,0,0,0,0,0,0,0,0,0,0,0,0,0,0,0,0,0,0,0,0,0,0,0,0,0,0,0,0,0,0,0,0,0,0,0,0,0,0,0,0,0,0,0,0,0,0,0,0,
0,0,0,0,0,0,0,0,0,0,0,0,0,0,0,0,0,0,0,0,0,0,0,0,0,0,0,0,0,0,0,0,0,0,0,0,0,0,0,0,0,0,0,0,0,0,0,0,0,0,0,0,0,0,0,0,0,0,0,0,0,0,0,0,0,0,0,0,0,0,
0,0,0,0,0,0,0,0,0,0,0,0,0,0,0,0,0,0,0,0,0,0,0,0,0,0,0,0,0,0,0,0,0,0,0,0,0,0,0,0,0,0,0,0,0,0,0,0,0,0,0,0,0,0,0,0,0,0,0,0,0,0,0,0,0,0,0,0,0,0,
0,0,0,0,0,0,0,0,0,0,0,0,0,0,0,0,0,0,0,0,0,0,0,0,0,0,0,0,0,0,0,0,0,0,0,0,0,0,0,0,0,0,0,0,0,0,0,0,0,0,0,0,0,0,0,0,0,0,0,0,0,0,0,0,0,0,0,0,0,0,
0,0,0,0,0,0,0,0,0,0,0,0,0,0,0,0,0,0,0,0,0,0,0,0,0,0,0,0,0,0,0,0,0,0,0,0,0,0,0,0,0,0,0,0,0,0,0,0,0,0,0,0,0,0,0,0,0,0,0,0,0,0,0,0,0,0,0,0,0,0,
0,0,0,0,0,0,0,0,0,0,0,0,0,0,0,0,0,0,0,0,0,0,0,0,0,0,0,0,0,0,0,0,0,0,0,0,0,0,0,0,0,0,0,0,0,0,0,0,0,0,0,0,0,0,0,0,0,0,0,0,0,0,0,0,0,0,0,0,0,0,
0,0,0,0,0,0,0,0,0,0,0,0,0,0,0,0,0,0,0,0,0,0,0,0,0,0,0,0,0,0,0,0,0,0,0,0,0,0,0,0,0,0,0,0,0,0,0,0,0,0,0,0,0,0,0,0,0,0,0,0,0,0,0,0,0,0,0,0,0,0,
0,0,0,0,0,0,0,0,0,0,0,0,0,0,0,0,0,0,0,0,0,0,0,0,0,0,0,0,0,0,0,0,0,0,0,0,0,0,0,0,0,0,0,0,0,0,0,0,0,0,0,0,0,0,0,0,0,0,0,0,0,0,0,0,0,0,0,0,0,0,
0,0,0,0,0,0,0,0,0,0,0,0,0,0,0,0,0,0,0,0,0,0,0,0,0,0,0,0,0,0,0,0,0,0,0,0,0,0,0,0,0,31,42,42,42,42,42,42,42,42,42,42,42,42,42,42,42,42,42,42,42,42,42,42,42,42,42,29,0,0,
0,0,0,0,0,0,0,0,0,0,0,0,0,0,0,0,0,0,0,0,0,0,0,0,0,0,0,0,0,0,0,0,0,0,0,0,0,0,0,0,31,43,48,48,48,48,48,48,48,48,48,48,48,48,48,48,48,48,48,48,48,48,48,48,48,48,48,41,29,0,
0,0,0,0,0,0,0,31,42,42,42,42,42,42,29,0,0,0,0,0,0,0,0,0,0,0,0,0,0,0,0,0,0,0,0,0,0,0,0,31,43,49,54,54,54,54,54,54,54,54,54,54,54,54,54,48,48,48,48,48,48,48,48,48,48,48,48,47,41,29,
0,0,0,0,0,0,31,43,48,48,48,48,48,48,41,29,0,0,0,0,0,0,0,0,0,0,0,0,0,0,0,0,0,0,0,0,0,0,31,43,49,55,0,0,0,0,0,0,0,0,0,0,0,0,0,48,48,48,48,48,48,48,48,48,48,48,48,47,47,41,
0,0,0,0,0,31,43,49,54,54,54,54,54,54,47,41,29,0,0,0,0,0,0,0,0,0,0,0,0,0,0,0,0,0,0,0,0,31,43,49,55,0,0,0,0,0,0,0,0,0,0,0,31,42,43,54,54,54,54,54,54,54,54,54,54,54,54,47,47,47,
0,0,0,0,31,43,49,55,0,0,0,0,0,0,53,47,41,29,0,0,0,0,0,0,0,0,0,0,0,0,0,0,0,0,0,0,31,43,49,55,0,0,0,0,0,0,0,0,0,0,0,0,37,54,55,0,0,0,0,0,0,0,0,0,0,0,0,54,47,47,
0,0,0,0,37,49,55,0,0,0,0,0,0,0,0,53,47,41,42,42,42,42,42,42,42,42,42,42,42,42,42,42,42,42,42,42,43,49,55,0,0,0,0,0,0,0,0,0,0,0,0,0,37,0,0,0,0,0,0,0,0,0,0,0,0,0,0,0,54,47,
0,0,0,0,37,55,0,0,0,0,0,0,0,0,0,0,53,47,48,48,48,48,48,48,48,48,48,48,48,48,48,48,48,48,48,48,49,55,0,0,0,0,0,0,0,0,0,0,0,0,0,0,37,0,0,0,0,0,0,0,0,0,0,0,0,0,0,0,0,54,
0,0,0,0,37,0,0,0,0,0,0,0,0,0,0,0,0,53,54,54,54,54,54,54,54,54,54,54,54,54,54,54,54,54,54,54,55,0,0,0,0,0,0,0,0,0,0,0,0,0,0,0,37,0,0,0,0,0,0,0,0,0,0,0,0,0,0,0,0,0,
0,0,0,0,37,0,0,0,0,0,0,0,0,0,0,0,0,0,0,0,0,0,0,0,0,0,0,0,0,0,0,0,0,0,0,0,0,0,0,0,0,0,0,0,0,0,0,0,0,0,0,0,37,0,0,0,0,0,0,0,0,0,0,0,0,0,0,0,0,0,
0,0,0,31,43,0,0,0,0,0,0,0,0,0,0,0,0,0,0,0,0,0,0,0,0,0,0,0,0,0,0,0,0,0,0,0,0,0,0,0,0,0,0,0,0,0,0,0,0,0,0,0,37,0,0,0,0,0,0,0,0,0,0,0,0,0,0,0,0,0,
0,0,31,43,49,0,0,0,0,0,0,0,0,0,0,0,0,0,0,0,0,0,0,0,0,0,0,0,0,0,0,0,0,0,0,0,0,0,0,0,0,0,0,0,0,0,0,0,0,0,0,0,37,0,0,0,0,0,0,0,0,0,0,0,0,0,0,0,0,0,
0,31,43,49,55,0,0,0,0,0,0,0,0,0,0,0,0,0,0,0,0,0,0,0,0,0,0,0,0,0,0,0,0,0,0,0,0,0,0,0,0,0,0,0,0,0,0,0,0,0,0,0,37,0,0,0,0,0,0,0,0,0,0,0,0,0,0,0,0,0,
42,43,49,55,0,0,0,0,0,0,0,0,0,0,0,0,0,0,0,0,0,0,0,0,0,0,0,0,0,0,0,0,0,0,0,0,0,0,0,0,0,0,0,0,0,0,0,0,0,0,0,31,43,0,0,0,0,0,0,0,0,0,0,0,0,0,0,0,0,0,
48,49,55,0,0,0,0,0,0,0,0,0,0,0,0,0,0,0,0,0,0,0,0,0,0,0,0,0,0,0,0,0,0,0,0,0,0,0,0,0,0,0,0,0,0,0,0,0,0,0,31,43,49,0,0,0,0,0,0,0,0,0,0,0,0,0,0,0,0,0,
54,55,0,0,0,0,0,0,0,0,0,0,0,0,0,0,0,0,0,0,0,0,0,0,0,0,0,0,0,0,0,0,0,0,0,0,0,0,0,0,0,0,0,0,0,0,0,0,0,31,43,49,55,0,0,0,0,0,0,0,0,0,0,0,0,0,0,0,0,0,
0,0,0,0,0,0,0,0,0,0,0,0,0,0,0,0,0,0,0,0,31,42,42,42,42,42,42,29,0,0,0,0,0,0,0,0,0,0,0,0,0,0,0,0,0,0,0,0,31,43,49,55,0,0,0,0,0,0,0,0,0,0,0,0,0,0,0,0,0,0,
0,0,0,0,0,0,0,0,0,0,0,0,0,0,0,0,0,0,31,42,43,48,48,48,48,48,47,41,42,29,0,0,0,0,0,0,0,0,0,0,0,0,0,0,0,0,0,31,43,49,55,0,0,0,0,0,0,0,0,0,0,0,0,0,0,0,0,0,0,0,
0,0,0,0,0,0,0,0,0,0,0,0,0,0,0,0,31,42,43,48,49,54,54,54,54,54,53,47,48,41,42,29,0,0,0,0,0,0,0,0,0,0,0,0,0,0,31,43,49,55,0,0,0,0,0,0,0,0,0,0,0,0,0,0,0,0,0,0,0,0,
0,0,0,0,0,31,42,42,42,42,42,42,42,42,42,42,43,48,49,54,55,0,0,0,0,0,0,53,54,47,48,41,42,42,42,42,42,42,42,42,42,42,42,42,42,42,43,49,55,0,0,0,0,0,0,0,0,0,0,0,0,0,0,0,0,0,0,0,0,0,
0,0,0,0,31,43,49,48,48,48,48,48,48,48,48,48,49,54,55,0,0,0,0,0,0,0,0,0,0,53,54,47,48,48,48,48,48,48,48,48,48,48,48,48,48,48,49,55,0,0,0,0,0,0,0,0,0,0,0,0,0,0,0,0,0,0,0,0,0,0,
0,0,0,31,43,49,55,54,54,54,54,54,54,54,54,54,55,0,0,0,0,0,0,0,0,0,0,0,0,0,0,53,54,54,54,54,54,54,54,54,54,54,54,54,54,54,55,0,0,0,0,0,0,0,0,0,0,0,0,0,0,0,0,0,0,0,0,0,0,0,
0,0,31,43,49,55,0,0,0,0,0,0,0,0,0,0,0,0,0,0,0,0,0,0,0,0,0,0,0,0,0,0,0,0,0,0,0,0,0,0,0,0,0,0,0,0,0,0,0,0,0,0,0,0,0,0,0,0,0,0,0,0,0,0,0,0,0,0,0,0,
0,31,43,49,55,0,0,0,0,0,0,0,0,0,0,0,0,0,0,0,0,0,0,0,0,0,0,0,0,0,0,0,0,0,0,0,0,0,0,0,0,0,0,0,0,0,0,0,0,0,0,0,0,0,0,0,0,0,0,0,0,0,0,0,0,0,0,0,0,0,
42,43,49,55,0,0,0,0,0,0,0,0,0,0,0,0,0,0,0,0,0,0,0,0,0,0,0,0,0,0,0,0,0,0,0,0,0,0,0,0,0,0,0,0,0,0,0,0,0,0,0,0,0,0,0,0,0,0,0,0,0,0,0,0,0,0,0,0,0,0,
48,49,55,0,0,0,0,0,0,0,0,0,0,0,0,0,0,0,0,0,0,0,0,0,0,0,0,0,0,0,0,0,0,0,0,0,0,0,0,0,0,0,0,0,0,0,0,0,0,0,0,0,0,0,0,0,0,0,0,0,0,0,0,0,0,0,0,0,0,0,
54,55,0,0,0,0,0,0,0,0,0,0,0,0,0,0,0,0,0,0,0,0,0,0,0,0,0,0,0,0,0,0,0,0,0,0,0,0,0,0,0,0,0,0,0,0,0,0,0,0,0,0,0,0,0,0,0,0,0,0,0,0,0,0,0,0,0,0,0,0,
0,0,0,0,0,0,0,0,0,0,0,0,0,0,0,0,0,0,0,0,0,0,0,0,0,0,0,0,0,0,0,0,0,0,0,0,0,0,0,0,0,0,0,0,0,0,0,0,0,0,0,0,0,0,0,0,0,0,0,0,0,0,0,0,0,0,0,0,0,0,
0,0,0,0,0,0,0,0,0,0,0,0,0,0,0,0,0,0,0,0,0,0,0,0,0,0,0,0,0,0,0,0,0,0,0,0,0,0,0,0,0,0,0,0,0,0,0,0,0,0,0,0,0,0,0,0,0,0,0,0,0,0,0,0,0,0,0,0,0,0,
0,0,0,0,0,0,0,0,0,0,0,0,0,0,0,0,0,0,0,0,0,0,0,0,0,0,0,0,0,0,0,0,0,0,0,0,0,0,0,0,0,0,0,0,0,0,0,0,0,0,0,0,0,0,0,0,0,0,0,0,0,0,0,0,0,0,0,0,0,0,
0,0,0,0,0,0,0,0,0,0,0,0,0,0,0,0,0,0,0,0,0,0,0,0,0,0,0,0,0,0,0,0,0,0,0,0,0,0,0,0,0,0,0,0,0,0,0,0,0,0,0,0,0,0,0,0,0,0,0,0,0,0,0,0,0,0,0,0,0,0,
0,0,0,0,0,0,0,0,0,0,0,0,0,0,0,0,0,0,0,0,0,0,0,0,0,0,0,0,0,0,0,0,0,0,0,0,0,0,0,0,0,0,0,0,0,0,0,0,0,0,0,0,0,0,0,0,0,0,0,0,0,0,0,0,0,0,0,0,0,0
</data>
 </layer>
 <layer id="4" name="Stair" width="70" height="70">
  <data encoding="csv">
0,0,0,0,0,0,0,0,0,0,0,0,0,0,0,0,0,0,0,0,0,0,0,0,0,0,0,0,0,0,0,0,0,0,0,0,0,0,0,0,0,0,0,0,0,0,0,0,0,0,0,0,0,0,0,0,0,0,0,0,0,0,0,0,0,0,0,0,0,0,
0,0,0,0,0,0,0,0,0,0,0,0,0,0,0,0,0,0,0,0,0,0,0,0,0,0,0,0,0,0,0,0,0,0,0,0,0,0,0,0,0,0,0,0,0,0,0,0,0,0,0,0,0,0,0,0,0,0,0,0,0,0,0,0,0,0,0,0,0,0,
0,0,0,0,0,0,0,0,0,0,0,0,0,0,0,0,0,0,0,0,0,0,0,0,0,0,0,0,0,0,0,0,0,0,0,0,0,0,0,0,0,0,0,0,0,0,0,0,0,0,0,0,0,0,0,0,0,0,0,0,0,0,0,0,0,0,0,0,0,0,
0,0,0,0,0,0,0,0,0,0,0,0,0,0,0,0,0,0,0,0,0,0,0,0,0,0,0,0,0,0,0,0,0,0,0,0,0,0,0,0,0,0,0,0,0,0,0,0,0,0,0,0,0,0,0,0,0,0,0,0,0,0,0,0,0,0,0,0,0,0,
0,0,0,0,0,0,0,0,0,0,0,0,0,0,0,0,0,0,0,0,0,0,0,0,0,0,0,0,0,0,0,0,0,0,0,0,0,0,0,0,0,0,0,0,0,0,0,0,0,0,0,0,0,0,0,0,0,0,0,0,0,0,0,0,0,0,0,0,0,0,
0,0,0,0,0,0,0,0,0,0,0,0,0,0,0,0,0,0,0,0,0,0,0,0,0,0,0,0,0,0,0,0,0,0,0,0,0,0,0,0,0,0,0,0,0,0,0,0,0,0,0,0,0,0,0,0,0,0,0,0,0,0,0,0,0,0,0,0,0,0,
0,0,0,0,0,0,0,0,0,0,0,0,0,0,0,0,0,0,0,0,0,0,0,0,0,0,0,0,0,0,0,0,0,0,0,0,0,0,0,0,0,0,0,0,0,0,0,0,0,0,0,0,0,0,0,0,0,0,0,0,0,0,0,0,0,0,0,0,0,0,
0,0,0,0,0,0,0,0,0,0,0,0,0,0,0,0,0,0,0,0,0,0,0,0,0,0,0,0,0,0,0,0,0,0,0,0,0,0,0,0,0,0,0,0,0,0,0,0,0,0,0,0,0,0,0,0,0,0,0,0,0,0,0,0,0,0,0,0,0,0,
0,0,0,0,0,0,0,0,0,0,0,0,0,0,0,0,0,0,0,0,0,0,0,0,0,0,0,0,0,0,0,0,0,0,0,0,0,0,0,0,0,0,0,0,0,0,0,0,0,0,0,0,0,0,0,0,0,0,0,0,0,0,0,0,0,0,0,0,0,0,
0,0,0,0,0,0,0,0,0,0,0,0,0,0,0,0,0,0,0,0,0,0,0,0,0,0,0,0,0,0,0,0,0,0,0,0,0,0,0,0,0,0,0,0,0,0,0,0,0,0,0,0,0,0,0,0,0,0,0,0,0,0,0,0,0,0,0,0,0,0,
0,0,0,0,0,0,0,0,0,0,0,0,0,0,0,0,0,0,0,0,0,0,0,0,0,0,0,0,0,0,0,0,0,0,0,0,0,0,0,0,0,0,0,0,0,0,0,0,0,0,0,0,0,0,0,0,0,0,0,0,0,0,0,0,0,0,0,0,0,0,
0,0,0,0,0,0,0,0,0,0,0,0,0,0,0,0,0,0,0,0,0,0,0,0,0,0,0,0,0,0,0,0,0,0,0,0,0,0,0,0,0,0,0,0,0,0,0,0,0,0,0,0,0,0,0,0,0,0,0,0,0,0,0,0,0,0,0,0,0,0,
0,0,0,0,0,0,0,0,0,0,0,0,0,0,0,0,0,0,0,0,0,0,0,0,0,0,0,0,0,0,0,0,0,0,0,0,0,0,0,0,0,0,0,0,0,0,0,0,0,0,0,0,0,0,0,0,0,0,0,0,0,0,0,0,0,0,0,0,0,0,
0,0,0,0,0,0,0,0,0,0,0,0,0,0,0,0,0,0,0,0,0,0,0,0,0,0,0,0,0,0,0,0,0,0,0,0,0,0,0,0,0,0,0,0,0,0,0,0,0,0,0,0,0,0,0,0,0,0,0,0,0,0,0,0,0,0,0,0,0,0,
0,0,0,0,0,0,0,0,0,0,0,0,0,0,0,0,0,0,0,0,0,0,0,0,0,0,0,0,0,0,0,0,0,0,0,0,0,0,0,0,0,0,0,0,0,0,0,0,0,0,0,0,0,0,0,0,0,0,0,0,0,0,0,0,0,0,0,0,0,0,
0,0,0,0,0,0,0,0,0,0,0,0,0,0,0,0,0,0,0,0,0,0,0,0,0,0,0,0,0,0,0,0,0,0,0,0,0,0,0,0,0,0,0,0,0,0,0,0,0,0,0,0,0,0,0,0,0,0,0,0,0,0,0,0,0,0,0,0,0,0,
0,0,0,0,0,0,0,0,0,0,0,0,0,0,0,0,0,0,0,0,0,0,0,0,0,0,0,0,0,0,0,0,0,0,0,0,0,0,0,0,0,0,0,0,0,0,0,0,0,0,0,0,0,0,0,0,0,0,0,0,0,0,0,0,0,0,0,0,0,0,
0,0,0,0,0,0,0,0,0,0,0,0,0,0,0,0,0,0,0,0,0,0,0,0,0,0,0,0,0,0,0,0,0,0,0,0,0,0,0,0,0,0,0,0,0,0,0,0,0,0,0,0,0,0,0,0,0,0,0,0,0,0,0,0,0,0,0,0,0,0,
0,0,0,0,0,0,0,0,0,0,0,0,0,0,0,0,0,0,0,0,0,0,0,0,0,0,0,0,0,0,0,0,0,0,0,0,0,0,0,0,0,0,0,0,0,0,0,0,0,0,0,0,0,0,0,0,0,0,0,0,0,0,0,0,0,0,0,0,0,0,
0,0,0,0,0,0,0,0,0,0,0,0,0,0,0,0,0,0,0,0,0,0,0,0,0,0,0,0,0,0,0,0,0,0,0,0,0,0,0,0,0,0,0,0,0,0,0,0,0,0,0,0,0,0,0,0,0,0,0,0,0,0,0,0,0,0,0,0,0,0,
0,0,0,0,0,0,0,0,0,0,0,0,0,0,0,0,0,0,0,0,0,0,0,0,0,0,0,0,0,0,0,0,0,0,0,0,0,0,0,0,0,0,0,0,0,0,0,0,0,0,0,0,0,0,0,0,0,0,0,0,0,0,0,0,0,0,0,0,0,0,
0,0,0,0,0,0,0,0,0,0,0,0,0,0,0,0,0,0,0,0,0,0,0,0,0,0,0,0,0,0,0,0,0,0,0,0,0,0,0,0,0,0,0,0,0,0,0,0,0,0,0,0,0,0,0,0,0,0,0,0,0,0,0,0,0,0,0,0,0,0,
0,0,0,0,0,0,0,0,0,0,0,0,0,0,0,0,0,0,0,0,0,0,0,0,0,0,0,0,0,0,0,0,0,0,0,0,0,0,0,0,0,0,0,0,0,0,0,0,0,0,0,0,0,0,0,0,0,0,0,0,0,0,0,0,0,0,0,0,0,0,
0,0,0,0,0,0,0,0,0,0,0,0,0,0,0,0,0,0,0,0,0,0,0,0,0,0,0,0,0,0,0,0,0,0,0,0,0,0,0,0,0,0,0,0,0,0,0,0,0,0,0,0,0,0,0,0,0,0,0,0,0,0,0,0,0,0,0,0,0,0,
0,0,0,0,0,0,0,0,0,0,0,0,0,0,0,0,0,0,0,0,0,0,0,0,0,0,0,0,0,0,0,0,0,0,0,0,0,0,0,0,0,0,0,0,0,0,0,0,0,0,0,0,0,0,0,0,0,0,0,0,0,0,0,0,0,0,0,0,0,0,
0,0,0,0,0,0,0,0,0,0,0,0,0,0,0,0,0,0,0,0,0,0,0,0,0,0,0,0,0,0,0,0,0,0,0,0,0,0,0,0,0,0,0,0,0,0,0,0,0,0,0,0,0,0,0,0,0,0,0,0,0,0,0,0,0,0,0,0,0,0,
0,0,0,0,0,0,0,0,0,0,0,0,0,0,0,0,0,0,0,0,0,0,0,0,0,0,0,0,0,0,0,0,0,0,0,0,0,0,0,0,0,0,0,0,0,0,0,0,0,0,0,0,0,0,0,0,0,0,0,0,0,0,0,0,0,0,0,0,0,0,
0,0,0,0,0,0,0,0,0,0,0,0,0,0,0,0,0,0,0,0,0,0,0,0,0,0,0,0,0,0,0,0,0,0,0,0,0,0,0,0,0,0,0,0,0,0,0,0,0,0,0,0,0,0,0,0,0,0,0,0,0,0,0,0,0,0,0,0,0,0,
0,0,0,0,0,0,0,0,0,0,0,0,0,0,0,0,0,0,0,0,0,0,0,0,0,0,0,0,0,0,0,0,0,0,0,0,0,0,0,0,0,0,0,0,0,0,0,0,0,0,0,0,0,0,0,0,0,0,0,0,0,0,0,0,0,0,0,0,0,0,
0,0,0,0,0,0,0,0,0,0,0,0,0,0,0,0,0,0,0,0,0,0,0,0,0,0,0,0,0,0,0,0,0,0,0,0,0,0,0,0,0,0,0,0,0,0,0,0,0,0,0,0,0,0,0,0,0,0,0,0,0,0,0,0,0,0,0,0,0,0,
0,0,0,0,0,0,0,0,0,0,0,0,0,0,0,0,0,0,0,0,0,0,0,0,0,0,0,0,0,0,0,0,0,0,0,0,0,0,0,0,0,0,0,0,0,0,0,0,0,0,0,0,0,0,0,0,0,0,0,0,0,0,0,0,0,0,0,0,0,0,
0,0,0,0,0,0,0,0,0,0,0,0,0,0,0,0,0,0,0,0,0,0,0,0,0,0,0,0,0,0,0,0,0,0,0,0,0,0,0,0,0,0,0,0,0,0,0,0,0,0,0,0,0,0,0,0,0,0,0,0,0,0,0,0,0,0,0,0,0,0,
0,0,0,0,0,0,0,0,0,0,0,0,0,0,0,0,0,0,0,0,0,0,0,0,0,0,0,0,0,0,0,0,0,0,0,0,0,0,0,0,0,0,0,0,0,0,0,0,0,0,0,0,0,0,0,0,0,0,0,0,0,0,0,0,0,0,0,0,0,0,
0,0,0,0,0,0,0,0,0,0,0,0,0,0,0,0,0,0,0,0,0,0,0,0,0,0,0,0,0,0,0,0,0,0,0,0,0,0,0,0,0,0,0,0,0,0,0,0,0,0,0,0,0,0,0,0,0,0,0,0,0,0,0,0,0,0,0,0,0,0,
0,0,0,0,0,0,0,0,0,0,0,0,0,0,0,0,0,0,0,0,0,0,0,0,0,0,0,0,0,0,0,0,0,0,0,0,0,0,0,0,0,0,0,0,0,0,0,0,0,0,0,0,0,0,0,0,0,0,0,0,0,0,0,0,0,0,0,0,0,0,
0,0,0,0,0,0,0,0,0,0,0,0,0,0,0,0,0,0,0,0,0,0,0,0,0,0,0,0,0,0,0,0,0,0,0,0,0,0,0,0,0,0,0,0,0,0,0,0,0,0,0,0,0,0,0,0,0,0,0,0,0,0,0,0,0,0,0,0,0,0,
0,0,0,0,0,0,0,0,0,0,0,0,0,0,0,0,0,0,0,0,0,0,0,0,0,0,0,0,0,0,0,0,0,0,0,0,0,0,0,0,0,0,0,0,0,0,0,0,0,0,0,0,0,0,0,0,0,0,0,0,0,0,0,0,0,0,0,0,0,0,
0,0,0,0,0,0,0,0,0,0,0,0,0,0,0,0,0,0,0,0,0,0,0,0,0,0,0,0,0,0,0,0,0,0,0,0,0,0,0,0,0,0,0,0,0,231,232,233,234,0,0,0,0,0,0,0,0,0,0,231,232,233,234,0,0,0,0,0,0,0,
0,0,0,0,0,0,0,0,0,0,0,0,0,0,0,0,0,0,0,0,0,0,0,0,0,0,0,0,0,0,0,0,0,0,0,0,0,0,0,0,0,0,0,0,0,235,236,237,238,0,0,0,0,0,0,0,0,0,0,235,236,237,238,0,0,0,0,0,0,0,
0,0,0,0,0,0,0,0,0,0,0,0,0,0,0,0,0,0,0,0,0,0,0,0,0,0,0,0,0,0,0,0,0,0,0,0,0,0,0,0,0,0,0,0,0,239,240,241,242,0,0,0,0,0,0,0,0,0,0,239,240,241,242,0,0,0,0,0,0,0,
0,0,0,0,0,0,0,0,0,0,0,0,0,0,0,0,0,0,0,0,0,0,0,0,0,0,0,0,0,0,0,0,0,0,0,0,0,0,0,0,0,0,0,0,0,243,244,245,246,0,0,0,0,0,0,0,0,0,0,243,244,245,246,0,0,0,0,0,0,0,
0,0,0,0,0,0,0,0,0,0,0,0,0,0,0,0,0,0,0,0,0,0,0,0,0,0,0,0,0,0,0,0,0,0,0,0,0,0,0,0,0,0,0,0,0,247,248,249,250,0,0,0,0,0,0,0,0,0,0,243,240,241,246,0,0,0,0,0,0,0,
0,0,0,0,0,0,0,0,0,0,0,0,0,0,0,0,0,0,0,0,0,0,0,0,0,0,0,0,0,0,0,0,0,0,0,0,0,0,0,0,0,0,0,0,0,0,0,0,0,0,0,0,0,0,0,0,0,0,0,243,244,245,246,0,0,0,0,0,0,0,
0,0,0,0,0,0,0,0,0,0,0,0,0,0,0,0,0,0,0,0,0,0,0,0,0,0,0,0,0,0,0,0,0,0,0,0,0,0,0,0,0,0,0,0,0,0,0,0,0,0,0,0,0,0,0,0,0,0,0,243,240,241,246,0,0,0,0,0,0,0,
0,0,0,0,0,0,0,0,0,0,0,0,0,0,0,0,0,0,0,0,0,0,0,0,0,0,0,0,0,0,0,0,0,0,0,0,0,0,0,0,0,0,0,0,0,0,0,0,0,0,0,0,0,0,0,0,0,0,0,247,248,249,250,0,0,0,0,0,0,0,
0,0,0,0,0,0,0,0,0,0,0,0,0,0,0,0,0,0,0,0,0,0,0,0,0,0,0,0,0,0,0,0,0,0,0,0,0,0,0,0,0,0,0,0,0,0,0,0,0,0,0,0,0,0,0,0,0,0,0,0,0,0,0,0,0,0,0,0,0,0,
0,0,0,0,0,0,0,0,0,0,0,0,0,0,0,0,0,0,0,0,0,0,0,0,0,0,0,0,0,0,0,0,0,0,0,0,0,0,0,0,0,0,0,0,0,0,0,0,0,0,0,0,0,0,0,0,0,0,0,0,0,0,0,0,0,0,0,0,0,0,
0,0,0,0,0,0,0,0,0,0,0,0,0,0,0,0,0,0,0,0,0,0,0,0,0,0,0,0,0,0,0,0,0,0,0,0,0,0,0,0,0,0,0,0,0,0,0,0,0,0,0,0,0,0,0,0,0,0,0,0,0,0,0,0,0,0,0,0,0,0,
0,0,0,0,0,0,0,0,0,0,0,0,0,0,0,0,0,0,0,0,0,0,0,0,0,0,0,0,0,0,0,0,0,0,0,0,0,0,0,0,0,0,0,0,0,0,0,0,0,0,0,0,0,0,0,0,0,0,0,0,0,0,0,0,0,0,0,0,0,0,
0,0,0,0,0,0,0,0,0,0,0,0,0,0,0,0,0,0,0,0,0,0,0,0,0,0,0,0,0,0,0,0,0,0,0,0,0,0,0,0,0,0,0,0,0,0,0,0,0,0,0,0,0,0,0,0,0,0,0,0,0,0,0,0,0,0,0,0,0,0,
0,0,0,0,0,0,0,0,0,0,0,0,0,0,0,0,0,0,0,0,0,0,0,0,0,0,0,0,0,0,0,0,0,0,0,0,0,0,0,0,0,0,0,0,0,0,0,0,0,0,0,0,0,0,0,0,0,0,0,0,0,0,0,0,0,0,0,0,0,0,
0,0,0,0,0,0,0,0,0,0,0,0,0,0,0,0,0,0,0,0,0,0,0,0,0,0,0,0,0,0,0,0,0,0,0,0,0,0,0,0,0,0,0,0,0,0,0,0,0,0,0,0,0,0,0,0,0,0,0,0,0,0,0,0,0,0,0,0,0,0,
0,0,0,0,0,0,0,0,0,0,0,0,0,0,0,0,0,0,0,0,0,0,0,0,0,0,0,0,0,0,0,0,0,0,0,0,0,0,0,0,0,0,0,0,0,0,0,0,0,0,0,0,0,0,0,0,0,0,0,0,0,0,0,0,0,0,0,0,0,0,
0,0,0,0,0,0,0,0,0,0,0,0,0,0,0,0,0,0,0,0,0,0,231,232,233,234,0,0,0,0,0,0,0,0,0,0,0,0,0,0,0,0,0,0,0,0,0,0,0,0,0,0,0,0,0,0,0,0,0,0,0,0,0,0,0,0,0,0,0,0,
0,0,0,0,0,0,0,0,0,0,0,0,0,0,0,0,0,0,0,0,0,0,235,236,237,238,0,0,0,0,0,0,0,0,0,0,0,0,0,0,0,0,0,0,0,0,0,0,0,0,0,0,0,0,0,0,0,0,0,0,0,0,0,0,0,0,0,0,0,0,
0,0,0,0,0,0,0,0,0,0,0,0,0,0,0,0,0,0,0,0,0,0,239,240,241,242,0,0,0,0,0,0,0,0,0,0,0,0,0,0,0,0,0,0,0,0,0,0,0,0,0,0,0,0,0,0,0,0,0,0,0,0,0,0,0,0,0,0,0,0,
0,0,0,0,0,0,0,0,0,0,0,0,0,0,0,0,0,0,0,0,0,0,243,244,245,246,0,0,0,0,0,0,0,0,0,0,0,0,0,0,0,0,0,0,0,0,0,0,0,0,0,0,0,0,0,0,0,0,0,0,0,0,0,0,0,0,0,0,0,0,
0,0,0,0,0,0,0,0,0,0,0,0,0,0,0,0,0,0,0,0,0,0,247,248,249,250,0,0,0,0,0,0,0,0,0,0,0,0,0,0,0,0,0,0,0,0,0,0,0,0,0,0,0,0,0,0,0,0,0,0,0,0,0,0,0,0,0,0,0,0,
0,0,0,0,0,0,0,0,0,0,0,0,0,0,0,0,0,0,0,0,0,0,0,0,0,0,0,0,0,0,0,0,0,0,0,0,0,0,0,0,0,0,0,0,0,0,0,0,0,0,0,0,0,0,0,0,0,0,0,0,0,0,0,0,0,0,0,0,0,0,
0,0,0,0,0,0,0,0,0,0,0,0,0,0,0,0,0,0,0,0,0,0,0,0,0,0,0,0,0,0,0,0,0,0,0,0,0,0,0,0,0,0,0,0,0,0,0,0,0,0,0,0,0,0,0,0,0,0,0,0,0,0,0,0,0,0,0,0,0,0,
0,0,0,0,0,0,0,0,0,0,0,0,0,0,0,0,0,0,0,0,0,0,0,0,0,0,0,0,0,0,0,0,0,0,0,0,0,0,0,0,0,0,0,0,0,0,0,0,0,0,0,0,0,0,0,0,0,0,0,0,0,0,0,0,0,0,0,0,0,0,
0,0,0,0,0,0,0,0,0,0,0,0,0,0,0,0,0,0,0,0,0,0,0,0,0,0,0,0,0,0,0,0,0,0,0,0,0,0,0,0,0,0,0,0,0,0,0,0,0,0,0,0,0,0,0,0,0,0,0,0,0,0,0,0,0,0,0,0,0,0,
0,0,0,0,0,0,0,0,0,0,0,0,0,0,0,0,0,0,0,0,0,0,0,0,0,0,0,0,0,0,0,0,0,0,0,0,0,0,0,0,0,0,0,0,0,0,0,0,0,0,0,0,0,0,0,0,0,0,0,0,0,0,0,0,0,0,0,0,0,0,
0,0,0,0,0,0,0,0,0,0,0,0,0,0,0,0,0,0,0,0,0,0,0,0,0,0,0,0,0,0,0,0,0,0,0,0,0,0,0,0,0,0,0,0,0,0,0,0,0,0,0,0,0,0,0,0,0,0,0,0,0,0,0,0,0,0,0,0,0,0,
0,0,0,0,0,0,0,0,0,0,0,0,0,0,0,0,0,0,0,0,0,0,0,0,0,0,0,0,0,0,0,0,0,0,0,0,0,0,0,0,0,0,0,0,0,0,0,0,0,0,0,0,0,0,0,0,0,0,0,0,0,0,0,0,0,0,0,0,0,0,
0,0,0,0,0,0,0,0,0,0,0,0,0,0,0,0,0,0,0,0,0,0,0,0,0,0,0,0,0,0,0,0,0,0,0,0,0,0,0,0,0,0,0,0,0,0,0,0,0,0,0,0,0,0,0,0,0,0,0,0,0,0,0,0,0,0,0,0,0,0,
0,0,0,0,0,0,0,0,0,0,0,0,0,0,0,0,0,0,0,0,0,0,0,0,0,0,0,0,0,0,0,0,0,0,0,0,0,0,0,0,0,0,0,0,0,0,0,0,0,0,0,0,0,0,0,0,0,0,0,0,0,0,0,0,0,0,0,0,0,0,
0,0,0,0,0,0,0,0,0,0,0,0,0,0,0,0,0,0,0,0,0,0,0,0,0,0,0,0,0,0,0,0,0,0,0,0,0,0,0,0,0,0,0,0,0,0,0,0,0,0,0,0,0,0,0,0,0,0,0,0,0,0,0,0,0,0,0,0,0,0,
0,0,0,0,0,0,0,0,0,0,0,0,0,0,0,0,0,0,0,0,0,0,0,0,0,0,0,0,0,0,0,0,0,0,0,0,0,0,0,0,0,0,0,0,0,0,0,0,0,0,0,0,0,0,0,0,0,0,0,0,0,0,0,0,0,0,0,0,0,0,
0,0,0,0,0,0,0,0,0,0,0,0,0,0,0,0,0,0,0,0,0,0,0,0,0,0,0,0,0,0,0,0,0,0,0,0,0,0,0,0,0,0,0,0,0,0,0,0,0,0,0,0,0,0,0,0,0,0,0,0,0,0,0,0,0,0,0,0,0,0
</data>
 </layer>
 <objectgroup id="14" name="Shadow" visible="0">
  <object id="872" gid="256" x="27.3333" y="3554.67" width="192" height="64"/>
  <object id="873" gid="256" x="65.3333" y="3825.33" width="192" height="64"/>
  <object id="875" gid="256" x="-35.3333" y="3918.67" width="192" height="64"/>
  <object id="876" gid="256" x="1148" y="4206" width="192" height="64"/>
  <object id="877" gid="256" x="1042.67" y="4454" width="192" height="64"/>
  <object id="878" gid="256" x="864" y="4136.67" width="192" height="64"/>
  <object id="879" gid="256" x="2046.67" y="4490.67" width="192" height="64"/>
  <object id="880" gid="256" x="2347.33" y="3885.33" width="192" height="64"/>
  <object id="881" gid="255" x="1873.33" y="4438.67" width="192" height="64"/>
  <object id="882" gid="256" x="1104" y="4336" width="192" height="64"/>
  <object id="883" gid="255" x="1135.33" y="4052" width="192" height="64"/>
  <object id="884" gid="255" x="1791.33" y="4303.33" width="192" height="64"/>
  <object id="885" gid="255" x="1914.67" y="4207.33" width="192" height="64"/>
  <object id="886" gid="255" x="1862.67" y="4032" width="192" height="64"/>
  <object id="887" gid="255" x="976" y="4278.67" width="192" height="64"/>
  <object id="888" gid="255" x="821.333" y="4357.33" width="192" height="64"/>
  <object id="889" gid="255" x="3230" y="2439.33" width="192" height="64"/>
  <object id="890" gid="255" x="3148.67" y="2302" width="192" height="64"/>
  <object id="891" gid="255" x="3386.67" y="2294.67" width="192" height="64"/>
  <object id="892" gid="256" x="3409" y="2448.33" width="192" height="64"/>
  <object id="893" gid="256" x="3284.67" y="2178" width="192" height="64"/>
  <object id="894" gid="256" x="3512" y="2339.33" width="192" height="64"/>
  <object id="895" gid="255" x="3132.33" y="2706.67" width="192" height="64"/>
  <object id="896" gid="256" x="2753" y="2709.67" width="192" height="64"/>
  <object id="897" gid="256" x="3486" y="3857" width="192" height="64"/>
  <object id="898" gid="256" x="3352" y="3876.5" width="192" height="64"/>
  <object id="899" gid="256" x="3253" y="3993.5" width="192" height="64"/>
  <object id="900" gid="256" x="3166.5" y="4078.5" width="192" height="64"/>
  <object id="901" gid="256" x="3404.5" y="3559" width="192" height="64"/>
  <object id="902" gid="256" x="3930.5" y="4258.5" width="192" height="64"/>
  <object id="903" gid="256" x="4041.5" y="3974.5" width="192" height="64"/>
  <object id="904" gid="256" x="4129.5" y="3655.5" width="192" height="64"/>
  <object id="905" gid="256" x="4272" y="3331.5" width="192" height="64"/>
  <object id="906" gid="256" x="4001" y="2845.5" width="192" height="64"/>
  <object id="907" gid="256" x="3374" y="3180.5" width="192" height="64"/>
  <object id="908" gid="255" x="3393" y="3018.5" width="192" height="64"/>
  <object id="909" gid="255" x="3404.5" y="2858.5" width="192" height="64"/>
  <object id="910" gid="255" x="3611" y="2836" width="192" height="64"/>
  <object id="911" gid="256" x="3526" y="2785.5" width="192" height="64"/>
  <object id="912" gid="255" x="4168" y="3065" width="192" height="64"/>
  <object id="913" gid="255" x="4267" y="3202.5" width="192" height="64"/>
  <object id="914" gid="255" x="4149" y="3430" width="192" height="64"/>
  <object id="915" gid="255" x="3081.5" y="3938.5" width="192" height="64"/>
  <object id="916" gid="255" x="4386" y="3130" width="192" height="64"/>
  <object id="917" gid="255" x="4232.67" y="3558.67" width="192" height="64"/>
  <object id="918" gid="255" x="3994.5" y="2309.5" width="192" height="64"/>
  <object id="919" gid="255" x="4083.5" y="2434.5" width="192" height="64"/>
  <object id="920" gid="256" x="4298" y="2484.5" width="192" height="64"/>
  <object id="921" gid="256" x="4355" y="2383" width="192" height="64"/>
  <object id="922" gid="255" x="4216" y="2352" width="192" height="64"/>
  <object id="924" gid="255" x="3822" y="1836.5" width="192" height="64"/>
  <object id="925" gid="255" x="3737.5" y="1709.5" width="192" height="64"/>
  <object id="926" gid="255" x="4075.5" y="1921.5" width="192" height="64"/>
  <object id="927" gid="256" x="3992" y="1894" width="192" height="64"/>
  <object id="928" gid="256" x="3557" y="1743" width="192" height="64"/>
  <object id="929" gid="255" x="3399" y="1666.5" width="192" height="64"/>
  <object id="930" gid="255" x="3299.5" y="1557.5" width="192" height="64"/>
  <object id="931" gid="256" x="3754" y="1249.33" width="192" height="64"/>
  <object id="932" gid="255" x="3934.67" y="1308" width="192" height="64"/>
  <object id="933" gid="256" x="3935.33" y="1526" width="192" height="64"/>
  <object id="934" gid="255" x="4173.33" y="1317.33" width="192" height="64"/>
  <object id="935" gid="256" x="4339.33" y="1384.67" width="192" height="64"/>
  <object id="936" gid="256" x="2704" y="2433.33" width="192" height="64"/>
  <object id="937" gid="256" x="2630.67" y="2273.33" width="192" height="64"/>
  <object id="938" gid="256" x="2401.33" y="2110" width="192" height="64"/>
  <object id="939" gid="256" x="2177.33" y="2412.67" width="192" height="64"/>
  <object id="940" gid="256" x="2353.33" y="2462" width="192" height="64"/>
  <object id="941" gid="256" x="2294" y="2691.33" width="192" height="64"/>
  <object id="942" gid="256" x="2195.33" y="2633.33" width="192" height="64"/>
  <object id="943" gid="256" x="2072.67" y="2756.67" width="192" height="64"/>
  <object id="944" gid="256" x="1918.67" y="2806" width="192" height="64"/>
  <object id="945" gid="256" x="1534" y="2381.33" width="192" height="64"/>
  <object id="946" gid="256" x="1502.67" y="2772.67" width="192" height="64"/>
  <object id="947" gid="256" x="1641.33" y="2640.67" width="192" height="64"/>
  <object id="948" gid="256" x="1350" y="2814.67" width="192" height="64"/>
  <object id="949" gid="256" x="1269.33" y="2745.33" width="192" height="64"/>
  <object id="950" gid="256" x="1127.33" y="2816" width="192" height="64"/>
  <object id="951" gid="256" x="1138" y="2460.67" width="192" height="64"/>
  <object id="952" gid="255" x="1718" y="2805.33" width="192" height="64"/>
  <object id="953" gid="255" x="2483.33" y="2496.67" width="192" height="64"/>
  <object id="954" gid="255" x="2221.33" y="2275.33" width="192" height="64"/>
  <object id="955" gid="255" x="1006.67" y="2696.67" width="192" height="64"/>
  <object id="964" gid="256" x="711.333" y="2559.33" width="192" height="64"/>
  <object id="965" gid="256" x="552.667" y="2444.67" width="192" height="64"/>
  <object id="966" gid="256" x="447.333" y="2530.67" width="192" height="64"/>
  <object id="967" gid="256" x="258" y="2647.33" width="192" height="64"/>
  <object id="968" gid="256" x="740.667" y="1990.67" width="192" height="64"/>
  <object id="969" gid="256" x="597.333" y="2002.67" width="192" height="64"/>
  <object id="970" gid="256" x="71.3333" y="3095.33" width="192" height="64"/>
  <object id="971" gid="256" x="-27.3333" y="3209.33" width="192" height="64"/>
  <object id="972" gid="256" x="-32" y="2847.33" width="192" height="64"/>
  <object id="973" gid="255" x="66.6667" y="2912" width="192" height="64"/>
  <object id="974" gid="255" x="-38" y="3078" width="192" height="64"/>
  <object id="975" gid="255" x="-11.3333" y="2694.67" width="192" height="64"/>
  <object id="976" gid="255" x="287.333" y="2500" width="192" height="64"/>
  <object id="977" gid="255" x="130" y="2634" width="192" height="64"/>
  <object id="978" gid="255" x="195.333" y="2374" width="192" height="64"/>
  <object id="979" gid="256" x="57.3333" y="2431.33" width="192" height="64"/>
  <object id="980" gid="256" x="-61.3333" y="2276" width="192" height="64"/>
  <object id="981" gid="255" x="423.333" y="1939.33" width="192" height="64"/>
  <object id="982" gid="255" x="217.333" y="1893.33" width="192" height="64"/>
  <object id="983" gid="255" x="22" y="2204" width="192" height="64"/>
  <object id="984" gid="255" x="209.333" y="2122.67" width="192" height="64"/>
  <object id="985" gid="256" x="438" y="1726.67" width="192" height="64"/>
  <object id="986" gid="255" x="348" y="1646" width="192" height="64"/>
  <object id="987" gid="255" x="488.667" y="1586" width="192" height="64"/>
  <object id="988" gid="256" x="559.333" y="1213.33" width="192" height="64"/>
  <object id="989" gid="256" x="457.333" y="1328" width="192" height="64"/>
  <object id="990" gid="256" x="390" y="1427.33" width="192" height="64"/>
  <object id="991" gid="256" x="504" y="890.667" width="192" height="64"/>
  <object id="992" gid="256" x="545.333" y="697.333" width="192" height="64"/>
  <object id="993" gid="256" x="640" y="581.333" width="192" height="64"/>
  <object id="995" gid="256" x="900" y="582" width="192" height="64"/>
  <object id="996" gid="255" x="730" y="519.333" width="192" height="64"/>
  <object id="997" gid="255" x="183.333" y="1130.67" width="192" height="64"/>
  <object id="998" gid="255" x="-3.33333" y="1208" width="192" height="64"/>
  <object id="999" gid="255" x="378.667" y="643.333" width="192" height="64"/>
  <object id="1000" gid="255" x="126.667" y="803.333" width="192" height="64"/>
  <object id="1001" gid="256" x="232" y="695.333" width="192" height="64"/>
  <object id="1002" gid="256" x="328.667" y="1051.33" width="192" height="64"/>
  <object id="1003" gid="256" x="1371.33" y="546" width="192" height="64"/>
  <object id="1004" gid="255" x="1130.67" y="466" width="192" height="64"/>
  <object id="1005" gid="256" x="1000.67" y="463.333" width="192" height="64"/>
  <object id="1006" gid="255" x="1265.33" y="382.667" width="192" height="64"/>
  <object id="1007" gid="255" x="1600.67" y="494" width="192" height="64"/>
  <object id="1008" gid="255" x="1733.33" y="407.333" width="192" height="64"/>
  <object id="1009" gid="255" x="1892" y="497.333" width="192" height="64"/>
  <object id="1010" gid="255" x="2009.33" y="447.333" width="192" height="64"/>
  <object id="1011" gid="256" x="2174" y="475.333" width="192" height="64"/>
  <object id="1012" gid="256" x="2271.33" y="388.667" width="192" height="64"/>
  <object id="1013" gid="255" x="2448.67" y="428" width="192" height="64"/>
  <object id="1014" gid="255" x="600.667" y="379.333" width="192" height="64"/>
  <object id="1015" gid="256" x="1416.67" y="420" width="192" height="64"/>
  <object id="1016" gid="255" x="2744.67" y="464.667" width="192" height="64"/>
  <object id="1017" gid="255" x="2582" y="347.333" width="192" height="64"/>
  <object id="1018" gid="255" x="2868" y="372.667" width="192" height="64"/>
  <object id="1019" gid="255" x="3044.67" y="365.333" width="192" height="64"/>
  <object id="1020" gid="255" x="3272.67" y="441.333" width="192" height="64"/>
  <object id="1021" gid="256" x="3172.67" y="392.667" width="192" height="64"/>
  <object id="1022" gid="256" x="3440.67" y="500" width="192" height="64"/>
  <object id="1023" gid="256" x="3538.67" y="409.333" width="192" height="64"/>
  <object id="1024" gid="256" x="3919.33" y="594" width="192" height="64"/>
  <object id="1025" gid="256" x="4072" y="606" width="192" height="64"/>
  <object id="1026" gid="255" x="3639.33" y="433.333" width="192" height="64"/>
  <object id="1027" gid="255" x="3724" y="556" width="192" height="64"/>
  <object id="1028" gid="255" x="3856" y="470" width="192" height="64"/>
  <object id="1029" gid="255" x="4263.33" y="661.333" width="192" height="64"/>
  <object id="1030" gid="255" x="4220" y="570.667" width="192" height="64"/>
  <object id="1031" gid="256" x="4364.67" y="630" width="192" height="64"/>
  <object id="1032" gid="255" x="2662.67" y="157.333" width="192" height="64"/>
  <object id="1033" gid="255" x="2354.5" y="304.5" width="192" height="64"/>
 </objectgroup>
 <objectgroup id="5" name="Object">
  <object id="15" gid="60" x="1865" y="4014" width="192" height="256"/>
  <object id="16" gid="59" x="1951.33" y="4138" width="192" height="256"/>
  <object id="17" gid="61" x="1983.33" y="3916" width="192" height="256"/>
  <object id="18" gid="61" x="2114.67" y="4194.67" width="192" height="256"/>
  <object id="19" gid="60" x="2085.33" y="4056" width="192" height="256"/>
  <object id="22" gid="62" x="2212" y="4078" width="192" height="256"/>
  <object id="23" gid="60" x="1794.5" y="4288.66" width="192" height="256"/>
  <object id="24" gid="59" x="1880.83" y="4412.66" width="192" height="256"/>
  <object id="25" gid="61" x="1912.83" y="4190.66" width="192" height="256"/>
  <object id="26" gid="61" x="2044.17" y="4469.34" width="192" height="256"/>
  <object id="27" gid="60" x="2014.83" y="4330.66" width="192" height="256"/>
  <object id="28" gid="62" x="2141.5" y="4352.66" width="192" height="256"/>
  <object id="35" gid="60" x="850.5" y="3994.66" width="192" height="256"/>
  <object id="36" gid="59" x="975.497" y="4106.66" width="192" height="256"/>
  <object id="37" gid="61" x="968.83" y="3896.66" width="192" height="256"/>
  <object id="38" gid="61" x="1144.17" y="4180.67" width="192" height="256"/>
  <object id="39" gid="60" x="1136.16" y="4028.66" width="192" height="256"/>
  <object id="40" gid="62" x="1101.5" y="3845.33" width="192" height="256"/>
  <object id="41" gid="60" x="742.5" y="4218.66" width="192" height="256"/>
  <object id="42" gid="59" x="828.83" y="4342.66" width="192" height="256"/>
  <object id="43" gid="61" x="860.83" y="4120.66" width="192" height="256"/>
  <object id="44" gid="61" x="1041.5" y="4431.34" width="192" height="256"/>
  <object id="45" gid="60" x="977.497" y="4256.66" width="192" height="256"/>
  <object id="46" gid="62" x="1096.17" y="4313.33" width="192" height="256"/>
  <object id="53" gid="60" x="356.5" y="3954.66" width="192" height="256"/>
  <object id="54" gid="59" x="442.83" y="4078.66" width="192" height="256"/>
  <object id="55" gid="61" x="474.83" y="3856.66" width="192" height="256"/>
  <object id="56" gid="61" x="606.17" y="4135.34" width="192" height="256"/>
  <object id="57" gid="60" x="576.83" y="3996.66" width="192" height="256"/>
  <object id="58" gid="62" x="703.5" y="4018.66" width="192" height="256"/>
  <object id="59" gid="60" x="206.5" y="4192.66" width="192" height="256"/>
  <object id="60" gid="59" x="292.83" y="4316.66" width="192" height="256"/>
  <object id="61" gid="61" x="324.83" y="4094.66" width="192" height="256"/>
  <object id="62" gid="61" x="456.17" y="4373.34" width="192" height="256"/>
  <object id="63" gid="60" x="426.83" y="4234.66" width="192" height="256"/>
  <object id="64" gid="62" x="553.5" y="4256.66" width="192" height="256"/>
  <object id="71" gid="60" x="532.5" y="4408.66" width="192" height="256"/>
  <object id="72" gid="59" x="618.83" y="4532.66" width="192" height="256"/>
  <object id="73" gid="61" x="650.83" y="4310.66" width="192" height="256"/>
  <object id="74" gid="61" x="1090.17" y="4537.34" width="192" height="256"/>
  <object id="75" gid="60" x="752.83" y="4450.66" width="192" height="256"/>
  <object id="76" gid="62" x="914.167" y="4506" width="192" height="256"/>
  <object id="77" gid="60" x="-57.5" y="4346.66" width="192" height="256"/>
  <object id="78" gid="59" x="28.83" y="4470.66" width="192" height="256"/>
  <object id="79" gid="61" x="60.83" y="4248.66" width="192" height="256"/>
  <object id="80" gid="61" x="192.17" y="4527.34" width="192" height="256"/>
  <object id="81" gid="60" x="162.83" y="4388.66" width="192" height="256"/>
  <object id="82" gid="62" x="289.5" y="4410.66" width="192" height="256"/>
  <object id="83" gid="60" x="210.5" y="4530.66" width="192" height="256"/>
  <object id="84" gid="59" x="2212.83" y="4536.66" width="192" height="256"/>
  <object id="85" gid="61" x="328.83" y="4432.66" width="192" height="256"/>
  <object id="86" gid="61" x="1908.17" y="4551.34" width="192" height="256"/>
  <object id="87" gid="60" x="430.83" y="4572.66" width="192" height="256"/>
  <object id="88" gid="62" x="777.5" y="4577.33" width="192" height="256"/>
  <object id="89" gid="60" x="2228.5" y="3950.66" width="192" height="256"/>
  <object id="90" gid="59" x="2345.13" y="4132.24" width="192" height="256"/>
  <object id="91" gid="61" x="2348.83" y="3864.66" width="192" height="256"/>
  <object id="92" gid="61" x="2478.17" y="4131.34" width="192" height="256"/>
  <object id="93" gid="60" x="2448.83" y="3992.66" width="192" height="256"/>
  <object id="94" gid="62" x="2575.5" y="4014.66" width="192" height="256"/>
  <object id="95" gid="60" x="2234.5" y="4248.66" width="192" height="256"/>
  <object id="96" gid="59" x="2320.83" y="4372.66" width="192" height="256"/>
  <object id="97" gid="61" x="2195.25" y="4423.39" width="192" height="256"/>
  <object id="98" gid="61" x="2484.17" y="4429.34" width="192" height="256"/>
  <object id="99" gid="60" x="2454.83" y="4290.66" width="192" height="256"/>
  <object id="100" gid="62" x="2581.5" y="4312.66" width="192" height="256"/>
  <object id="101" gid="60" x="2636.5" y="3944.66" width="192" height="256"/>
  <object id="102" gid="59" x="2721.5" y="4017.33" width="192" height="256"/>
  <object id="103" gid="61" x="2758.83" y="3880.66" width="192" height="256"/>
  <object id="105" gid="60" x="2856.83" y="3986.66" width="192" height="256"/>
  <object id="106" gid="62" x="2983.5" y="4008.66" width="192" height="256"/>
  <object id="112" gid="62" x="2996.17" y="4234.66" width="192" height="256"/>
  <object id="125" gid="60" x="3000.5" y="3790.66" width="192" height="256"/>
  <object id="126" gid="59" x="3086.83" y="3914.66" width="192" height="256"/>
  <object id="127" gid="61" x="3118.83" y="3692.66" width="192" height="256"/>
  <object id="128" gid="61" x="3250.17" y="3971.34" width="192" height="256"/>
  <object id="129" gid="60" x="3220.83" y="3832.66" width="192" height="256"/>
  <object id="130" gid="62" x="3347.5" y="3854.66" width="192" height="256"/>
  <object id="131" gid="60" x="3046.5" y="4156.66" width="192" height="256"/>
  <object id="132" gid="59" x="3108.83" y="4239.33" width="192" height="256"/>
  <object id="133" gid="61" x="3164.83" y="4058.66" width="192" height="256"/>
  <object id="137" gid="60" x="3280.5" y="3638.66" width="192" height="256"/>
  <object id="138" gid="59" x="3366.83" y="3762.66" width="192" height="256"/>
  <object id="139" gid="61" x="3398.83" y="3540.66" width="192" height="256"/>
  <object id="140" gid="61" x="3482.17" y="3835.34" width="192" height="256"/>
  <object id="148" gid="62" x="4043.5" y="3952.66" width="192" height="256"/>
  <object id="149" gid="60" x="4145.83" y="4003.99" width="192" height="256"/>
  <object id="150" gid="59" x="4094.83" y="3854.66" width="192" height="256"/>
  <object id="151" gid="61" x="4126.83" y="3632.66" width="192" height="256"/>
  <object id="152" gid="61" x="4258.17" y="3911.34" width="192" height="256"/>
  <object id="153" gid="60" x="4228.83" y="3772.66" width="192" height="256"/>
  <object id="154" gid="62" x="4355.5" y="3794.66" width="192" height="256"/>
  <object id="155" gid="60" x="4154.5" y="3410.66" width="192" height="256"/>
  <object id="156" gid="59" x="4240.83" y="3534.66" width="192" height="256"/>
  <object id="157" gid="61" x="4272.83" y="3312.66" width="192" height="256"/>
  <object id="158" gid="61" x="4422.84" y="3606.01" width="192" height="256"/>
  <object id="159" gid="60" x="4374.83" y="3452.66" width="192" height="256"/>
  <object id="161" gid="60" x="4174.5" y="3042.66" width="192" height="256"/>
  <object id="162" gid="59" x="4260.83" y="3166.66" width="192" height="256"/>
  <object id="163" gid="61" x="4292.83" y="2944.66" width="192" height="256"/>
  <object id="164" gid="61" x="4380.84" y="3188.67" width="192" height="256"/>
  <object id="165" gid="60" x="4394.83" y="3084.66" width="192" height="256"/>
  <object id="173" gid="60" x="4082.5" y="4166.66" width="192" height="256"/>
  <object id="174" gid="59" x="4168.83" y="4290.66" width="192" height="256"/>
  <object id="175" gid="61" x="4200.83" y="4068.66" width="192" height="256"/>
  <object id="176" gid="61" x="4332.17" y="4347.34" width="192" height="256"/>
  <object id="177" gid="60" x="4302.83" y="4208.66" width="192" height="256"/>
  <object id="178" gid="62" x="4316.5" y="4022.66" width="192" height="256"/>
  <object id="191" gid="60" x="3814.5" y="4334.66" width="192" height="256"/>
  <object id="192" gid="59" x="3900.83" y="4458.66" width="192" height="256"/>
  <object id="193" gid="61" x="3932.83" y="4236.66" width="192" height="256"/>
  <object id="194" gid="61" x="4064.17" y="4515.34" width="192" height="256"/>
  <object id="195" gid="60" x="4034.83" y="4376.66" width="192" height="256"/>
  <object id="196" gid="62" x="4161.5" y="4398.66" width="192" height="256"/>
  <object id="197" gid="60" x="3409.17" y="4433.33" width="192" height="256"/>
  <object id="198" gid="59" x="3495.5" y="4557.33" width="192" height="256"/>
  <object id="200" gid="61" x="3658.84" y="4614.01" width="192" height="256"/>
  <object id="201" gid="60" x="3629.5" y="4475.33" width="192" height="256"/>
  <object id="202" gid="62" x="3756.17" y="4497.33" width="192" height="256"/>
  <object id="203" gid="60" x="2925.16" y="4493.99" width="192" height="256"/>
  <object id="204" gid="59" x="3026.16" y="4599.99" width="192" height="256"/>
  <object id="206" gid="61" x="3178.5" y="4637.67" width="192" height="256"/>
  <object id="207" gid="60" x="3160.16" y="4517.99" width="192" height="256"/>
  <object id="208" gid="62" x="3286.83" y="4539.99" width="192" height="256"/>
  <object id="221" gid="60" x="2439.83" y="4483.99" width="192" height="256"/>
  <object id="222" gid="59" x="2526.16" y="4607.99" width="192" height="256"/>
  <object id="223" gid="61" x="2558.16" y="4385.99" width="192" height="256"/>
  <object id="224" gid="61" x="2752" y="2688" width="192" height="256"/>
  <object id="225" gid="60" x="2660.16" y="4525.99" width="192" height="256"/>
  <object id="226" gid="62" x="2786.83" y="4547.99" width="192" height="256"/>
  <object id="229" gid="61" x="20.8906" y="3534.26" width="192" height="256"/>
  <object id="230" gid="61" x="-38.4361" y="3897.94" width="192" height="256"/>
  <object id="231" gid="60" x="-61.7761" y="3783.93" width="192" height="256"/>
  <object id="232" gid="62" x="64.8939" y="3805.93" width="192" height="256"/>
  <object id="237" gid="61" x="-33.1701" y="2827.16" width="192" height="256"/>
  <object id="238" gid="61" x="-27.8301" y="3188.84" width="192" height="256"/>
  <object id="239" gid="60" x="-57.1701" y="3050.16" width="192" height="256"/>
  <object id="240" gid="62" x="69.5" y="3072.16" width="192" height="256"/>
  <object id="241" gid="60" x="68.5607" y="2889.73" width="192" height="256"/>
  <object id="242" gid="59" x="-7.16995" y="2673.49" width="192" height="256"/>
  <object id="243" gid="61" x="56.1633" y="2405.16" width="192" height="256"/>
  <object id="244" gid="61" x="130.837" y="2771.51" width="192" height="256"/>
  <object id="245" gid="60" x="126.83" y="2591.49" width="192" height="256"/>
  <object id="246" gid="62" x="256" y="2624" width="192" height="256"/>
  <object id="265" gid="60" x="-90.8333" y="1914.83" width="192" height="256"/>
  <object id="266" gid="59" x="-77.8366" y="2062.83" width="192" height="256"/>
  <object id="267" gid="61" x="69.4966" y="1909.83" width="192" height="256"/>
  <object id="268" gid="61" x="-61.1634" y="2252.84" width="192" height="256"/>
  <object id="269" gid="60" x="29.4966" y="2183.49" width="192" height="256"/>
  <object id="270" gid="62" x="80.1666" y="2090.83" width="192" height="256"/>
  <object id="271" gid="60" x="-58.8333" y="1421.49" width="192" height="256"/>
  <object id="272" gid="59" x="-45.8366" y="1569.49" width="192" height="256"/>
  <object id="273" gid="61" x="101.497" y="1416.49" width="192" height="256"/>
  <object id="274" gid="61" x="-45.1634" y="1752.84" width="192" height="256"/>
  <object id="275" gid="60" x="84.1633" y="1714.15" width="192" height="256"/>
  <object id="276" gid="62" x="112.167" y="1597.49" width="192" height="256"/>
  <object id="277" gid="60" x="-96.1666" y="862.828" width="192" height="256"/>
  <object id="278" gid="59" x="-115.17" y="1068.16" width="192" height="256"/>
  <object id="279" gid="61" x="12.1633" y="912.495" width="192" height="256"/>
  <object id="280" gid="61" x="-87.8301" y="1266.17" width="192" height="256"/>
  <object id="281" gid="60" x="6.82995" y="1184.82" width="192" height="256"/>
  <object id="282" gid="62" x="44.1666" y="1086.83" width="192" height="256"/>
  <object id="284" gid="60" x="-16.6649" y="274.329" width="192" height="256"/>
  <object id="285" gid="59" x="-35.6683" y="479.661" width="192" height="256"/>
  <object id="286" gid="61" x="137.665" y="327.996" width="192" height="256"/>
  <object id="287" gid="61" x="-8.3284" y="677.671" width="192" height="256"/>
  <object id="288" gid="60" x="86.3316" y="596.321" width="192" height="256"/>
  <object id="289" gid="62" x="123.668" y="498.331" width="192" height="256"/>
  <object id="290" gid="61" x="3373.83" y="3156.33" width="192" height="256"/>
  <object id="291" gid="60" x="3402.5" y="2836.67" width="192" height="256"/>
  <object id="292" gid="59" x="3392.83" y="2995" width="192" height="256"/>
  <object id="293" gid="61" x="3461.33" y="2743.67" width="192" height="256"/>
  <object id="294" gid="61" x="4144.84" y="2879.35" width="192" height="256"/>
  <object id="295" gid="60" x="3611.5" y="2815.33" width="192" height="256"/>
  <object id="296" gid="62" x="4001.5" y="2821.33" width="192" height="256"/>
  <object id="297" gid="61" x="1127.5" y="2793.33" width="192" height="256"/>
  <object id="298" gid="60" x="1018.5" y="2542" width="192" height="256"/>
  <object id="299" gid="59" x="1104.83" y="2666" width="192" height="256"/>
  <object id="300" gid="61" x="1136.83" y="2444" width="192" height="256"/>
  <object id="301" gid="61" x="1268.17" y="2722.68" width="192" height="256"/>
  <object id="302" gid="60" x="1245.5" y="2578.67" width="192" height="256"/>
  <object id="303" gid="62" x="1368.17" y="2618" width="192" height="256"/>
  <object id="304" gid="61" x="1500.83" y="2749.33" width="192" height="256"/>
  <object id="305" gid="60" x="1398.5" y="2468.67" width="192" height="256"/>
  <object id="306" gid="59" x="1496.83" y="2594" width="192" height="256"/>
  <object id="307" gid="61" x="1532.16" y="2357.33" width="192" height="256"/>
  <object id="308" gid="61" x="1642.84" y="2616.01" width="192" height="256"/>
  <object id="309" gid="60" x="1659.5" y="2458" width="192" height="256"/>
  <object id="310" gid="62" x="1770.83" y="2574.67" width="192" height="256"/>
  <object id="318" gid="61" x="2292.16" y="2669.33" width="192" height="256"/>
  <object id="319" gid="60" x="2001.17" y="2334.67" width="192" height="256"/>
  <object id="320" gid="59" x="1741.5" y="2381.33" width="192" height="256"/>
  <object id="321" gid="61" x="2700.83" y="2409.33" width="192" height="256"/>
  <object id="322" gid="61" x="2046.17" y="2456.68" width="192" height="256"/>
  <object id="323" gid="60" x="1881.5" y="2493.33" width="192" height="256"/>
  <object id="324" gid="62" x="2177.5" y="2392" width="192" height="256"/>
  <object id="325" gid="61" x="2350.83" y="2440" width="192" height="256"/>
  <object id="326" gid="60" x="2228.5" y="2254" width="192" height="256"/>
  <object id="327" gid="59" x="2368.83" y="2310" width="192" height="256"/>
  <object id="328" gid="61" x="2400.83" y="2088" width="192" height="256"/>
  <object id="329" gid="61" x="2540.17" y="2401.35" width="192" height="256"/>
  <object id="330" gid="60" x="2502.83" y="2228" width="192" height="256"/>
  <object id="331" gid="62" x="2629.5" y="2250" width="192" height="256"/>
  <object id="332" gid="61" x="1916.16" y="2783.34" width="192" height="256"/>
  <object id="333" gid="60" x="1721.83" y="2786" width="192" height="256"/>
  <object id="334" gid="59" x="1906.16" y="2676.67" width="192" height="256"/>
  <object id="335" gid="61" x="2264.83" y="2526" width="192" height="256"/>
  <object id="336" gid="61" x="2069.5" y="2733.35" width="192" height="256"/>
  <object id="337" gid="60" x="2040.16" y="2594.67" width="192" height="256"/>
  <object id="338" gid="62" x="2193.5" y="2611.33" width="192" height="256"/>
  <object id="339" gid="61" x="709.83" y="2535" width="192" height="256"/>
  <object id="340" gid="60" x="640.5" y="2294" width="192" height="256"/>
  <object id="341" gid="59" x="710.83" y="2404" width="192" height="256"/>
  <object id="342" gid="61" x="742.83" y="2182" width="192" height="256"/>
  <object id="343" gid="61" x="874.17" y="2460.68" width="192" height="256"/>
  <object id="344" gid="60" x="844.83" y="2322" width="192" height="256"/>
  <object id="345" gid="62" x="971.5" y="2344" width="192" height="256"/>
  <object id="354" gid="60" x="222.5" y="1874" width="192" height="256"/>
  <object id="355" gid="59" x="424.83" y="1918" width="192" height="256"/>
  <object id="356" gid="61" x="254.769" y="1698" width="192" height="256"/>
  <object id="357" gid="61" x="598.17" y="1984.68" width="192" height="256"/>
  <object id="358" gid="60" x="558.83" y="1842" width="192" height="256"/>
  <object id="359" gid="62" x="739.5" y="1968" width="192" height="256"/>
  <object id="360" gid="60" x="212.5" y="2102.66" width="192" height="256"/>
  <object id="361" gid="59" x="298.83" y="2226.66" width="192" height="256"/>
  <object id="362" gid="61" x="330.83" y="2004.66" width="192" height="256"/>
  <object id="363" gid="61" x="462.17" y="2283.34" width="192" height="256"/>
  <object id="364" gid="60" x="432.83" y="2144.66" width="192" height="256"/>
  <object id="365" gid="62" x="575.5" y="2160.66" width="192" height="256"/>
  <object id="366" gid="60" x="202.5" y="2356.66" width="192" height="256"/>
  <object id="367" gid="59" x="288.83" y="2480.66" width="192" height="256"/>
  <object id="368" gid="61" x="320.83" y="2258.66" width="192" height="256"/>
  <object id="369" gid="61" x="446" y="2508" width="192" height="256"/>
  <object id="370" gid="60" x="422.83" y="2398.66" width="192" height="256"/>
  <object id="371" gid="62" x="549.5" y="2420.66" width="192" height="256"/>
  <object id="372" gid="60" x="3150.5" y="2282.66" width="192" height="256"/>
  <object id="373" gid="59" x="3232.83" y="2421.33" width="192" height="256"/>
  <object id="374" gid="61" x="3280.83" y="2157.99" width="192" height="256"/>
  <object id="375" gid="61" x="3409.17" y="2429.67" width="192" height="256"/>
  <object id="376" gid="60" x="3382.83" y="2297.99" width="192" height="256"/>
  <object id="377" gid="62" x="3509.5" y="2319.99" width="192" height="256"/>
  <object id="378" gid="60" x="4001.17" y="2291.99" width="192" height="256"/>
  <object id="379" gid="59" x="4087.5" y="2415.99" width="192" height="256"/>
  <object id="380" gid="61" x="4119.5" y="2193.99" width="192" height="256"/>
  <object id="381" gid="61" x="4297.84" y="2462.67" width="192" height="256"/>
  <object id="382" gid="60" x="4221.5" y="2333.99" width="192" height="256"/>
  <object id="383" gid="62" x="4348.17" y="2355.99" width="192" height="256"/>
  <object id="384" gid="60" x="4081.17" y="1903.99" width="192" height="256"/>
  <object id="385" gid="59" x="4167.5" y="2027.99" width="192" height="256"/>
  <object id="386" gid="61" x="4199.5" y="1805.99" width="192" height="256"/>
  <object id="387" gid="61" x="4330.84" y="2084.67" width="192" height="256"/>
  <object id="388" gid="60" x="4301.5" y="1945.99" width="192" height="256"/>
  <object id="389" gid="62" x="4428.17" y="1967.99" width="192" height="256"/>
  <object id="390" gid="60" x="4091.83" y="1563.99" width="192" height="256"/>
  <object id="391" gid="59" x="4178.16" y="1687.99" width="192" height="256"/>
  <object id="392" gid="61" x="4210.16" y="1465.99" width="192" height="256"/>
  <object id="393" gid="61" x="4341.5" y="1744.67" width="192" height="256"/>
  <object id="394" gid="60" x="4312.16" y="1605.99" width="192" height="256"/>
  <object id="395" gid="62" x="4438.83" y="1627.99" width="192" height="256"/>
  <object id="396" gid="60" x="4085.05" y="1179.14" width="192" height="256"/>
  <object id="397" gid="59" x="4171.38" y="1303.14" width="192" height="256"/>
  <object id="399" gid="61" x="4334.72" y="1359.82" width="192" height="256"/>
  <object id="400" gid="60" x="4305.38" y="1221.14" width="192" height="256"/>
  <object id="401" gid="62" x="4432.05" y="1243.14" width="192" height="256"/>
  <object id="408" gid="60" x="4112.32" y="430.66" width="192" height="256"/>
  <object id="409" gid="59" x="4223.98" y="550.66" width="192" height="256"/>
  <object id="410" gid="61" x="4230.65" y="332.66" width="192" height="256"/>
  <object id="411" gid="61" x="4361.99" y="611.34" width="192" height="256"/>
  <object id="412" gid="60" x="4332.65" y="472.66" width="192" height="256"/>
  <object id="413" gid="62" x="4261.32" y="641.66" width="192" height="256"/>
  <object id="414" gid="60" x="4029.92" y="240.115" width="192" height="256"/>
  <object id="415" gid="59" x="3919.25" y="330.115" width="192" height="256"/>
  <object id="416" gid="61" x="3981.25" y="95.1145" width="192" height="256"/>
  <object id="417" gid="61" x="4321.59" y="128.795" width="192" height="256"/>
  <object id="418" gid="60" x="4193.25" y="218.115" width="192" height="256"/>
  <object id="419" gid="62" x="4319.92" y="240.115" width="192" height="256"/>
  <object id="420" gid="60" x="3484.35" y="171.387" width="192" height="256"/>
  <object id="421" gid="59" x="3601.68" y="227.387" width="192" height="256"/>
  <object id="422" gid="61" x="4097.68" y="273.387" width="192" height="256"/>
  <object id="423" gid="61" x="3765.02" y="284.067" width="192" height="256"/>
  <object id="424" gid="60" x="3735.68" y="145.387" width="192" height="256"/>
  <object id="425" gid="62" x="3862.35" y="167.387" width="192" height="256"/>
  <object id="426" gid="60" x="3044.32" y="111.387" width="192" height="256"/>
  <object id="427" gid="59" x="3165.31" y="160.721" width="192" height="256"/>
  <object id="429" gid="61" x="2793.99" y="160.401" width="192" height="256"/>
  <object id="430" gid="60" x="3295.31" y="90.7206" width="192" height="256"/>
  <object id="431" gid="62" x="3425.98" y="100.721" width="192" height="256"/>
  <object id="432" gid="60" x="2578.98" y="12.4782" width="192" height="256"/>
  <object id="433" gid="59" x="2665.31" y="136.478" width="192" height="256"/>
  <object id="435" gid="61" x="2562.32" y="158.492" width="192" height="256"/>
  <object id="436" gid="60" x="2799.31" y="54.4782" width="192" height="256"/>
  <object id="437" gid="62" x="2943.32" y="83.1448" width="192" height="256"/>
  <object id="438" gid="60" x="2169.89" y="-8.73394" width="192" height="256"/>
  <object id="439" gid="59" x="2185.56" y="151.266" width="192" height="256"/>
  <object id="441" gid="61" x="2330.23" y="74.6127" width="192" height="256"/>
  <object id="442" gid="60" x="2390.22" y="33.2661" width="192" height="256"/>
  <object id="443" gid="62" x="2516.89" y="55.2661" width="192" height="256"/>
  <object id="450" gid="60" x="1778.14" y="186.054" width="192" height="256"/>
  <object id="451" gid="59" x="1847.13" y="127.387" width="192" height="256"/>
  <object id="453" gid="61" x="2007.81" y="138.734" width="192" height="256"/>
  <object id="454" gid="60" x="1981.13" y="45.3873" width="192" height="256"/>
  <object id="455" gid="62" x="2107.8" y="67.3873" width="192" height="256"/>
  <object id="462" gid="60" x="1291.5" y="185.478" width="192" height="256"/>
  <object id="463" gid="59" x="1463.83" y="95.4782" width="192" height="256"/>
  <object id="465" gid="61" x="1576.17" y="192.158" width="192" height="256"/>
  <object id="466" gid="60" x="1441.83" y="239.478" width="192" height="256"/>
  <object id="467" gid="62" x="1677.5" y="76.4782" width="192" height="256"/>
  <object id="468" gid="60" x="926.318" y="19.357" width="192" height="256"/>
  <object id="469" gid="59" x="1007.65" y="148.357" width="192" height="256"/>
  <object id="471" gid="61" x="1134.99" y="201.037" width="192" height="256"/>
  <object id="472" gid="60" x="1117.65" y="57.357" width="192" height="256"/>
  <object id="473" gid="62" x="1279.32" y="82.357" width="192" height="256"/>
  <object id="480" gid="60" x="553.833" y="81.0236" width="192" height="256"/>
  <object id="481" gid="59" x="612.163" y="203.024" width="192" height="256"/>
  <object id="483" gid="61" x="883.503" y="245.704" width="192" height="256"/>
  <object id="484" gid="60" x="784.163" y="109.024" width="192" height="256"/>
  <object id="485" gid="62" x="907.833" y="170.024" width="192" height="256"/>
  <object id="486" gid="60" x="36.3182" y="105.448" width="192" height="256"/>
  <object id="487" gid="59" x="190.648" y="223.448" width="192" height="256"/>
  <object id="488" gid="61" x="232.648" y="49.4479" width="192" height="256"/>
  <object id="489" gid="61" x="293.988" y="312.128" width="192" height="256"/>
  <object id="490" gid="60" x="336.648" y="153.448" width="192" height="256"/>
  <object id="491" gid="62" x="429.318" y="209.448" width="192" height="256"/>
  <object id="498" gid="60" x="3638.5" y="414.66" width="192" height="256"/>
  <object id="499" gid="59" x="3724.83" y="538.66" width="192" height="256"/>
  <object id="500" gid="61" x="4068.83" y="584.66" width="192" height="256"/>
  <object id="501" gid="61" x="3918.17" y="573.007" width="192" height="256"/>
  <object id="502" gid="60" x="3858.83" y="456.66" width="192" height="256"/>
  <object id="503" gid="62" x="3989.5" y="448.993" width="192" height="256"/>
  <object id="504" gid="60" x="3742.5" y="1690.66" width="192" height="256"/>
  <object id="505" gid="59" x="3828.83" y="1814.66" width="192" height="256"/>
  <object id="506" gid="61" x="3709.5" y="1531.32" width="192" height="256"/>
  <object id="507" gid="61" x="3992.17" y="1871.34" width="192" height="256"/>
  <object id="508" gid="60" x="3962.83" y="1732.66" width="192" height="256"/>
  <object id="509" gid="62" x="4089.5" y="1754.66" width="192" height="256"/>
  <object id="510" gid="60" x="3306.5" y="1538.66" width="192" height="256"/>
  <object id="511" gid="59" x="3403.5" y="1646.66" width="192" height="256"/>
  <object id="512" gid="61" x="3424.83" y="1440.66" width="192" height="256"/>
  <object id="513" gid="61" x="3556.17" y="1719.34" width="192" height="256"/>
  <object id="514" gid="60" x="3526.83" y="1580.66" width="192" height="256"/>
  <object id="515" gid="62" x="3616.83" y="1539.99" width="192" height="256"/>
  <object id="522" gid="60" x="3633.17" y="1403.99" width="192" height="256"/>
  <object id="523" gid="59" x="3836.83" y="1422.66" width="192" height="256"/>
  <object id="524" gid="61" x="3754.16" y="1224.66" width="192" height="256"/>
  <object id="525" gid="61" x="3934.84" y="1506.01" width="192" height="256"/>
  <object id="526" gid="60" x="3930.83" y="1288.66" width="192" height="256"/>
  <object id="527" gid="62" x="4062.83" y="1367.99" width="192" height="256"/>
  <object id="528" gid="60" x="272.5" y="1500.66" width="192" height="256"/>
  <object id="529" gid="59" x="355.8" y="1624.66" width="192" height="256"/>
  <object id="530" gid="61" x="390.83" y="1402.66" width="192" height="256"/>
  <object id="531" gid="61" x="436.17" y="1703.34" width="192" height="256"/>
  <object id="532" gid="60" x="494.83" y="1564.66" width="192" height="256"/>
  <object id="533" gid="62" x="135.5" y="1280.66" width="192" height="256"/>
  <object id="534" gid="60" x="190.5" y="1110.66" width="192" height="256"/>
  <object id="535" gid="59" x="280.83" y="1290.66" width="192" height="256"/>
  <object id="536" gid="61" x="326.83" y="1028.66" width="192" height="256"/>
  <object id="537" gid="61" x="458.17" y="1307.34" width="192" height="256"/>
  <object id="538" gid="60" x="428.83" y="1168.66" width="192" height="256"/>
  <object id="539" gid="62" x="555.5" y="1190.66" width="192" height="256"/>
  <object id="540" gid="60" x="130.5" y="784.66" width="192" height="256"/>
  <object id="541" gid="59" x="204.83" y="952.66" width="192" height="256"/>
  <object id="542" gid="61" x="228.83" y="672.66" width="192" height="256"/>
  <object id="543" gid="61" x="404.17" y="985.34" width="192" height="256"/>
  <object id="544" gid="60" x="374.83" y="846.66" width="192" height="256"/>
  <object id="545" gid="62" x="501.5" y="868.66" width="192" height="256"/>
  <object id="546" gid="60" x="274.5" y="504.66" width="192" height="256"/>
  <object id="547" gid="59" x="380.83" y="624.66" width="192" height="256"/>
  <object id="548" gid="61" x="456.83" y="394.66" width="192" height="256"/>
  <object id="549" gid="61" x="542.17" y="675.34" width="192" height="256"/>
  <object id="550" gid="60" x="512.83" y="536.66" width="192" height="256"/>
  <object id="551" gid="62" x="639.5" y="558.66" width="192" height="256"/>
  <object id="558" gid="60" x="602.5" y="358.66" width="192" height="250"/>
  <object id="559" gid="59" x="736.83" y="500.66" width="192" height="256"/>
  <object id="560" gid="61" x="748.83" y="310.66" width="192" height="256"/>
  <object id="561" gid="61" x="900.17" y="558.34" width="192" height="256"/>
  <object id="562" gid="60" x="879.497" y="444.66" width="192" height="256"/>
  <object id="563" gid="62" x="997.5" y="440.66" width="192" height="256"/>
  <object id="564" gid="60" x="1046.5" y="322.66" width="192" height="256"/>
  <object id="565" gid="59" x="1132.83" y="446.66" width="192" height="256"/>
  <object id="566" gid="61" x="1164.83" y="224.66" width="192" height="256"/>
  <object id="567" gid="61" x="1373.5" y="520.673" width="192" height="256"/>
  <object id="568" gid="60" x="1266.83" y="364.66" width="192" height="256"/>
  <object id="569" gid="62" x="1415.5" y="402.66" width="192" height="256"/>
  <object id="576" gid="60" x="1890.5" y="477.993" width="192" height="256"/>
  <object id="577" gid="59" x="1600.83" y="472.66" width="192" height="256"/>
  <object id="578" gid="61" x="1670.16" y="257.327" width="192" height="256"/>
  <object id="579" gid="61" x="1537.5" y="350.673" width="192" height="256"/>
  <object id="580" gid="60" x="1734.83" y="390.66" width="192" height="256"/>
  <object id="581" gid="62" x="1861.5" y="412.66" width="192" height="256"/>
  <object id="582" gid="60" x="1922.5" y="306.66" width="192" height="256"/>
  <object id="583" gid="59" x="2008.83" y="430.66" width="192" height="256"/>
  <object id="584" gid="61" x="2040.83" y="208.66" width="192" height="256"/>
  <object id="585" gid="61" x="2172.17" y="455.34" width="192" height="256"/>
  <object id="586" gid="60" x="2166.83" y="322.66" width="192" height="256"/>
  <object id="587" gid="62" x="2269.5" y="370.66" width="192" height="256"/>
  <object id="588" gid="60" x="2362.5" y="286.66" width="192" height="256"/>
  <object id="589" gid="59" x="2448.83" y="410.66" width="192" height="256"/>
  <object id="590" gid="61" x="2434.16" y="204.66" width="192" height="256"/>
  <object id="591" gid="61" x="2766.84" y="224.673" width="192" height="256"/>
  <object id="592" gid="60" x="2582.83" y="328.66" width="192" height="256"/>
  <object id="593" gid="62" x="2709.5" y="350.66" width="192" height="256"/>
  <object id="594" gid="60" x="2745.83" y="444.66" width="192" height="256"/>
  <object id="595" gid="59" x="2869.5" y="356.66" width="192" height="256"/>
  <object id="596" gid="61" x="2942.83" y="210.66" width="192" height="256"/>
  <object id="597" gid="61" x="3108.84" y="204.007" width="192" height="256"/>
  <object id="598" gid="60" x="3044.83" y="350.66" width="192" height="256"/>
  <object id="599" gid="62" x="3171.5" y="372.66" width="192" height="256"/>
  <object id="600" gid="60" x="3201.17" y="273.327" width="192" height="256"/>
  <object id="601" gid="59" x="3272.83" y="422.66" width="192" height="256"/>
  <object id="602" gid="61" x="3331.83" y="199.66" width="192" height="256"/>
  <object id="603" gid="61" x="3436.17" y="479.34" width="192" height="256"/>
  <object id="604" gid="60" x="3406.83" y="340.66" width="192" height="256"/>
  <object id="605" gid="62" x="3537.5" y="389.327" width="192" height="256"/>
  <object id="606" gid="60" x="857.333" y="2532" width="192" height="256"/>
  <object id="607" gid="60" x="1013.33" y="2675.33" width="192" height="256"/>
  <object id="610" gid="62" x="1348" y="2794" width="192" height="256"/>
  <object id="611" gid="60" x="2488" y="2478" width="192" height="256"/>
  <object id="707" gid="60" x="3136" y="2688" width="192" height="256"/>
  <object id="758" gid="61" x="3377" y="4572" width="192" height="256"/>
  <object id="759" gid="61" x="3859" y="4590" width="192" height="256"/>
  <object id="760" gid="61" x="4233" y="4428" width="192" height="256"/>
  <object id="761" gid="59" x="4312" y="4551" width="192" height="256"/>
  <object id="762" gid="59" x="3958" y="4610" width="192" height="256"/>
  <object id="763" gid="60" x="4153" y="4588" width="192" height="256"/>
  <object id="764" gid="60" x="4396" y="3938.67" width="192" height="256"/>
  <object id="765" gid="60" x="4308" y="3636" width="192" height="256"/>
  <object id="780" gid="60" x="4258.67" y="2174.67" width="192" height="256"/>
  <object id="868" gid="59" x="3824.67" y="1602" width="192" height="256"/>
  <object id="870" gid="59" x="-64" y="3660" width="192" height="256"/>
  <object id="956" gid="255" x="854" y="2556" width="192" height="64"/>
  <object id="1034" gid="256" x="4380.67" y="3210" width="192" height="64"/>
  <object id="1035" gid="255" x="1491" y="2617" width="192" height="64"/>
  <object id="1036" gid="255" x="1742" y="2393" width="192" height="64"/>
  <object id="1037" gid="255" x="2001" y="2344" width="192" height="64"/>
  <object id="1038" gid="255" x="2500" y="2249" width="192" height="64"/>
  <object id="1042" gid="60" x="2577.33" y="4121.33" width="192" height="256"/>
  <object id="1043" gid="61" x="2860" y="4028.67" width="192" height="256"/>
  <object id="1044" gid="61" x="3050.42" y="4425.75" width="192" height="256"/>
  <object id="1064" gid="61" x="3255.33" y="4346.67" width="192" height="256"/>
  <object id="1070" gid="60" x="2876.5" y="4091" width="192" height="256"/>
  <object id="1074" gid="61" x="2876" y="4606" width="192" height="256"/>
  <object id="1075" gid="62" x="2346" y="4538" width="192" height="256"/>
  <object id="1078" gid="59" x="1154.67" y="4353.33" width="192" height="256"/>
 </objectgroup>
 <objectgroup id="13" name="SpawnPoint">
  <object id="869" name="Boss" x="1827.09" y="1137.09">
   <point/>
  </object>
  <object id="1073" name="Chest" x="2847.33" y="4074.67">
   <point/>
  </object>
  <object id="1081" name="Player" x="1575" y="4405">
   <point/>
  </object>
 </objectgroup>
 <objectgroup id="2" name="Collision">
  <object id="7" x="1986" y="3840" width="637.75" height="639.667"/>
  <object id="612" x="4352" y="318" width="128" height="322"/>
  <object id="615" x="64" y="3200" width="64" height="235.333"/>
  <object id="616" x="128" y="3136" width="64" height="227.333"/>
  <object id="617" x="192" y="3072" width="64" height="228"/>
  <object id="618" x="256" y="2752" width="64" height="484"/>
  <object id="619" x="320" y="2688" width="64" height="228.364"/>
  <object id="622" x="384" y="2624" width="64" height="228.122"/>
  <object id="623" x="448" y="2560" width="64" height="228.303"/>
  <object id="624" x="512" y="2560" width="384" height="164.076"/>
  <object id="625" x="896" y="2560" width="64" height="225.666"/>
  <object id="626" x="960" y="2624" width="64" height="225.666"/>
  <object id="627" x="1024" y="2688" width="64" height="225.667"/>
  <object id="629" x="1088" y="2752" width="1280" height="228"/>
  <object id="633" x="2368" y="2688" width="64" height="228"/>
  <object id="634" x="2432" y="2624" width="64" height="228"/>
  <object id="636" x="2496" y="2560" width="64" height="228"/>
  <object id="637" x="2560" y="2496" width="64" height="227.667"/>
  <object id="638" x="2624" y="2432" width="64" height="227.667"/>
  <object id="639" x="2688" y="2432" width="218.333" height="164"/>
  <object id="641" x="3328" y="2431" width="449.5" height="165"/>
  <object id="642" x="3392" y="2687.5" width="384" height="75.1667"/>
  <object id="643" x="4032" y="2432" width="256" height="320"/>
  <object id="644" x="4288" y="2432" width="64" height="320.667"/>
  <object id="645" x="4352" y="2496" width="64" height="256"/>
  <object id="646" x="320" y="3648" width="896" height="835"/>
  <object id="647" x="256" y="3712" width="64" height="768"/>
  <object id="652" x="1024" y="3584" width="192.5" height="64"/>
  <object id="654" x="1280" y="3456" width="64" height="228"/>
  <object id="655" x="1152" y="3520" width="63.75" height="64"/>
  <object id="656" x="1344" y="3456" width="64" height="164"/>
  <object id="657" x="1664" y="3456" width="64" height="158.5"/>
  <object id="659" x="1793.33" y="3520" width="62.6667" height="162.5"/>
  <object id="661" x="1856" y="3520" width="64" height="226.208"/>
  <object id="662" x="1920.25" y="3583.88" width="64" height="164.208"/>
  <object id="663" x="1984" y="3591.33" width="64" height="248.667"/>
  <object id="664" x="2048" y="3648" width="960" height="192"/>
  <object id="665" x="2944" y="3592" width="64" height="56"/>
  <object id="666" x="3008" y="3526.67" width="64" height="249.333"/>
  <object id="667" x="3072" y="3463.33" width="64" height="184.667"/>
  <object id="668" x="3136" y="3398.67" width="64" height="249.333"/>
  <object id="670" x="3200" y="3333.33" width="64" height="250.667"/>
  <object id="671" x="3264" y="3270" width="64" height="250"/>
  <object id="672" x="3328" y="2687.5" width="64" height="768.5"/>
  <object id="674" x="1434" y="3456" width="32" height="251.25"/>
  <object id="675" x="1606" y="3456.5" width="31" height="250"/>
  <object id="676" x="1637" y="3456" width="27" height="158.5"/>
  <object id="677" x="1407.82" y="3455.82" width="26.1818" height="164.682"/>
  <object id="678" x="2905.67" y="2431.33" width="30.3334" height="250"/>
  <object id="679" x="3080.17" y="2432" width="28.5" height="250.667"/>
  <object id="683" x="3973.33" y="2432" width="34.6667" height="442.667"/>
  <object id="684" x="3801.33" y="2431.33" width="34" height="444.667"/>
  <object id="685" x="3776.67" y="2432.67" width="24" height="319.333"/>
  <object id="686" x="4008" y="2430.67" width="23.3333" height="320.667"/>
  <object id="689" x="1281" y="193" width="2560" height="127"/>
  <object id="690" x="576.5" y="320" width="191.5" height="238"/>
  <object id="710" x="768" y="320" width="96.5" height="179"/>
  <object id="711" x="512" y="555" width="128" height="213"/>
  <object id="714" x="512" y="960.667" width="64" height="346.667"/>
  <object id="715" x="864" y="257" width="416" height="127"/>
  <object id="716" x="1200" y="677.333" height="1.33333"/>
  <object id="718" x="1214.67" y="4152.67" width="55.3333" height="28.6667"/>
  <object id="719" x="1216" y="3520" width="63.5" height="192"/>
  <object id="720" x="1215.33" y="4004.67" width="62.8333" height="28.6667"/>
  <object id="725" x="0" y="3776" width="256" height="704"/>
  <object id="727" x="0" y="3200" width="64" height="576"/>
  <object id="729" x="2817.27" y="2660.55" width="60.7273" height="27.6364"/>
  <object id="730" x="1944" y="4387" width="54" height="28.5"/>
  <object id="731" x="1856.5" y="4259.5" width="67" height="26.5"/>
  <object id="732" x="1929" y="3984" width="58" height="29"/>
  <object id="733" x="3108.5" y="2432" width="219.5" height="157"/>
  <object id="734" x="3199" y="2659.5" width="65" height="27"/>
  <object id="735" x="4224" y="2752" width="258.667" height="192"/>
  <object id="736" x="4416" y="2560" width="64" height="192"/>
  <object id="737" x="4352" y="2944" width="128" height="384.167"/>
  <object id="738" x="4238" y="3011.67" width="59.6667" height="30"/>
  <object id="741" x="4215.5" y="3378.5" width="73" height="32.5"/>
  <object id="742" x="4160" y="3712" width="320" height="640.667"/>
  <object id="743" x="4288" y="3328" width="192" height="384"/>
  <object id="744" x="4194" y="3604.67" width="68.6667" height="33.3333"/>
  <object id="745" x="4108" y="3923.33" width="54.6667" height="30"/>
  <object id="746" x="3328" y="3456" width="129" height="384"/>
  <object id="747" x="3456.67" y="3509.33" width="69.3333" height="31.3333"/>
  <object id="748" x="3452" y="3714" width="39.5" height="52"/>
  <object id="749" x="3548.5" y="3806" width="62.5" height="28.5"/>
  <object id="750" x="3414.5" y="3827.5" width="63" height="28"/>
  <object id="751" x="3252.5" y="3841" width="123" height="130"/>
  <object id="752" x="4032" y="4096" width="128" height="256"/>
  <object id="753" x="3840" y="4160" width="192" height="256"/>
  <object id="754" x="2687.67" y="4350.67" width="1152.33" height="129.333"/>
  <object id="756" x="3136" y="3904" width="128" height="256"/>
  <object id="766" x="3440.33" y="3128.67" width="59" height="28"/>
  <object id="771" x="3675.5" y="2785" width="64" height="30.5"/>
  <object id="773" x="3392" y="2762.7" width="128" height="247.803"/>
  <object id="774" x="3239" y="4029.67" width="51" height="28.8333"/>
  <object id="776" x="3214" y="2250" width="65" height="36.5"/>
  <object id="777" x="3264" y="2112" width="29.6667" height="191.333"/>
  <object id="778" x="3576" y="2289.5" width="59.5" height="30"/>
  <object id="779" x="3537.67" y="2176" width="46.3333" height="127.833"/>
  <object id="781" x="2304" y="2112" width="320" height="384"/>
  <object id="782" x="2048.67" y="2240" width="255.333" height="64.6667"/>
  <object id="784" x="1409.5" y="2304" width="895.833" height="128"/>
  <object id="785" x="1600.67" y="2240" width="319.333" height="64"/>
  <object id="789" x="2465.75" y="2059.5" width="64.25" height="28.75"/>
  <object id="790" x="2767.25" y="2380.75" width="60" height="28"/>
  <object id="791" x="2695.25" y="2221.5" width="58.75" height="28"/>
  <object id="792" x="2615.75" y="2372" width="54.25" height="28.5"/>
  <object id="793" x="1210.5" y="2416" width="52.5" height="24"/>
  <object id="794" x="1023" y="2432" width="512" height="130"/>
  <object id="795" x="959" y="2366.67" width="193" height="63.3333"/>
  <object id="796" x="960" y="2240" width="128" height="128"/>
  <object id="797" x="830.667" y="2176" width="129.333" height="128.667"/>
  <object id="798" x="640" y="2112" width="192" height="128"/>
  <object id="799" x="576" y="1664" width="128" height="448"/>
  <object id="800" x="695.667" y="1960" width="28.3333" height="24.3333"/>
  <object id="801" x="805" y="1939.33" width="61" height="28.3333"/>
  <object id="802" x="824" y="2148.75" width="41.25" height="30.5"/>
  <object id="803" x="448" y="1408" width="128" height="320"/>
  <object id="804" x="384" y="707.333" width="128" height="700.667"/>
  <object id="805" x="620.5" y="1161.25" width="61" height="29.75"/>
  <object id="806" x="529" y="1279.25" width="55.75" height="27.75"/>
  <object id="807" x="569" y="839.667" width="58.6667" height="28.3333"/>
  <object id="808" x="616.333" y="646.667" width="52.3333" height="29"/>
  <object id="809" x="965.75" y="529.75" width="60.5" height="28"/>
  <object id="810" x="1062.5" y="412.5" width="61.25" height="27.75"/>
  <object id="811" x="1196.33" y="417.333" width="64.6667" height="29"/>
  <object id="812" x="1438.91" y="492.364" width="60.9091" height="28.9091"/>
  <object id="813" x="1330.73" y="335.091" width="64.9091" height="29.4545"/>
  <object id="816" x="1479.33" y="377.667" width="63.3333" height="25.3333"/>
  <object id="817" x="1664.5" y="442.25" width="64.5" height="30.25"/>
  <object id="818" x="1798" y="360" width="65.25" height="30.75"/>
  <object id="819" x="1953.75" y="447.75" width="65.25" height="29.75"/>
  <object id="820" x="2071.75" y="400" width="65.25" height="30.75"/>
  <object id="821" x="1664" y="320" width="64" height="64"/>
  <object id="822" x="1920" y="320" width="198.667" height="64"/>
  <object id="823" x="2237.25" y="427.5" width="61.25" height="27.25"/>
  <object id="824" x="2335" y="343" width="61.25" height="27.25"/>
  <object id="825" x="2512.5" y="381.25" width="64.25" height="29.75"/>
  <object id="826" x="2646.25" y="316.75" width="52.75" height="11.5"/>
  <object id="827" x="2808.75" y="414.5" width="65.25" height="30.75"/>
  <object id="828" x="2928.5" y="317.75" width="69.5" height="41.5"/>
  <object id="829" x="3107.75" y="316" width="65.25" height="34.75"/>
  <object id="830" x="3237.25" y="344.25" width="61.5" height="29"/>
  <object id="831" x="3336.25" y="392.75" width="65" height="30.5"/>
  <object id="832" x="3501.75" y="451.25" width="60.5" height="27.75"/>
  <object id="833" x="3602.5" y="360.75" width="60.5" height="28.5"/>
  <object id="834" x="3712" y="320" width="640" height="128"/>
  <object id="835" x="3788" y="507.5" width="65" height="31"/>
  <object id="836" x="3922" y="443.667" width="62.3333" height="13.3333"/>
  <object id="837" x="4326.5" y="613" width="60" height="27.5"/>
  <object id="838" x="3983" y="546.5" width="60.5" height="26.5"/>
  <object id="839" x="4134.5" y="556" width="60" height="28"/>
  <object id="840" x="4287" y="517" width="66.6667" height="33.3333"/>
  <object id="842" x="4160" y="2112" width="128" height="320"/>
  <object id="843" x="4224" y="1792" width="128" height="320"/>
  <object id="844" x="4096" y="1664" width="256" height="128"/>
  <object id="845" x="3904" y="1600" width="256" height="128"/>
  <object id="846" x="3776" y="1536.5" width="192" height="63.5"/>
  <object id="848" x="4096" y="1024" width="384" height="128"/>
  <object id="849" x="3968" y="1088" width="128" height="128"/>
  <object id="850" x="3689" y="1216" width="279" height="162.667"/>
  <object id="852" x="3392" y="1355.17" width="384" height="116.833"/>
  <object id="853" x="3520" y="1472" width="320" height="64"/>
  <object id="854" x="4096" y="2112" width="64" height="128"/>
  <object id="858" x="3370" y="1507.75" width="56.75" height="31.75"/>
  <object id="859" x="3466.5" y="1616.25" width="65.25" height="30.5"/>
  <object id="860" x="3621.25" y="1690.5" width="61" height="29.5"/>
  <object id="862" x="3806.25" y="1659" width="64.5" height="31.5"/>
  <object id="863" x="3892.25" y="1784" width="64.5" height="31"/>
  <object id="864" x="4057.25" y="1843.25" width="61" height="27.75"/>
  <object id="865" x="4144.25" y="1873.5" width="64.25" height="30"/>
  <object id="866" x="3820.25" y="1196" width="57.75" height="30.25"/>
  <object id="1039" x="1727.33" y="3456" width="65.3333" height="226.667"/>
  <object id="1041" x="3293.33" y="2111.33" width="244" height="320.667"/>
  <object id="1046" x="3170.5" y="4204.5" width="66.5" height="35.25"/>
  <object id="1052" x="2624" y="3840" width="512" height="91.3333"/>
  <object id="1057" x="2940.14" y="4062.09" width="64.0909" height="30.8182"/>
  <object id="1059" x="2785.27" y="3987.27" width="65.0909" height="30.7273"/>
  <object id="1061" x="2640" y="4092.36" width="64.9091" height="28.1818"/>
  <object id="1062" x="2624" y="3932.67" width="64" height="99.3333"/>
  <object id="1065" x="3317.33" y="4320" width="63.3333" height="35.3333"/>
  <object id="1066" x="3061.67" y="4205.33" width="66.3333" height="29"/>
  <object id="1069" x="2624" y="4288" width="64" height="191.667"/>
  <object id="1071" x="3008" y="3932.67" width="64" height="91.3333"/>
  <object id="1072" x="3072" y="3932" width="64" height="164"/>
  <object id="1079" x="1216" y="4323" width="66" height="30.5"/>
  <object id="1080" x="3456" y="2584" width="320" height="104"/>
  <object id="1082" name="Warp" type="SceneHomeNorth" x="1217.08" y="4439.54" width="770.833" height="16.9167">
   <properties>
    <property name="X" type="float" value="0"/>
    <property name="Y" type="float" value="0"/>
   </properties>
  </object>
  <object id="1083" x="1217" y="4456" width="768" height="23"/>
  <object id="1084" x="4455.33" y="640.667" width="24.6667" height="382.667"/>
  <object id="1086" name="Warp" type="SceneWaterfall" x="4439.74" y="640.667" width="13.8485" height="383.333">
   <properties>
    <property name="X" type="float" value="125"/>
    <property name="Y" type="float" value="2212"/>
   </properties>
  </object>
  <object id="1087" x="4224" y="576" width="64" height="64"/>
  <object id="1088" x="3008" y="320" width="64" height="64"/>
  <object id="1089" x="768" y="512" width="64" height="64"/>
  <object id="1090" x="640" y="1216" width="64" height="64"/>
  <object id="1091" x="768" y="2752" width="64" height="64"/>
  <object id="1092" x="512" y="2816" width="64" height="64"/>
  <object id="1093" x="192" y="3648" width="64" height="128"/>
  <object id="1094" x="1344" y="3648" width="64" height="64"/>
  <object id="1095" x="1856" y="3968" width="64" height="64"/>
  <object id="1096" x="1216" y="4352" width="64" height="64"/>
  <object id="1097" x="2688" y="4096" width="64" height="64"/>
  <object id="1098" x="2880" y="3520" width="64" height="64"/>
  <object id="1099" x="3392" y="3264" width="64" height="64"/>
  <object id="1100" x="3584" y="2752" width="64" height="64"/>
  <object id="1101" x="3584" y="2368" width="64" height="64"/>
  <object id="1102" x="3520" y="1664" width="64" height="64"/>
  <object id="1103" x="3968" y="1856" width="64" height="64"/>
  <object id="1104" x="4032" y="2368" width="64" height="64"/>
  <object id="1105" x="4224" y="3136" width="64" height="64"/>
  <object id="1106" x="3392" y="3904" width="64" height="64"/>
 </objectgroup>
</map>
